; generated by SuperSlicer 2.3.56 on 2021-05-24 at 01:19:37 UTC

; 

; external perimeters extrusion width = 0.42mm
; perimeters extrusion width = 0.44mm
; infill extrusion width = 0.44mm
; solid infill extrusion width = 0.44mm
; top infill extrusion width = 0.40mm
; first layer extrusion width = 0.56mm

; object:{"name":"ADXL-Halter-V1","id":"ADXL-Halter-V1.1.stl id:0 copy 0","object_center":[139.475075,100.733518,0.000000],"boundingbox_center":[139.475075,100.733518,7.450000],"boundingbox_size":[38.000000,15.000000,14.900000]}
; object:{"name":"ADXL-Halter-V1","id":"ADXL-Halter-V1.2.stl id:1 copy 0","object_center":[119.616839,129.544097,0.000000],"boundingbox_center":[119.616839,129.544097,7.500000],"boundingbox_size":[15.077047,32.080059,15.000000]}
; object:{"name":"ADXL-Halter-V1","id":"ADXL-Halter-V1.3.stl id:2 copy 0","object_center":[92.963308,108.479741,0.000000],"boundingbox_center":[92.963308,108.479741,7.500000],"boundingbox_size":[32.086371,15.090734,15.000000]}
; plater:{"center":[117.697599,119.408822,0.000000],"boundingbox_center":[117.697599,119.408822,7.500000],"boundingbox_size":[81.554952,52.350609,15.000000]}

;TYPE:Custom
START_PRINT T_BED=70 T_EXTRUDER=240 Z_OFFSET=0.0
M107
G21 ; set units to millimeters
G90 ; use absolute coordinates
M82 ; use absolute distances for extrusion
G92 E0
; Filament gcode
M104 S240 ; set temperature
M109 S240 ; set temperature and wait for it to be reached
M190 S70 ; set bed temperature and wait for it to be reached
M107
;LAYER_CHANGE
;Z:0.16
;HEIGHT:0.16
;BEFORE_LAYER_CHANGE
;0.16


G1 E-5.00000 F3600.000
G1 Z0.160000 F6000.000
;AFTER_LAYER_CHANGE
;0.16
G92 E0
G1 X73.620 Y96.370
G1 E5.00000 F2400.000
;TYPE:Skirt
;WIDTH:0.56
G1 F1200.000
G1 X75.003 Y95.664 E5.05429
G1 X75.881 Y95.431 E5.08606
G1 X119.908 Y87.473 E6.65051
G1 X158.481 Y87.445 E7.99931
G1 X159.451 Y87.528 E8.03336
G1 X160.394 Y87.772 E8.06740
G1 X161.282 Y88.171 E8.10145
G1 X162.091 Y88.713 E8.13549
G1 X162.797 Y89.383 E8.16954
G1 X163.381 Y90.162 E8.20358
G1 X163.827 Y91.028 E8.23763
G1 X164.121 Y91.956 E8.27168
G1 X164.263 Y93.182 E8.31483
G1 X164.262 Y108.358 E8.84551
G1 X164.112 Y109.547 E8.88742
G1 X163.724 Y110.675 E8.92912
G1 X162.916 Y111.946 E8.98177
G1 X131.361 Y149.362 E10.69328
G1 X130.237 Y150.364 E10.74592
G1 X128.893 Y151.043 E10.79857
G1 X127.992 Y151.279 E10.83116
G1 X127.064 Y151.368 E10.86376
G1 X111.923 Y151.288 E11.39320
G1 X110.505 Y151.072 E11.44337
G1 X109.183 Y150.514 E11.49353
G1 X108.361 Y149.939 E11.52862
G1 X73.225 Y120.402 E13.13367
G1 X72.228 Y119.282 E13.18610
G1 X71.552 Y117.944 E13.23854
G1 X71.317 Y117.054 E13.27072
G1 X71.226 Y116.138 E13.30290
G1 X71.132 Y101.132 E13.82764
G1 X71.200 Y100.238 E13.85899
G1 X71.644 Y98.744 E13.91349
G1 X72.471 Y97.423 E13.96798
G1 X73.576 Y96.410 E14.02038
G1 X73.924 Y96.799 F6000.000
G1 F1200.000
G1 X75.204 Y96.150 E14.07056
G1 X75.976 Y95.948 E14.09848
G1 X119.958 Y87.996 E15.66131
G1 X158.481 Y87.971 E17.00836
G1 X159.372 Y88.048 E17.03964
G1 X160.237 Y88.274 E17.07091
G1 X161.051 Y88.644 E17.10219
G1 X161.791 Y89.147 E17.13346
G1 X162.435 Y89.767 E17.16474
G1 X162.965 Y90.488 E17.19601
G1 X163.365 Y91.288 E17.22729
G1 X163.625 Y92.150 E17.25876
G1 X163.738 Y93.196 E17.29556
G1 X163.737 Y108.347 E17.82534
G1 X163.596 Y109.447 E17.86411
G1 X163.226 Y110.498 E17.90308
G1 X162.511 Y111.611 E17.94933
G1 X130.964 Y149.016 E19.66036
G1 X129.930 Y149.937 E19.70877
G1 X128.692 Y150.556 E19.75719
G1 X127.875 Y150.766 E19.78668
G1 X127.041 Y150.843 E19.81598
G1 X111.943 Y150.763 E20.34392
G1 X110.646 Y150.566 E20.38977
G1 X109.439 Y150.055 E20.43563
G1 X108.697 Y149.535 E20.46730
G1 X73.571 Y120.006 E22.07192
G1 X72.655 Y118.975 E22.12014
G1 X72.036 Y117.736 E22.16855
G1 X71.831 Y116.941 E22.19726
G1 X71.751 Y116.124 E22.22597
G1 X71.657 Y101.136 E22.75010
G1 X71.713 Y100.362 E22.77722
G1 X72.111 Y98.989 E22.82721
G1 X72.867 Y97.769 E22.87739
G1 X73.880 Y96.839 E22.92547
; INIT printing object ADXL-Halter-V1.1.stl id:0 copy 0
G92 E0
G1 E-3.50000 F3600.000
;WIPE_START
G1 F4800.000
G1 X75.204 Y96.150 E-4.56372
G1 X75.695 Y96.022 E-4.92500
;WIPE_END
G1 E-5.00000 F3600.000
; printing object ADXL-Halter-V1.1.stl id:0 copy 0
G1 X137.549 Y97.949 F6000.000
G1 E0.00000 F2400.000
;TYPE:Perimeter
G1 F1200.000
G1 X137.549 Y98.529 E0.02028
G1 X137.662 Y99.094 E0.04046
G1 X137.884 Y99.629 E0.06070
G1 X138.207 Y100.109 E0.08092
G1 X138.614 Y100.517 E0.10108
G1 X139.095 Y100.836 E0.12126
G1 X139.629 Y101.058 E0.14150
G1 X140.198 Y101.169 E0.16176
G1 X140.772 Y101.169 E0.18183
G1 X141.341 Y101.058 E0.20209
G1 X141.875 Y100.836 E0.22233
G1 X142.356 Y100.517 E0.24250
G1 X142.764 Y100.109 E0.26267
G1 X143.086 Y99.629 E0.28288
G1 X143.308 Y99.094 E0.30312
G1 X143.421 Y98.529 E0.32330
G1 X143.421 Y97.949 E0.34359
G1 X143.308 Y97.383 E0.36377
G1 X143.086 Y96.848 E0.38401
G1 X142.764 Y96.368 E0.40422
G1 X142.356 Y95.960 E0.42439
G1 X141.875 Y95.641 E0.44456
G1 X141.341 Y95.419 E0.46480
G1 X140.772 Y95.308 E0.48507
G1 X140.198 Y95.308 E0.50512
G1 X139.629 Y95.419 E0.52539
G1 X139.095 Y95.641 E0.54563
G1 X138.614 Y95.960 E0.56581
G1 X138.207 Y96.368 E0.58597
G1 X137.884 Y96.848 E0.60619
G1 X137.662 Y97.383 E0.62643
G1 X137.561 Y97.890 E0.64451
G1 X138.076 Y97.993 F6000.000
G1 F1200.000
G1 X138.075 Y98.001 E0.64479
G1 X138.075 Y98.476 E0.66143
G1 X138.168 Y98.941 E0.67799
G1 X138.349 Y99.379 E0.69459
G1 X138.614 Y99.773 E0.71118
G1 X138.949 Y100.108 E0.72773
G1 X139.344 Y100.370 E0.74430
G1 X139.783 Y100.552 E0.76092
G1 X140.249 Y100.644 E0.77754
G1 X140.721 Y100.644 E0.79405
G1 X141.188 Y100.552 E0.81067
G1 X141.626 Y100.370 E0.82729
G1 X142.021 Y100.108 E0.84386
G1 X142.356 Y99.773 E0.86041
G1 X142.621 Y99.379 E0.87700
G1 X142.802 Y98.941 E0.89360
G1 X142.895 Y98.476 E0.91016
G1 X142.895 Y98.001 E0.92680
G1 X142.802 Y97.536 E0.94336
G1 X142.621 Y97.098 E0.95996
G1 X142.356 Y96.704 E0.97655
G1 X142.021 Y96.369 E0.99310
G1 X141.626 Y96.107 E1.00967
G1 X141.188 Y95.925 E1.02629
G1 X140.721 Y95.833 E1.04293
G1 X140.249 Y95.833 E1.05941
G1 X139.783 Y95.925 E1.07604
G1 X139.344 Y96.107 E1.09266
G1 X138.949 Y96.369 E1.10923
G1 X138.614 Y96.704 E1.12578
G1 X138.349 Y97.098 E1.14237
G1 X138.168 Y97.536 E1.15897
G1 X138.088 Y97.934 E1.17316
G1 X138.604 Y98.037 F6000.000
;TYPE:External perimeter
G1 F1200.000
G1 X138.600 Y98.053 E1.17371
G1 X138.600 Y98.424 E1.18671
G1 X138.673 Y98.787 E1.19966
G1 X138.815 Y99.130 E1.21261
G1 X139.022 Y99.437 E1.22558
G1 X139.284 Y99.699 E1.23851
G1 X139.592 Y99.904 E1.25147
G1 X139.936 Y100.047 E1.26447
G1 X140.300 Y100.118 E1.27746
G1 X140.670 Y100.118 E1.29040
G1 X141.035 Y100.047 E1.30339
G1 X141.378 Y99.904 E1.31639
G1 X141.687 Y99.699 E1.32935
G1 X141.948 Y99.437 E1.34229
G1 X142.155 Y99.130 E1.35525
G1 X142.297 Y98.787 E1.36821
G1 X142.370 Y98.424 E1.38115
G1 X142.370 Y98.053 E1.39415
G1 X142.297 Y97.690 E1.40710
G1 X142.155 Y97.347 E1.42005
G1 X141.948 Y97.040 E1.43301
G1 X141.687 Y96.778 E1.44595
G1 X141.378 Y96.573 E1.45891
G1 X141.035 Y96.430 E1.47191
G1 X140.670 Y96.359 E1.48492
G1 X140.300 Y96.359 E1.49783
G1 X139.936 Y96.430 E1.51083
G1 X139.592 Y96.573 E1.52383
G1 X139.284 Y96.778 E1.53679
G1 X139.022 Y97.040 E1.54973
G1 X138.815 Y97.347 E1.56269
G1 X138.673 Y97.690 E1.57565
G1 X138.615 Y97.978 E1.58594
G1 X138.589 Y98.042 F6000.000
G92 E0
G1 E-3.50000 F3600.000
;WIPE_START
G1 F4800.000
G1 X138.600 Y98.053 E-3.55407
G1 X138.600 Y98.424 E-3.81898
G1 X138.673 Y98.787 E-4.08274
G1 X138.815 Y99.130 E-4.34664
G1 X139.022 Y99.437 E-4.61086
G1 X139.284 Y99.699 E-4.87448
G1 X139.343 Y99.738 E-4.92500
;WIPE_END
G1 E-5.00000 F3600.000
G1 X145.559 Y97.978 F6000.000
G1 E0.00000 F2400.000
;TYPE:Perimeter
G1 F1200.000
G1 X145.559 Y98.526 E0.01914
G1 X145.671 Y99.094 E0.03941
G1 X145.894 Y99.630 E0.05969
G1 X146.214 Y100.107 E0.07978
G1 X146.622 Y100.515 E0.09994
G1 X147.099 Y100.834 E0.12003
G1 X147.634 Y101.058 E0.14031
G1 X148.203 Y101.169 E0.16056
G1 X148.778 Y101.169 E0.18067
G1 X149.346 Y101.058 E0.20093
G1 X149.881 Y100.834 E0.22120
G1 X150.359 Y100.515 E0.24130
G1 X150.766 Y100.107 E0.26145
G1 X151.086 Y99.630 E0.28154
G1 X151.309 Y99.094 E0.30182
G1 X151.421 Y98.526 E0.32208
G1 X151.421 Y97.951 E0.34218
G1 X151.309 Y97.383 E0.36244
G1 X151.086 Y96.847 E0.38272
G1 X150.766 Y96.370 E0.40281
G1 X150.359 Y95.962 E0.42296
G1 X149.881 Y95.643 E0.44306
G1 X149.346 Y95.419 E0.46333
G1 X148.777 Y95.308 E0.48360
G1 X148.203 Y95.308 E0.50368
G1 X147.634 Y95.419 E0.52395
G1 X147.099 Y95.643 E0.54423
G1 X146.622 Y95.962 E0.56432
G1 X146.214 Y96.370 E0.58448
G1 X145.894 Y96.847 E0.60457
G1 X145.671 Y97.383 E0.62485
G1 X145.565 Y97.919 E0.64396
G1 X146.085 Y98.003 F6000.000
G1 F1200.000
G1 X146.085 Y98.474 E0.66046
G1 X146.176 Y98.941 E0.67708
G1 X146.360 Y99.380 E0.69371
G1 X146.622 Y99.772 E0.71021
G1 X146.957 Y100.106 E0.72676
G1 X147.349 Y100.369 E0.74326
G1 X147.788 Y100.552 E0.75988
G1 X148.254 Y100.644 E0.77649
G1 X148.726 Y100.644 E0.79302
G1 X149.192 Y100.552 E0.80963
G1 X149.631 Y100.369 E0.82626
G1 X150.023 Y100.106 E0.84275
G1 X150.358 Y99.772 E0.85930
G1 X150.620 Y99.380 E0.87580
G1 X150.804 Y98.941 E0.89243
G1 X150.895 Y98.475 E0.90904
G1 X150.895 Y98.002 E0.92557
G1 X150.804 Y97.536 E0.94218
G1 X150.620 Y97.097 E0.95880
G1 X150.358 Y96.705 E0.97530
G1 X150.023 Y96.371 E0.99185
G1 X149.631 Y96.108 E1.00835
G1 X149.192 Y95.925 E1.02498
G1 X148.726 Y95.833 E1.04160
G1 X148.254 Y95.833 E1.05810
G1 X147.788 Y95.925 E1.07473
G1 X147.349 Y96.108 E1.09135
G1 X146.957 Y96.371 E1.10785
G1 X146.622 Y96.705 E1.12440
G1 X146.360 Y97.097 E1.14090
G1 X146.176 Y97.536 E1.15753
G1 X146.096 Y97.944 E1.17205
G1 X146.612 Y98.045 F6000.000
;TYPE:External perimeter
G1 F1200.000
G1 X146.610 Y98.054 E1.17236
G1 X146.610 Y98.423 E1.18528
G1 X146.682 Y98.787 E1.19826
G1 X146.825 Y99.130 E1.21124
G1 X147.030 Y99.437 E1.22414
G1 X147.292 Y99.698 E1.23708
G1 X147.599 Y99.904 E1.24999
G1 X147.941 Y100.047 E1.26297
G1 X148.305 Y100.118 E1.27593
G1 X148.675 Y100.118 E1.28888
G1 X149.039 Y100.047 E1.30184
G1 X149.381 Y99.904 E1.31482
G1 X149.688 Y99.698 E1.32772
G1 X149.950 Y99.437 E1.34067
G1 X150.155 Y99.130 E1.35357
G1 X150.298 Y98.787 E1.36655
G1 X150.370 Y98.424 E1.37951
G1 X150.370 Y98.053 E1.39246
G1 X150.298 Y97.690 E1.40542
G1 X150.155 Y97.347 E1.41840
G1 X149.950 Y97.040 E1.43130
G1 X149.688 Y96.779 E1.44425
G1 X149.381 Y96.573 E1.45715
G1 X149.039 Y96.430 E1.47013
G1 X148.675 Y96.359 E1.48311
G1 X148.305 Y96.359 E1.49603
G1 X147.941 Y96.430 E1.50900
G1 X147.599 Y96.573 E1.52198
G1 X147.292 Y96.779 E1.53489
G1 X147.030 Y97.040 E1.54783
G1 X146.825 Y97.347 E1.56073
G1 X146.682 Y97.690 E1.57371
G1 X146.624 Y97.986 E1.58428
G1 X146.604 Y98.048 F6000.000
G92 E0
G1 E-3.50000 F3600.000
;WIPE_START
G1 F4800.000
G1 X146.610 Y98.054 E-3.54904
G1 X146.610 Y98.423 E-3.81232
G1 X146.682 Y98.787 E-4.07673
G1 X146.825 Y99.130 E-4.34118
G1 X147.030 Y99.437 E-4.60410
G1 X147.292 Y99.698 E-4.86786
G1 X147.359 Y99.743 E-4.92500
;WIPE_END
G1 E-5.00000 F3600.000
G1 X157.044 Y94.665 F6000.000
G1 E0.00000 F2400.000
;TYPE:Perimeter
G1 F1200.000
G1 X157.044 Y106.802 E0.42441
G1 X121.906 Y106.802 E1.65307
G1 X121.906 Y94.665 E2.07748
G1 X156.984 Y94.665 E3.30404
G1 X157.569 Y94.139 F6000.000
G1 F1200.000
G1 X157.569 Y107.328 E3.76521
G1 X121.381 Y107.328 E5.03063
G1 X121.381 Y94.139 E5.49180
G1 X157.509 Y94.139 E6.75512
G1 X158.095 Y93.614 F6000.000
;TYPE:External perimeter
G1 F1200.000
G1 X158.095 Y107.854 E7.25306
G1 X120.855 Y107.854 E8.55524
G1 X120.855 Y93.614 E9.05317
G1 X158.035 Y93.614 E10.35326
G1 X157.895 Y93.960 F6000.000
G92 E0
G1 E-3.50000 F3600.000
;WIPE_START
G1 F4800.000
G1 X158.044 Y95.613 E-4.92500
;WIPE_END
G1 E-5.00000 F3600.000
G1 X138.804 Y95.645 F6000.000
G1 E0.00000 F2400.000
;TYPE:Solid infill
;WIDTH:0.5628
G1 F1800.000
G1 X138.218 Y95.059 E0.02912
G1 X137.475 Y95.059 E0.05525
G1 X138.217 Y95.801 E0.09210
G1 X137.901 Y96.116 E0.10779
G1 X137.856 Y96.183 E0.11063
G1 X136.732 Y95.059 E0.16650
G1 X135.988 Y95.059 E0.19263
G1 X137.557 Y96.628 E0.27058
G1 X137.535 Y96.660 E0.27197
G1 X137.333 Y97.147 E0.29049
G1 X135.245 Y95.059 E0.39427
G1 X134.501 Y95.059 E0.42040
G1 X137.188 Y97.745 E0.55390
G1 X137.155 Y97.909 E0.55978
G1 X137.155 Y98.456 E0.57899
G1 X133.758 Y95.059 E0.74781
G1 X133.015 Y95.059 E0.77393
G1 X137.918 Y99.962 E1.01762
G92 E0
G1 E-3.50000 F3600.000
;WIPE_START
G1 F4800.000
G1 X136.504 Y98.548 E-4.92500
;WIPE_END
G1 E-5.00000 F3600.000
G1 X146.159 Y94.823 F6000.000
G1 E0.00000 F2400.000
G1 F1800.000
G1 X146.697 Y95.360 E0.02672
G1 X146.716 Y95.424 E0.02908
G1 X146.370 Y95.656 E0.04373
G1 X146.310 Y95.717 E0.04672
G1 X145.652 Y95.059 E0.07939
G1 X144.909 Y95.059 E0.10552
G1 X145.938 Y96.088 E0.15667
G1 X145.908 Y96.119 E0.15817
G1 X145.634 Y96.528 E0.17547
G1 X144.166 Y95.059 E0.24845
G1 X143.422 Y95.059 E0.27457
G1 X145.392 Y97.028 E0.37245
G1 X145.292 Y97.267 E0.38155
G1 X145.225 Y97.606 E0.39366
G1 X142.679 Y95.059 E0.52021
G1 X142.373 Y95.059 E0.53096
G1 X142.272 Y95.395 E0.54330
G1 X145.165 Y98.289 E0.68709
G1 X145.165 Y98.564 E0.69677
G1 X145.279 Y99.146 E0.71763
G1 X143.452 Y97.319 E0.80843
G92 E0
G1 E-3.50000 F3600.000
;WIPE_START
G1 F4800.000
G1 X144.867 Y98.734 E-4.92500
;WIPE_END
G1 E-5.00000 F3600.000
G1 X155.823 Y94.823 F6000.000
G1 E0.00000 F2400.000
G1 F1800.000
G1 X156.650 Y95.649 E0.04105
G1 X156.650 Y96.392 E0.06718
G1 X155.317 Y95.059 E0.13342
G1 X154.573 Y95.059 E0.15955
G1 X156.650 Y97.135 E0.26274
G1 X156.650 Y97.879 E0.28886
G1 X153.830 Y95.059 E0.42900
G1 X153.086 Y95.059 E0.45512
G1 X156.650 Y98.622 E0.63220
G1 X156.650 Y99.366 E0.65833
G1 X152.343 Y95.059 E0.87235
G1 X151.600 Y95.059 E0.89848
G1 X156.650 Y100.109 E1.14945
G1 X156.650 Y100.852 E1.17557
G1 X150.856 Y95.059 E1.46349
G1 X150.375 Y95.059 E1.48041
G1 X150.314 Y95.260 E1.48779
G1 X156.650 Y101.596 E1.80267
G1 X156.650 Y102.339 E1.82879
G1 X151.715 Y97.405 E2.07401
G1 X151.815 Y97.913 E2.09219
G1 X151.815 Y98.248 E2.10398
G1 X156.650 Y103.083 E2.34424
G1 X156.650 Y103.826 E2.37036
G1 X151.745 Y98.922 E2.61411
G1 X151.688 Y99.210 E2.62443
G1 X151.571 Y99.491 E2.63513
G1 X156.650 Y104.569 E2.88753
G1 X156.650 Y105.313 E2.91366
G1 X151.322 Y99.985 E3.17842
G1 X151.072 Y100.358 E3.19420
G1 X151.012 Y100.419 E3.19719
G1 X156.650 Y106.056 E3.47737
G1 X156.650 Y106.408 E3.48973
G1 X156.258 Y106.408 E3.50349
G1 X150.640 Y100.790 E3.78267
G1 X150.610 Y100.821 E3.78418
G1 X150.201 Y101.095 E3.80148
G1 X155.514 Y106.408 E4.06555
G1 X154.771 Y106.408 E4.09167
G1 X149.700 Y101.337 E4.34369
G1 X149.461 Y101.437 E4.35279
G1 X149.123 Y101.503 E4.36490
G1 X154.028 Y106.408 E4.60865
G1 X153.284 Y106.408 E4.63478
G1 X148.440 Y101.564 E4.87553
G1 X148.164 Y101.564 E4.88522
G1 X147.582 Y101.449 E4.90607
G1 X152.541 Y106.408 E5.15251
G1 X151.797 Y106.408 E5.17863
G1 X143.815 Y98.426 E5.57534
G1 X143.815 Y98.568 E5.58032
G1 X143.715 Y99.069 E5.59829
G1 X151.054 Y106.408 E5.96303
G1 X150.311 Y106.408 E5.98915
G1 X143.519 Y99.616 E6.32671
G1 X143.436 Y99.817 E6.33434
G1 X143.251 Y100.091 E6.34598
G1 X149.567 Y106.408 E6.65991
G1 X148.824 Y106.408 E6.68603
G1 X142.923 Y100.507 E6.97930
G1 X142.607 Y100.823 E6.99502
G1 X142.540 Y100.867 E6.99783
G1 X148.080 Y106.408 E7.27319
G1 X147.337 Y106.408 E7.29931
G1 X142.093 Y101.164 E7.55992
G1 X142.062 Y101.185 E7.56126
G1 X141.574 Y101.388 E7.57982
G1 X146.594 Y106.408 E7.82931
G1 X145.850 Y106.408 E7.85543
G1 X140.974 Y101.532 E8.09778
G1 X140.810 Y101.564 E8.10364
G1 X140.263 Y101.564 E8.12288
G1 X145.107 Y106.408 E8.36364
G1 X144.363 Y106.408 E8.38976
G1 X138.754 Y100.799 E8.66853
G92 E0
G1 E-3.50000 F3600.000
;WIPE_START
G1 F4800.000
G1 X140.168 Y102.213 E-4.92500
;WIPE_END
G1 E-5.00000 F3600.000
G1 X143.857 Y106.645 F6000.000
G1 E0.00000 F2400.000
G1 F1800.000
G1 X132.271 Y95.059 E0.57578
G1 X131.528 Y95.059 E0.60190
G1 X142.877 Y106.408 E1.16592
G1 X142.133 Y106.408 E1.19205
G1 X130.784 Y95.059 E1.75607
G1 X130.041 Y95.059 E1.78219
G1 X141.390 Y106.408 E2.34622
G1 X140.646 Y106.408 E2.37234
G1 X129.298 Y95.059 E2.93636
G1 X128.554 Y95.059 E2.96249
G1 X139.903 Y106.408 E3.52651
G1 X139.160 Y106.408 E3.55263
