; generated by SuperSlicer 2.3.56 on 2021-05-24 at 23:28:51 UTC

; 

; external perimeters extrusion width = 0.42mm
; perimeters extrusion width = 0.44mm
; infill extrusion width = 0.44mm
; solid infill extrusion width = 0.44mm
; top infill extrusion width = 0.40mm
; first layer extrusion width = 0.56mm

; object:{"name":"Pants_Hanger_v2_blank","id":"Pants_Hanger_v2_blank.stl id:0 copy 0","object_center":[114.998488,114.999943,0.000000],"boundingbox_center":[114.998488,114.999943,5.000000],"boundingbox_size":[59.687183,99.976784,10.000000]}
; plater:{"center":[114.998488,114.999943,0.000000],"boundingbox_center":[114.998488,114.999943,5.000000],"boundingbox_size":[59.687183,99.976784,10.000000]}

;TYPE:Custom
START_PRINT T_BED=70 T_EXTRUDER=240 Z_OFFSET=0.0
M107
G21 ; set units to millimeters
G90 ; use absolute coordinates
M82 ; use absolute distances for extrusion
G92 E0
; Filament gcode
M104 S240 ; set temperature
M109 S240 ; set temperature and wait for it to be reached
M190 S70 ; set bed temperature and wait for it to be reached
M107
;LAYER_CHANGE
;Z:0.16
;HEIGHT:0.16
;BEFORE_LAYER_CHANGE
;0.16


G1 E-5.00000 F3600.000
G1 Z0.160000 F7200.000
;AFTER_LAYER_CHANGE
;0.16
G92 E0
G1 X95.300 Y71.434
G1 E5.00000 F2400.000
;TYPE:Skirt
;WIDTH:0.56
G1 F1200.000
G1 X96.873 Y69.379 E5.09049
G1 X98.177 Y67.966 E5.15775
G1 X99.738 Y66.541 E5.23165
G1 X101.423 Y65.256 E5.30575
G1 X103.047 Y64.225 E5.37300
G1 X105.383 Y63.030 E5.46473
G1 X107.387 Y62.240 E5.54006
G1 X109.379 Y61.654 E5.61266
G1 X111.780 Y61.191 E5.69818
G1 X113.681 Y60.995 E5.76502
G1 X115.664 Y60.956 E5.83435
G1 X118.179 Y61.144 E5.92256
G1 X120.077 Y61.458 E5.98981
G1 X122.135 Y61.984 E6.06410
G1 X124.124 Y62.684 E6.13783
G1 X125.882 Y63.478 E6.20529
G1 X128.138 Y64.759 E6.29599
G1 X129.721 Y65.862 E6.36345
G1 X131.345 Y67.215 E6.43736
G1 X132.843 Y68.705 E6.51125
G1 X134.085 Y70.173 E6.57851
G1 X135.572 Y72.299 E6.66921
G1 X136.527 Y73.975 E6.73667
G1 X137.384 Y75.827 E6.80803
G1 X138.139 Y77.929 E6.88613
G1 X138.707 Y80.155 E6.96646
G1 X148.801 Y137.832 E9.01390
G1 X148.885 Y138.897 E9.05126
G1 X148.807 Y140.171 E9.09590
G1 X148.375 Y142.446 E9.17686
G1 X147.688 Y145.040 E9.27071
G1 X146.718 Y147.745 E9.37118
G1 X145.924 Y149.576 E9.44098
G1 X144.875 Y151.606 E9.52088
G1 X143.512 Y153.842 E9.61244
G1 X141.817 Y156.163 E9.71294
G1 X140.526 Y157.703 E9.78321
G1 X138.975 Y159.321 E9.86157
G1 X137.105 Y161.023 E9.95001
G1 X134.724 Y162.855 E10.05505
G1 X133.045 Y163.965 E10.12543
G1 X131.106 Y165.073 E10.20350
G1 X128.481 Y166.327 E10.30526
G1 X126.188 Y167.207 E10.39113
G1 X123.645 Y167.967 E10.48394
G1 X121.443 Y168.459 E10.56283
G1 X119.488 Y168.763 E10.63201
G1 X116.614 Y169.013 E10.73288
G1 X114.216 Y169.031 E10.81674
G1 X111.491 Y168.845 E10.91225
G1 X109.250 Y168.530 E10.99138
G1 X107.055 Y168.065 E11.06983
G1 X104.509 Y167.339 E11.16243
G1 X102.034 Y166.413 E11.25482
G1 X99.984 Y165.479 E11.33357
G1 X98.002 Y164.407 E11.41240
G1 X95.766 Y162.986 E11.50500
G1 X93.452 Y161.222 E11.60676
G1 X91.944 Y159.909 E11.67669
G1 X90.252 Y158.217 E11.76036
G1 X88.349 Y155.981 E11.86303
G1 X87.159 Y154.376 E11.93289
G1 X85.936 Y152.473 E12.01198
G1 X84.670 Y150.161 E12.10417
G1 X83.498 Y147.522 E12.20514
G1 X82.812 Y145.636 E12.27532
G1 X82.181 Y143.472 E12.35413
G1 X81.623 Y140.895 E12.44631
G1 X81.244 Y138.027 E12.54748
G1 X81.116 Y135.760 E12.62688
G1 X81.133 Y133.769 E12.69650
G1 X81.356 Y130.890 E12.79748
G1 X81.745 Y128.437 E12.88432
G1 X91.806 Y79.260 E14.63951
G1 X92.485 Y76.971 E14.72301
G1 X93.329 Y74.899 E14.80123
G1 X94.271 Y73.073 E14.87309
G1 X95.268 Y71.485 E14.93866
G1 X95.713 Y71.764 F7200.000
G1 F1200.000
G1 X95.740 Y71.721 E14.94044
G1 X97.265 Y69.729 E15.02817
G1 X98.548 Y68.338 E15.09434
G1 X100.075 Y66.944 E15.16664
G1 X101.724 Y65.687 E15.23914
G1 X103.326 Y64.670 E15.30550
G1 X105.580 Y63.517 E15.39402
G1 X107.558 Y62.736 E15.46839
G1 X109.512 Y62.163 E15.53960
G1 X111.843 Y61.713 E15.62259
G1 X113.713 Y61.519 E15.68835
G1 X115.662 Y61.482 E15.75650
G1 X118.102 Y61.664 E15.84206
G1 X119.969 Y61.973 E15.90822
G1 X121.980 Y62.486 E15.98080
G1 X123.928 Y63.172 E16.05303
G1 X125.663 Y63.956 E16.11960
G1 X127.840 Y65.192 E16.20713
G1 X129.402 Y66.280 E16.27369
G1 X130.991 Y67.604 E16.34600
G1 X132.461 Y69.066 E16.41850
G1 X133.682 Y70.511 E16.48467
G1 X135.120 Y72.567 E16.57240
G1 X136.060 Y74.216 E16.63876
G1 X136.905 Y76.044 E16.70921
G1 X137.637 Y78.083 E16.78495
G1 X138.190 Y80.251 E16.86319
G1 X148.282 Y137.916 E18.91023
G1 X148.360 Y138.887 E18.94426
G1 X148.286 Y140.101 E18.98679
G1 X147.858 Y142.351 E19.06690
G1 X147.185 Y144.887 E19.15865
G1 X146.234 Y147.539 E19.25716
G1 X145.450 Y149.348 E19.32611
G1 X144.410 Y151.362 E19.40535
G1 X143.076 Y153.548 E19.49492
G1 X141.410 Y155.831 E19.59375
G1 X140.136 Y157.350 E19.66303
G1 X138.597 Y158.956 E19.74083
G1 X136.756 Y160.629 E19.82782
G1 X134.431 Y162.419 E19.93043
G1 X132.772 Y163.515 E19.99995
G1 X130.847 Y164.615 E20.07749
G1 X128.269 Y165.846 E20.17738
G1 X126.013 Y166.711 E20.26187
G1 X123.526 Y167.455 E20.35262
G1 X121.342 Y167.943 E20.43089
G1 X119.409 Y168.243 E20.49930
G1 X116.585 Y168.489 E20.59841
G1 X114.218 Y168.506 E20.68116
G1 X111.561 Y168.324 E20.77429
G1 X109.346 Y168.013 E20.85250
G1 X107.165 Y167.551 E20.93045
G1 X104.675 Y166.840 E21.02101
G1 X102.249 Y165.934 E21.11156
G1 X100.221 Y165.010 E21.18949
G1 X98.258 Y163.948 E21.26753
G1 X96.068 Y162.556 E21.35828
G1 X93.795 Y160.823 E21.45822
G1 X92.305 Y159.526 E21.52729
G1 X90.633 Y157.855 E21.60994
G1 X88.771 Y155.668 E21.71040
G1 X87.590 Y154.075 E21.77974
G1 X86.383 Y152.196 E21.85783
G1 X85.139 Y149.924 E21.94838
G1 X83.991 Y147.339 E22.04731
G1 X83.312 Y145.475 E22.11666
G1 X82.688 Y143.333 E22.19469
G1 X82.141 Y140.807 E22.28505
G1 X81.769 Y137.991 E22.38437
G1 X81.642 Y135.744 E22.46309
G1 X81.658 Y133.775 E22.53192
G1 X81.878 Y130.952 E22.63092
G1 X82.261 Y128.535 E22.71653
G1 X92.320 Y79.366 E24.47142
G1 X92.981 Y77.146 E24.55242
G1 X93.798 Y75.137 E24.62825
G1 X94.727 Y73.333 E24.69921
G1 X95.681 Y71.815 E24.76190
; INIT printing object Pants_Hanger_v2_blank.stl id:0 copy 0
G92 E0
G1 E-3.50000 F3600.000
;WIPE_START
G1 F5760.000
G1 X95.740 Y71.721 E-3.56580
G1 X97.132 Y69.904 E-4.92500
;WIPE_END
G1 E-5.00000 F3600.000
; printing object Pants_Hanger_v2_blank.stl id:0 copy 0
G1 X99.048 Y81.166 F7200.000
G1 E0.00000 F2400.000
;TYPE:Perimeter
G1 F1200.000
G1 X99.026 Y81.008 E0.00559
G1 X99.054 Y80.779 E0.01368
G1 X99.494 Y79.357 E0.06571
G1 X100.032 Y78.038 E0.11553
G1 X100.713 Y76.717 E0.16751
G1 X101.509 Y75.461 E0.21948
G1 X102.414 Y74.282 E0.27145
G1 X103.420 Y73.189 E0.32342
G1 X104.520 Y72.189 E0.37539
G1 X105.705 Y71.292 E0.42736
G1 X106.965 Y70.504 E0.47933
G1 X108.290 Y69.832 E0.53126
G1 X109.728 Y69.260 E0.58538
G1 X111.152 Y68.839 E0.63731
G1 X112.609 Y68.546 E0.68928
G1 X114.086 Y68.384 E0.74125
G1 X115.572 Y68.355 E0.79322
G1 X117.055 Y68.459 E0.84520
G1 X118.523 Y68.694 E0.89718
G1 X119.904 Y69.044 E0.94699
G1 X121.367 Y69.553 E1.00117
G1 X122.719 Y70.168 E1.05308
G1 X124.009 Y70.900 E1.10498
G1 X125.281 Y71.787 E1.15917
G1 X126.375 Y72.699 E1.20898
G1 X127.427 Y73.749 E1.26096
G1 X128.381 Y74.889 E1.31293
G1 X129.229 Y76.107 E1.36485
G1 X129.994 Y77.455 E1.41902
G1 X130.585 Y78.750 E1.46882
G1 X131.081 Y80.152 E1.52081
G1 X131.449 Y81.591 E1.57274
G1 X131.695 Y83.119 E1.62686
G1 X131.796 Y84.601 E1.67879
G1 X131.766 Y86.088 E1.73079
G1 X131.611 Y87.503 E1.78059
G1 X131.307 Y89.022 E1.83475
G1 X130.885 Y90.446 E1.88669
G1 X130.360 Y91.770 E1.93650
G1 X129.666 Y93.155 E1.99067
G1 X128.881 Y94.416 E2.04259
G1 X128.024 Y95.554 E2.09240
G1 X126.989 Y96.704 E2.14652
G1 X125.849 Y97.751 E2.20064
G1 X124.721 Y98.621 E2.25046
G1 X123.467 Y99.420 E2.30243
G1 X122.148 Y100.104 E2.35440
G1 X120.491 Y100.783 E2.41701
G1 X106.087 Y113.487 E3.08861
G1 X104.599 Y114.166 E3.14579
G1 X102.935 Y115.097 E3.21244
G1 X101.353 Y116.160 E3.27910
G1 X99.862 Y117.348 E3.34575
G1 X98.474 Y118.654 E3.41240
G1 X97.246 Y120.013 E3.47646
G1 X96.040 Y121.581 E3.54564
G1 X95.009 Y123.186 E3.61235
G1 X94.147 Y124.803 E3.67642
G1 X93.357 Y126.618 E3.74561
G1 X92.746 Y128.424 E3.81230
G1 X92.301 Y130.202 E3.87638
G1 X91.976 Y132.154 E3.94557
G1 X91.821 Y134.054 E4.01225
G1 X91.820 Y135.887 E4.07633
G1 X91.979 Y137.859 E4.14550
G1 X92.274 Y139.668 E4.20960
G1 X92.731 Y141.517 E4.27621
G1 X93.338 Y143.325 E4.34286
G1 X94.089 Y145.076 E4.40952
G1 X94.981 Y146.761 E4.47617
G1 X96.008 Y148.367 E4.54283
G1 X97.162 Y149.884 E4.60948
G1 X98.436 Y151.302 E4.67614
G1 X99.822 Y152.611 E4.74279
G1 X101.309 Y153.803 E4.80945
G1 X102.889 Y154.869 E4.87610
G1 X104.551 Y155.804 E4.94275
G1 X106.283 Y156.599 E5.00941
G1 X108.075 Y157.251 E5.07606
G1 X109.913 Y157.754 E5.14272
G1 X111.787 Y158.105 E5.20937
G1 X113.683 Y158.303 E5.27603
G1 X115.588 Y158.345 E5.34268
G1 X117.491 Y158.232 E5.40933
G1 X119.378 Y157.964 E5.47599
G1 X121.237 Y157.543 E5.54264
G1 X123.056 Y156.972 E5.60930
G1 X124.821 Y156.254 E5.67591
G1 X126.457 Y155.431 E5.73996
G1 X128.085 Y154.442 E5.80657
G1 X129.629 Y153.322 E5.87328
G1 X131.128 Y152.030 E5.94248
G1 X132.416 Y150.725 E6.00656
G1 X133.640 Y149.266 E6.07319
G1 X134.743 Y147.711 E6.13984
G1 X135.714 Y146.071 E6.20650
G1 X136.549 Y144.357 E6.27315
G1 X137.241 Y142.581 E6.33981
G1 X137.786 Y140.754 E6.40646
G1 X138.157 Y138.997 E6.46925
G1 X138.229 Y138.751 E6.47822
G1 X138.307 Y138.615 E6.48371
G1 X138.404 Y138.511 E6.48866
G1 X138.537 Y138.424 E6.49422
G1 X138.673 Y138.375 E6.49931
G1 X138.880 Y138.350 E6.50657
G1 X140.759 Y138.349 E6.57230
G1 X140.996 Y138.378 E6.58064
G1 X141.152 Y138.438 E6.58647
G1 X141.275 Y138.526 E6.59177
G1 X141.377 Y138.645 E6.59724
G1 X141.445 Y138.780 E6.60254
G1 X141.480 Y138.943 E6.60837
G1 X141.473 Y139.156 E6.61583
G1 X141.121 Y140.983 E6.68090
G1 X140.623 Y142.837 E6.74803
G1 X139.961 Y144.726 E6.81799
G1 X139.231 Y146.418 E6.88244
G1 X138.345 Y148.123 E6.94963
G1 X137.340 Y149.759 E7.01677
G1 X136.169 Y151.381 E7.08673
G1 X134.987 Y152.795 E7.15117
G1 X133.652 Y154.178 E7.21837
G1 X132.223 Y155.460 E7.28551
G1 X130.640 Y156.683 E7.35546
G1 X129.104 Y157.701 E7.41989
G1 X127.432 Y158.647 E7.48707
G1 X125.624 Y159.501 E7.55698
G1 X123.832 Y160.192 E7.62413
G1 X121.994 Y160.752 E7.69131
G1 X120.120 Y161.178 E7.75852
G1 X118.299 Y161.458 E7.82295
G1 X116.305 Y161.620 E7.89291
G1 X114.385 Y161.634 E7.96005
G1 X112.467 Y161.509 E8.02724
G1 X110.641 Y161.258 E8.09169
G1 X108.683 Y160.847 E8.16165
G1 X106.839 Y160.314 E8.22878
G1 X105.036 Y159.649 E8.29597
G1 X103.357 Y158.889 E8.36042
G1 X101.598 Y157.939 E8.43033
G1 X99.917 Y156.856 E8.50024
G1 X98.441 Y155.752 E8.56469
G1 X96.989 Y154.494 E8.63188
G1 X95.633 Y153.135 E8.69901
G1 X94.328 Y151.619 E8.76897
G1 X93.228 Y150.140 E8.83341
G1 X92.193 Y148.520 E8.90061
G1 X91.279 Y146.832 E8.96775
G1 X90.459 Y145.007 E9.03770
G1 X89.826 Y143.277 E9.10214
G1 X89.295 Y141.430 E9.16934
G1 X88.899 Y139.550 E9.23650
G1 X88.632 Y137.569 E9.30641
G1 X88.515 Y135.651 E9.37359
G1 X88.534 Y133.809 E9.43801
G1 X88.698 Y131.815 E9.50796
G1 X88.995 Y129.918 E9.57511
G1 X89.429 Y128.047 E9.64229
G1 X89.997 Y126.211 E9.70948
G1 X90.695 Y124.421 E9.77666
G1 X91.521 Y122.686 E9.84385
G1 X92.430 Y121.083 E9.90830
G1 X93.537 Y119.416 E9.97826
G1 X94.715 Y117.900 E10.04539
G1 X96.000 Y116.471 E10.11258
G1 X97.399 Y115.125 E10.18048
G1 X116.520 Y98.262 E11.07195
G1 X117.501 Y98.142 E11.10651
G1 X118.867 Y97.823 E11.15558
G1 X120.246 Y97.342 E11.20664
G1 X121.608 Y96.685 E11.25953
G1 X122.801 Y95.945 E11.30861
G1 X123.949 Y95.045 E11.35961
G1 X124.993 Y94.026 E11.41063
G1 X125.919 Y92.899 E11.46165
G1 X126.717 Y91.677 E11.51267
G1 X127.377 Y90.375 E11.56370
G1 X127.890 Y89.011 E11.61466
G1 X128.240 Y87.653 E11.66371
G1 X128.452 Y86.211 E11.71468
G1 X128.505 Y84.753 E11.76570
G1 X128.399 Y83.297 E11.81672
G1 X128.135 Y81.862 E11.86775
G1 X127.715 Y80.465 E11.91877
G1 X127.146 Y79.122 E11.96977
G1 X126.433 Y77.848 E12.02080
G1 X125.586 Y76.660 E12.07182
G1 X124.614 Y75.572 E12.12285
G1 X123.529 Y74.597 E12.17387
G1 X122.345 Y73.746 E12.22483
G1 X121.125 Y73.054 E12.27388
G1 X119.788 Y72.474 E12.32485
G1 X118.394 Y72.043 E12.37587
G1 X116.961 Y71.767 E12.42689
G1 X115.507 Y71.648 E12.47792
G1 X114.049 Y71.690 E12.52892
G1 X112.659 Y71.882 E12.57799
G1 X111.191 Y72.246 E12.63087
G1 X109.821 Y72.756 E12.68199
G1 X108.517 Y73.411 E12.73301
G1 X107.294 Y74.203 E12.78397
G1 X106.203 Y75.089 E12.83309
G1 X105.141 Y76.164 E12.88595
G1 X104.268 Y77.264 E12.93504
G1 X103.490 Y78.497 E12.98603
G1 X102.850 Y79.809 E13.03706
G1 X102.401 Y81.062 E13.08360
G1 X102.285 Y81.324 E13.09365
G1 X102.181 Y81.454 E13.09945
G1 X102.043 Y81.556 E13.10544
G1 X101.897 Y81.614 E13.11095
G1 X101.649 Y81.646 E13.11969
G1 X99.753 Y81.646 E13.18600
G1 X99.509 Y81.614 E13.19460
G1 X99.333 Y81.540 E13.20129
G1 X99.217 Y81.452 E13.20638
G1 X99.111 Y81.315 E13.21242
G1 X99.072 Y81.222 E13.21597
G1 X98.587 Y81.426 F7200.000
G1 F1200.000
G1 X98.537 Y81.307 E13.22045
G1 X98.496 Y81.014 E13.23082
G1 X98.537 Y80.669 E13.24298
G1 X98.999 Y79.180 E13.29748
G1 X99.554 Y77.818 E13.34891
G1 X100.256 Y76.455 E13.40253
G1 X101.078 Y75.160 E13.45614
G1 X102.011 Y73.944 E13.50975
G1 X103.049 Y72.816 E13.56337
G1 X104.184 Y71.785 E13.61698
G1 X105.406 Y70.859 E13.67060
G1 X106.706 Y70.046 E13.72421
G1 X108.073 Y69.352 E13.77780
G1 X109.556 Y68.763 E13.83359
G1 X111.025 Y68.328 E13.88718
G1 X112.529 Y68.026 E13.94079
G1 X114.053 Y67.859 E13.99441
G1 X115.586 Y67.829 E14.04802
G1 X117.115 Y67.936 E14.10164
G1 X118.629 Y68.179 E14.15526
G1 X120.055 Y68.540 E14.20668
G1 X121.563 Y69.064 E14.26251
G1 X122.958 Y69.699 E14.31609
G1 X124.290 Y70.455 E14.36966
G1 X125.600 Y71.368 E14.42550
G1 X126.729 Y72.311 E14.47693
G1 X127.815 Y73.394 E14.53054
G1 X128.799 Y74.569 E14.58416
G1 X129.674 Y75.827 E14.63774
G1 X130.462 Y77.215 E14.69356
G1 X131.073 Y78.553 E14.74498
G1 X131.584 Y79.999 E14.79861
G1 X131.964 Y81.484 E14.85220
G1 X132.217 Y83.059 E14.90799
G1 X132.322 Y84.588 E14.96158
G1 X132.291 Y86.122 E15.01521
G1 X132.131 Y87.583 E15.06663
G1 X131.818 Y89.149 E15.12245
G1 X131.382 Y90.618 E15.17604
G1 X130.840 Y91.985 E15.22747
G1 X130.125 Y93.412 E15.28329
G1 X129.315 Y94.713 E15.33687
G1 X128.430 Y95.888 E15.38830
G1 X127.363 Y97.075 E15.44409
G1 X126.188 Y98.154 E15.49989
G1 X125.023 Y99.052 E15.55132
G1 X123.730 Y99.876 E15.60493
G1 X122.369 Y100.582 E15.65855
G1 X120.772 Y101.236 E15.71888
G1 X106.376 Y113.933 E16.39011
G1 X104.837 Y114.636 E16.44927
G1 X103.211 Y115.545 E16.51442
G1 X101.664 Y116.584 E16.57957
G1 X100.207 Y117.746 E16.64472
G1 X98.850 Y119.022 E16.70987
G1 X97.650 Y120.350 E16.77246
G1 X96.470 Y121.884 E16.84013
G1 X95.463 Y123.453 E16.90532
G1 X94.620 Y125.032 E16.96791
G1 X93.848 Y126.807 E17.03559
G1 X93.251 Y128.573 E17.10076
G1 X92.816 Y130.309 E17.16336
G1 X92.498 Y132.219 E17.23105
G1 X92.347 Y134.076 E17.29621
G1 X92.345 Y135.866 E17.35882
G1 X92.501 Y137.795 E17.42648
G1 X92.790 Y139.562 E17.48909
G1 X93.236 Y141.370 E17.55422
G1 X93.829 Y143.137 E17.61937
G1 X94.564 Y144.849 E17.68452
G1 X95.436 Y146.496 E17.74968
G1 X96.439 Y148.066 E17.81483
G1 X97.568 Y149.549 E17.87998
G1 X98.813 Y150.934 E17.94513
G1 X100.167 Y152.214 E18.01029
G1 X101.621 Y153.379 E18.07544
G1 X103.166 Y154.422 E18.14060
G1 X104.790 Y155.335 E18.20574
G1 X106.483 Y156.112 E18.27089
G1 X108.234 Y156.749 E18.33605
G1 X110.031 Y157.241 E18.40120
G1 X111.862 Y157.585 E18.46635
G1 X113.716 Y157.778 E18.53151
G1 X115.578 Y157.819 E18.59666
G1 X117.438 Y157.709 E18.66181
G1 X119.283 Y157.447 E18.72697
G1 X121.100 Y157.035 E18.79212
G1 X122.878 Y156.477 E18.85727
G1 X124.603 Y155.775 E18.92240
G1 X126.202 Y154.971 E18.98498
G1 X127.794 Y154.004 E19.05011
G1 X129.303 Y152.909 E19.11529
G1 X130.769 Y151.646 E19.18298
G1 X132.026 Y150.371 E19.24557
G1 X133.224 Y148.944 E19.31071
G1 X134.301 Y147.424 E19.37586
G1 X135.251 Y145.821 E19.44102
G1 X136.067 Y144.146 E19.50617
G1 X136.744 Y142.410 E19.57132
G1 X137.276 Y140.624 E19.63648
G1 X137.647 Y138.869 E19.69920
G1 X137.742 Y138.545 E19.71103
