;FLAVOR:Marlin
;TIME:835
;Filament used: 0.640748m
;Layer height: 0.3
;MINX:89.25
;MINY:89.25
;MINZ:0.3
;MAXX:130.75
;MAXY:130.75
;MAXZ:19.8
;LINEARADVANCEPROCESSED
;Generated with Cura_SteamEngine 4.9.1
M82 ;absolute extrusion mode
START_PRINT T_BED=70 T_EXTRUDER=240 Z_OFFSET=0.0
G92 E0
G92 E0
G1 F1800 E-7
;LAYER_COUNT:66
M900 K0.000000 T0 ;added by LinearAdvanceSettingPlugin
;LAYER:0
M107
G0 F7500 X92.443 Y92.373 Z0.3
;TYPE:SKIRT
G1 F1800 E0
G1 F1500 X93.129 Y91.749 E0.0347
G1 X93.866 Y91.187 E0.06938
G1 X94.649 Y90.691 E0.10406
G1 X95.472 Y90.263 E0.13877
G1 X96.328 Y89.909 E0.17343
G1 X97.212 Y89.629 E0.20813
G1 X98.117 Y89.427 E0.24282
G1 X99.036 Y89.303 E0.27752
G1 X99.708 Y89.263 E0.30271
G1 X100.029 Y89.254 E0.31473
G1 X100.33 Y89.25 E0.32599
G1 X119.293 Y89.25 E1.03554
G1 X120.145 Y89.261 E1.06742
G1 X121.071 Y89.314 E1.10213
G1 X121.988 Y89.447 E1.1368
G1 X122.891 Y89.659 E1.17151
G1 X123.772 Y89.947 E1.20619
G1 X124.625 Y90.31 E1.24088
G1 X125.444 Y90.746 E1.27559
G1 X126.222 Y91.25 E1.31028
G1 X126.953 Y91.819 E1.34494
G1 X127.633 Y92.45 E1.37965
G1 X128.256 Y93.136 E1.41433
G1 X128.818 Y93.874 E1.44904
G1 X129.314 Y94.657 E1.48372
G1 X129.74 Y95.481 E1.51843
G1 X130.094 Y96.337 E1.55309
G1 X130.373 Y97.222 E1.58781
G1 X130.575 Y98.127 E1.6225
G1 X130.698 Y99.046 E1.6572
G1 X130.737 Y99.708 E1.68201
G1 X130.746 Y100.028 E1.69399
G1 X130.75 Y100.33 E1.70529
G1 X130.749 Y119.397 E2.41873
G1 X130.74 Y120.124 E2.44594
G1 X130.689 Y121.05 E2.48064
G1 X130.558 Y121.968 E2.51534
G1 X130.348 Y122.871 E2.55003
G1 X130.061 Y123.752 E2.5847
G1 X129.7 Y124.606 E2.61939
G1 X129.266 Y125.426 E2.6541
G1 X128.763 Y126.205 E2.6888
G1 X128.195 Y126.937 E2.72347
G1 X127.566 Y127.618 E2.75816
G1 X126.881 Y128.243 E2.79285
G1 X126.144 Y128.806 E2.82755
G1 X125.362 Y129.303 E2.86223
G1 X124.539 Y129.731 E2.89694
G1 X123.683 Y130.087 E2.93162
G1 X122.8 Y130.368 E2.9663
G1 X121.895 Y130.571 E3.001
G1 X120.976 Y130.696 E3.0357
G1 X120.292 Y130.737 E3.06134
G1 X119.971 Y130.746 E3.07336
G1 X119.67 Y130.75 E3.08462
G1 X100.568 Y130.749 E3.79938
G1 X99.87 Y130.74 E3.8255
G1 X98.945 Y130.688 E3.86016
G1 X98.027 Y130.557 E3.89486
G1 X97.124 Y130.347 E3.92955
G1 X96.242 Y130.06 E3.96425
G1 X95.389 Y129.697 E3.99894
G1 X94.57 Y129.263 E4.03362
G1 X93.791 Y128.76 E4.06832
G1 X93.058 Y128.192 E4.10302
G1 X92.378 Y127.562 E4.1377
G1 X91.754 Y126.877 E4.17237
G1 X91.191 Y126.14 E4.20708
G1 X90.694 Y125.357 E4.24178
G1 X90.266 Y124.534 E4.27649
G1 X89.911 Y123.678 E4.31116
G1 X89.631 Y122.794 E4.34586
G1 X89.428 Y121.89 E4.38053
G1 X89.304 Y120.971 E4.41523
G1 X89.263 Y120.281 E4.44109
G1 X89.254 Y119.948 E4.45356
G1 X89.25 Y119.658 E4.46441
G1 X89.251 Y100.529 E5.18017
G1 X89.26 Y99.864 E5.20505
G1 X89.312 Y98.938 E5.23976
G1 X89.445 Y98.02 E5.27447
G1 X89.655 Y97.117 E5.30916
G1 X89.943 Y96.236 E5.34384
G1 X90.305 Y95.383 E5.37851
G1 X90.74 Y94.564 E5.41321
G1 X91.244 Y93.785 E5.44793
G1 X91.813 Y93.053 E5.48262
G1 X92.443 Y92.373 E5.5173
G0 F7500 X92.736 Y92.505
G1 F1500 X93.42 Y91.898 E5.55152
G1 X94.154 Y91.353 E5.58573
G1 X94.933 Y90.875 E5.61993
G1 X95.75 Y90.466 E5.65411
G1 X96.601 Y90.13 E5.68835
G1 X97.477 Y89.87 E5.72254
G1 X98.373 Y89.688 E5.75675
G1 X99.716 Y89.563 E5.80722
G1 X100.037 Y89.554 E5.81924
G1 X100.33 Y89.55 E5.8302
G1 X119.293 Y89.55 E6.53975
G1 X120.141 Y89.561 E6.57148
G1 X121.053 Y89.614 E6.60567
G1 X121.958 Y89.747 E6.63989
G1 X122.847 Y89.958 E6.67408
G1 X123.715 Y90.246 E6.7083
G1 X124.554 Y90.609 E6.74251
G1 X125.358 Y91.043 E6.77669
G1 X126.121 Y91.547 E6.81091
G1 X126.837 Y92.115 E6.84511
G1 X127.501 Y92.743 E6.8793
G1 X128.107 Y93.427 E6.9135
G1 X128.651 Y94.162 E6.94771
G1 X129.129 Y94.941 E6.98191
G1 X129.537 Y95.759 E7.01612
G1 X129.872 Y96.61 E7.05034
G1 X130.132 Y97.486 E7.08453
G1 X130.313 Y98.382 E7.11873
G1 X130.437 Y99.716 E7.16886
G1 X130.446 Y100.036 E7.18084
G1 X130.45 Y100.33 E7.19184
G1 X130.449 Y119.393 E7.90513
G1 X130.44 Y120.12 E7.93234
G1 X130.389 Y121.033 E7.96655
G1 X130.258 Y121.938 E8.00077
G1 X130.049 Y122.828 E8.03498
G1 X129.762 Y123.696 E8.06919
G1 X129.401 Y124.535 E8.10336
G1 X128.968 Y125.34 E8.13756
G1 X128.466 Y126.104 E8.17177
G1 X127.9 Y126.822 E8.20598
G1 X127.272 Y127.487 E8.2402
G1 X126.589 Y128.094 E8.27439
G1 X125.856 Y128.64 E8.30859
G1 X125.078 Y129.119 E8.34278
G1 X124.261 Y129.529 E8.37698
G1 X123.411 Y129.866 E8.4112
G1 X122.535 Y130.127 E8.4454
G1 X121.639 Y130.31 E8.47962
G1 X120.284 Y130.437 E8.53054
G1 X119.963 Y130.446 E8.54256
G1 X119.67 Y130.45 E8.55352
G1 X100.572 Y130.449 E9.26812
G1 X99.874 Y130.44 E9.29424
G1 X98.962 Y130.388 E9.32842
G1 X98.057 Y130.257 E9.36264
G1 X97.167 Y130.047 E9.39686
G1 X96.299 Y129.76 E9.43106
G1 X95.46 Y129.399 E9.46524
G1 X94.655 Y128.965 E9.49946
G1 X93.891 Y128.463 E9.53367
G1 X93.174 Y127.896 E9.56787
G1 X92.51 Y127.268 E9.60207
G1 X91.902 Y126.585 E9.63628
G1 X91.357 Y125.852 E9.67046
G1 X90.878 Y125.073 E9.70468
G1 X90.469 Y124.256 E9.73886
G1 X90.133 Y123.406 E9.77306
G1 X89.872 Y122.529 E9.8073
G1 X89.689 Y121.634 E9.84148
G1 X89.563 Y120.273 E9.89263
G1 X89.554 Y119.94 E9.90509
G1 X89.55 Y119.658 E9.91564
G1 X89.551 Y100.533 E10.63126
G1 X89.56 Y99.868 E10.65614
G1 X89.612 Y98.955 E10.69036
G1 X89.744 Y98.05 E10.72458
G1 X89.955 Y97.161 E10.75877
G1 X90.242 Y96.293 E10.79298
G1 X90.604 Y95.454 E10.82717
G1 X91.038 Y94.649 E10.86139
G1 X91.541 Y93.886 E10.89558
G1 X92.108 Y93.169 E10.92979
G1 X92.736 Y92.505 E10.96398
G0 F7500 X93.03 Y92.639
G1 F1500 X93.711 Y92.049 E10.9977
G1 X94.441 Y91.522 E11.03139
G1 X95.216 Y91.062 E11.06511
G1 X96.028 Y90.672 E11.09881
G1 X96.872 Y90.356 E11.13254
G1 X97.74 Y90.116 E11.16623
G1 X98.626 Y89.954 E11.19993
G1 X99.725 Y89.863 E11.2412
G1 X100.046 Y89.854 E11.25321
G1 X100.33 Y89.85 E11.26384
G1 X119.293 Y89.85 E11.97339
G1 X120.136 Y89.861 E12.00494
G1 X121.036 Y89.914 E12.03867
G1 X121.927 Y90.046 E12.07237
G1 X122.803 Y90.257 E12.10609
G1 X123.656 Y90.545 E12.13978
G1 X124.481 Y90.907 E12.17349
G1 X125.271 Y91.341 E12.20721
G1 X126.019 Y91.844 E12.24094
G1 X126.719 Y92.41 E12.27463
G1 X127.366 Y93.037 E12.30834
G1 X127.956 Y93.718 E12.34205
G1 X128.482 Y94.449 E12.37575
G1 X128.942 Y95.224 E12.40947
G1 X129.331 Y96.036 E12.44316
G1 X129.646 Y96.88 E12.47687
G1 X129.886 Y97.749 E12.5106
G1 X130.047 Y98.635 E12.5443
G1 X130.137 Y99.725 E12.58522
G1 X130.146 Y100.045 E12.5972
G1 X130.15 Y100.33 E12.60787
G1 X130.149 Y119.39 E13.32105
G1 X130.14 Y120.117 E13.34825
G1 X130.089 Y121.016 E13.38194
G1 X129.958 Y121.907 E13.41564
G1 X129.749 Y122.784 E13.44938
G1 X129.463 Y123.638 E13.48307
G1 X129.102 Y124.464 E13.5168
G1 X128.67 Y125.254 E13.5505
G1 X128.169 Y126.003 E13.58421
G1 X127.604 Y126.704 E13.6179
G1 X126.979 Y127.353 E13.65162
G1 X126.298 Y127.943 E13.68533
G1 X125.568 Y128.471 E13.71904
G1 X124.794 Y128.932 E13.75275
G1 X123.983 Y129.323 E13.78644
G1 X123.14 Y129.64 E13.82014
G1 X122.272 Y129.881 E13.85385
G1 X121.386 Y130.045 E13.88756
G1 X120.275 Y130.137 E13.92927
G1 X119.954 Y130.146 E13.94129
G1 X119.67 Y130.15 E13.95192
G1 X100.576 Y130.149 E14.66637
G1 X99.878 Y130.14 E14.69249
G1 X98.979 Y130.089 E14.72618
G1 X98.087 Y129.957 E14.75992
G1 X97.211 Y129.748 E14.79362
G1 X96.357 Y129.461 E14.82733
G1 X95.532 Y129.1 E14.86103
G1 X94.742 Y128.667 E14.89474
G1 X93.993 Y128.166 E14.92845
G1 X93.292 Y127.6 E14.96217
G1 X92.644 Y126.975 E14.99585
G1 X92.053 Y126.294 E15.02959
G1 X91.526 Y125.564 E15.06328
G1 X91.065 Y124.79 E15.09699
G1 X90.675 Y123.978 E15.13069
G1 X90.358 Y123.135 E15.16439
G1 X90.117 Y122.266 E15.19814
G1 X89.955 Y121.38 E15.23184
G1 X89.863 Y120.265 E15.2737
G1 X89.854 Y119.932 E15.28617
G1 X89.85 Y119.658 E15.29642
G1 X89.851 Y100.537 E16.01188
G1 X89.86 Y99.872 E16.03677
G1 X89.912 Y98.972 E16.0705
G1 X90.044 Y98.081 E16.1042
G1 X90.254 Y97.205 E16.13791
G1 X90.541 Y96.351 E16.17162
G1 X90.903 Y95.526 E16.20533
G1 X91.336 Y94.736 E16.23904
G1 X91.838 Y93.988 E16.27275
G1 X92.404 Y93.287 E16.30646
G1 X93.03 Y92.639 E16.34017
G1 F1800 E9.34017
;MESH:cube.stl
G0 F7500 X100.548 Y119.453
;TYPE:WALL-INNER
G1 F1800 E16.34017
G1 F1500 X119.453 Y119.453 E17.04755
G1 X119.453 Y100.548 E17.75493
G1 X100.548 Y100.548 E18.46231
G1 X100.548 Y119.453 E19.1697
G0 F7500 X100.798 Y119.203
;TYPE:WALL-OUTER
G1 F1500 X119.203 Y119.203 E19.85837
G1 X119.203 Y100.798 E20.54704
G1 X100.798 Y100.798 E21.23571
G1 X100.798 Y119.203 E21.92438
G1 F1800 E14.92438
G0 F7500 X119.55 Y119.55
;TYPE:WALL-INNER
G1 F1800 E21.92438
G1 F1500 X119.453 Y119.55 E21.92691
G1 X100.548 Y119.55 E22.15639
G1 X100.45 Y119.55 E22.15894
G1 X100.45 Y119.453 E22.16146
G1 X100.45 Y100.548 E22.39331
G1 X100.45 Y100.45 E22.39586
G1 X100.548 Y100.45 E22.39842
G1 X119.453 Y100.45 E22.63027
G1 X119.55 Y100.45 E22.6328
G1 X119.55 Y100.548 E22.63535
G1 X119.55 Y119.453 E22.86484
G1 X119.55 Y119.55 E22.86736
G0 F7500 X119.8 Y119.8
M104 S240
;TYPE:WALL-OUTER
G1 F1500 X100.2 Y119.8 E23.60075
G1 X100.2 Y100.2 E24.33413
G1 X119.8 Y100.2 E25.06752
G1 X119.8 Y119.8 E25.8009
G1 F1800 E18.8009
;MESH:NONMESH
G0 F300 X119.8 Y119.8 Z0.6
G0 F7500 X100.548 Y119.453
;TIME_ELAPSED:37.421975
;LAYER:1
;TYPE:WALL-INNER
;MESH:cube.stl
G1 F1800 E25.8009
G1 F1903.3 X119.453 Y119.453 E26.50829
G1 X119.453 Y100.548 E27.21567
G1 X100.548 Y100.548 E27.92305
G1 X100.548 Y119.453 E28.63043
G0 F12750 X100.798 Y119.203
;TYPE:WALL-OUTER
G1 F1903.3 X119.203 Y119.203 E29.3191
G1 X119.203 Y100.798 E30.00777
G1 X100.798 Y100.798 E30.69644
G1 X100.798 Y119.203 E31.38511
G1 F1800 E24.38511
G0 F12750 X119.55 Y119.55
;TYPE:WALL-INNER
G1 F1800 E31.38511
G1 F1903.3 X119.453 Y119.55 E31.38764
G1 X100.548 Y119.55 E31.61712
G1 X100.45 Y119.55 E31.61968
G1 X100.45 Y119.453 E31.62219
G1 X100.45 Y100.548 E31.85404
G1 X100.45 Y100.45 E31.8566
G1 X100.548 Y100.45 E31.85915
G1 X119.453 Y100.45 E32.091
G1 X119.55 Y100.45 E32.09353
G1 X119.55 Y100.548 E32.09608
G1 X119.55 Y119.453 E32.32557
G1 X119.55 Y119.55 E32.32809
G0 F12750 X119.8 Y119.8
;TYPE:WALL-OUTER
G1 F1903.3 X100.2 Y119.8 E33.06148
G1 X100.2 Y100.2 E33.79486
G1 X119.8 Y100.2 E34.52825
G1 X119.8 Y119.8 E35.26164
G1 F1800 E28.26164
;MESH:NONMESH
G0 F300 X119.8 Y119.8 Z0.9
G0 F12750 X100.548 Y119.453
;TIME_ELAPSED:49.657489
;LAYER:2
;TYPE:WALL-INNER
;MESH:cube.stl
G1 F1800 E35.26164
G1 F1892.8 X119.453 Y119.453 E35.96902
G1 X119.453 Y100.548 E36.6764
G1 X100.548 Y100.548 E37.38378
G1 X100.548 Y119.453 E38.09116
G0 F18000 X100.798 Y119.203
;TYPE:WALL-OUTER
G1 F1892.8 X119.203 Y119.203 E38.77983
G1 X119.203 Y100.798 E39.4685
G1 X100.798 Y100.798 E40.15717
G1 X100.798 Y119.203 E40.84585
G1 F1800 E33.84585
G0 F18000 X119.55 Y119.55
;TYPE:WALL-INNER
G1 F1800 E40.84585
G1 F1892.8 X119.453 Y119.55 E40.84837
G1 X100.548 Y119.55 E41.07786
G1 X100.45 Y119.55 E41.08041
G1 X100.45 Y119.453 E41.08292
G1 X100.45 Y100.548 E41.31477
G1 X100.45 Y100.45 E41.31733
G1 X100.548 Y100.45 E41.31989
G1 X119.453 Y100.45 E41.55174
G1 X119.55 Y100.45 E41.55426
G1 X119.55 Y100.548 E41.55681
G1 X119.55 Y119.453 E41.7863
G1 X119.55 Y119.55 E41.78882
G0 F18000 X119.8 Y119.8
;TYPE:WALL-OUTER
G1 F1892.8 X100.2 Y119.8 E42.52221
G1 X100.2 Y100.2 E43.2556
G1 X119.8 Y100.2 E43.98898
G1 X119.8 Y119.8 E44.72237
G1 F1800 E37.72237
;MESH:NONMESH
G0 F300 X119.8 Y119.8 Z1.2
G0 F18000 X100.548 Y119.453
;TIME_ELAPSED:61.945974
;LAYER:3
;TYPE:WALL-INNER
;MESH:cube.stl
G1 F1800 E44.72237
G1 F1892.8 X119.453 Y119.453 E45.42975
G1 X119.453 Y100.548 E46.13713
G1 X100.548 Y100.548 E46.84451
G1 X100.548 Y119.453 E47.55189
G0 F18000 X100.798 Y119.203
;TYPE:WALL-OUTER
G1 F1892.8 X119.203 Y119.203 E48.24056
G1 X119.203 Y100.798 E48.92923
G1 X100.798 Y100.798 E49.61791
G1 X100.798 Y119.203 E50.30658
G1 F1800 E43.30658
G0 F18000 X119.55 Y119.55
;TYPE:WALL-INNER
G1 F1800 E50.30658
G1 F1892.8 X119.453 Y119.55 E50.3091
G1 X100.548 Y119.55 E50.53859
G1 X100.45 Y119.55 E50.54114
G1 X100.45 Y119.453 E50.54365
G1 X100.45 Y100.548 E50.7755
G1 X100.45 Y100.45 E50.77806
G1 X100.548 Y100.45 E50.78062
G1 X119.453 Y100.45 E51.01247
G1 X119.55 Y100.45 E51.015
G1 X119.55 Y100.548 E51.01755
G1 X119.55 Y119.453 E51.24703
G1 X119.55 Y119.55 E51.24956
G0 F18000 X119.8 Y119.8
;TYPE:WALL-OUTER
G1 F1892.8 X100.2 Y119.8 E51.98294
G1 X100.2 Y100.2 E52.71633
G1 X119.8 Y100.2 E53.44971
G1 X119.8 Y119.8 E54.1831
G1 F1800 E47.1831
;MESH:NONMESH
G0 F300 X119.8 Y119.8 Z1.5
G0 F18000 X100.548 Y119.453
;TIME_ELAPSED:74.234459
;LAYER:4
;TYPE:WALL-INNER
;MESH:cube.stl
G1 F1800 E54.1831
G1 F1892.8 X119.453 Y119.453 E54.89048
G1 X119.453 Y100.548 E55.59786
G1 X100.548 Y100.548 E56.30524
G1 X100.548 Y119.453 E57.01262
G0 F18000 X100.798 Y119.203
;TYPE:WALL-OUTER
G1 F1892.8 X119.203 Y119.203 E57.70129
G1 X119.203 Y100.798 E58.38997
G1 X100.798 Y100.798 E59.07864
G1 X100.798 Y119.203 E59.76731
G1 F1800 E52.76731
G0 F18000 X119.55 Y119.55
;TYPE:WALL-INNER
G1 F1800 E59.76731
G1 F1892.8 X119.453 Y119.55 E59.76984
G1 X100.548 Y119.55 E59.99932
G1 X100.45 Y119.55 E60.00187
G1 X100.45 Y119.453 E60.00438
G1 X100.45 Y100.548 E60.23624
G1 X100.45 Y100.45 E60.23879
G1 X100.548 Y100.45 E60.24135
G1 X119.453 Y100.45 E60.4732
G1 X119.55 Y100.45 E60.47573
G1 X119.55 Y100.548 E60.47828
G1 X119.55 Y119.453 E60.70776
G1 X119.55 Y119.55 E60.71029
G0 F18000 X119.8 Y119.8
;TYPE:WALL-OUTER
G1 F1892.8 X100.2 Y119.8 E61.44367
G1 X100.2 Y100.2 E62.17706
G1 X119.8 Y100.2 E62.91045
G1 X119.8 Y119.8 E63.64383
G1 F1800 E56.64383
;MESH:NONMESH
G0 F300 X119.8 Y119.8 Z1.8
G0 F18000 X100.548 Y119.453
;TIME_ELAPSED:86.522944
;LAYER:5
;TYPE:WALL-INNER
;MESH:cube.stl
G1 F1800 E63.64383
G1 F1892.8 X119.453 Y119.453 E64.35121
G1 X119.453 Y100.548 E65.05859
G1 X100.548 Y100.548 E65.76597
G1 X100.548 Y119.453 E66.47336
G0 F18000 X100.798 Y119.203
;TYPE:WALL-OUTER
G1 F1892.8 X119.203 Y119.203 E67.16203
G1 X119.203 Y100.798 E67.8507
G1 X100.798 Y100.798 E68.53937
G1 X100.798 Y119.203 E69.22804
G1 F1800 E62.22804
G0 F18000 X119.55 Y119.55
;TYPE:WALL-INNER
G1 F1800 E69.22804
G1 F1892.8 X119.453 Y119.55 E69.23057
G1 X100.548 Y119.55 E69.46005
G1 X100.45 Y119.55 E69.4626
G1 X100.45 Y119.453 E69.46512
G1 X100.45 Y100.548 E69.69697
G1 X100.45 Y100.45 E69.69952
G1 X100.548 Y100.45 E69.70208
G1 X119.453 Y100.45 E69.93393
G1 X119.55 Y100.45 E69.93646
G1 X119.55 Y100.548 E69.93901
G1 X119.55 Y119.453 E70.1685
G1 X119.55 Y119.55 E70.17102
G0 F18000 X119.8 Y119.8
;TYPE:WALL-OUTER
G1 F1892.8 X100.2 Y119.8 E70.90441
G1 X100.2 Y100.2 E71.63779
G1 X119.8 Y100.2 E72.37118
G1 X119.8 Y119.8 E73.10456
G1 F1800 E66.10456
;MESH:NONMESH
G0 F300 X119.8 Y119.8 Z2.1
G0 F18000 X100.548 Y119.453
;TIME_ELAPSED:98.811428
;LAYER:6
;TYPE:WALL-INNER
;MESH:cube.stl
G1 F1800 E73.10456
G1 F1892.8 X119.453 Y119.453 E73.81194
G1 X119.453 Y100.548 E74.51933
G1 X100.548 Y100.548 E75.22671
G1 X100.548 Y119.453 E75.93409
G0 F18000 X100.798 Y119.203
;TYPE:WALL-OUTER
G1 F1892.8 X119.203 Y119.203 E76.62276
G1 X119.203 Y100.798 E77.31143
G1 X100.798 Y100.798 E78.0001
G1 X100.798 Y119.203 E78.68877
G1 F1800 E71.68877
G0 F18000 X119.55 Y119.55
;TYPE:WALL-INNER
G1 F1800 E78.68877
G1 F1892.8 X119.453 Y119.55 E78.6913
G1 X100.548 Y119.55 E78.92078
G1 X100.45 Y119.55 E78.92334
G1 X100.45 Y119.453 E78.92585
G1 X100.45 Y100.548 E79.1577
G1 X100.45 Y100.45 E79.16026
G1 X100.548 Y100.45 E79.16281
G1 X119.453 Y100.45 E79.39466
G1 X119.55 Y100.45 E79.39719
G1 X119.55 Y100.548 E79.39974
G1 X119.55 Y119.453 E79.62923
G1 X119.55 Y119.55 E79.63175
G0 F18000 X119.8 Y119.8
;TYPE:WALL-OUTER
G1 F1892.8 X100.2 Y119.8 E80.36514
G1 X100.2 Y100.2 E81.09852
G1 X119.8 Y100.2 E81.83191
G1 X119.8 Y119.8 E82.5653
G1 F1800 E75.5653
;MESH:NONMESH
G0 F300 X119.8 Y119.8 Z2.4
G0 F18000 X100.548 Y119.453
;TIME_ELAPSED:111.099913
;LAYER:7
;TYPE:WALL-INNER
;MESH:cube.stl
G1 F1800 E82.5653
G1 F1892.8 X119.453 Y119.453 E83.27268
G1 X119.453 Y100.548 E83.98006
G1 X100.548 Y100.548 E84.68744
G1 X100.548 Y119.453 E85.39482
G0 F18000 X100.798 Y119.203
;TYPE:WALL-OUTER
G1 F1892.8 X119.203 Y119.203 E86.08349
G1 X119.203 Y100.798 E86.77216
G1 X100.798 Y100.798 E87.46083
G1 X100.798 Y119.203 E88.14951
G1 F1800 E81.14951
G0 F18000 X119.55 Y119.55
;TYPE:WALL-INNER
G1 F1800 E88.14951
