; generated by SuperSlicer 2.3.56 on 2021-05-26 at 10:13:49 UTC

; 

; external perimeters extrusion width = 0.42mm
; perimeters extrusion width = 0.44mm
; infill extrusion width = 0.44mm
; solid infill extrusion width = 0.44mm
; top infill extrusion width = 0.40mm
; first layer extrusion width = 0.56mm

; object:{"name":"Knob","id":"Knob.STL id:0 copy 0","object_center":[122.074274,105.649304,0.000000],"boundingbox_center":[122.074274,105.649304,5.549900],"boundingbox_size":[26.230641,24.066771,11.099799]}
; object:{"name":"CAM_screw","id":"CAM_screw.STL id:1 copy 0","object_center":[122.731918,130.032909,0.000000],"boundingbox_center":[122.731918,130.032909,7.055611],"boundingbox_size":[12.700000,12.700000,14.111221]}
; object:{"name":"camera_screw","id":"camera_screw.stl id:2 copy 0","object_center":[103.060407,124.605952,0.000000],"boundingbox_center":[103.060407,124.605952,8.000000],"boundingbox_size":[16.500000,16.086300,16.000000]}
; plater:{"center":[115.000001,114.999414,0.000000],"boundingbox_center":[115.000001,114.999414,8.000000],"boundingbox_size":[40.379188,42.766990,16.000000]}

;TYPE:Custom
START_PRINT T_BED=70 T_EXTRUDER=245  Z_OFFSET=0.0
M107
G21 ; set units to millimeters
G90 ; use absolute coordinates
M82 ; use absolute distances for extrusion
G92 E0
; Filament gcode
M109 S245 ; set temperature and wait for it to be reached
M190 S70 ; set bed temperature and wait for it to be reached
;LAYER_CHANGE
;Z:0.16
;HEIGHT:0.16
;BEFORE_LAYER_CHANGE
;0.16


G10 ; retract
G1 Z0.160000 F7200.000
;AFTER_LAYER_CHANGE
;0.16
G92 E0
G1 X109.398 Y92.041
G11 ; unretract
G92 E0
;TYPE:Skirt
;WIDTH:0.56
G1 F1200.000
G1 X110.623 Y90.661 E0.06453
G1 X112.467 Y89.387 E0.14289
G1 X113.932 Y88.605 E0.20097
G1 X115.029 Y88.170 E0.24222
G1 X116.087 Y87.934 E0.28011
G1 X117.241 Y87.847 E0.32058
G1 X126.904 Y87.845 E0.65850
G1 X127.792 Y87.892 E0.68957
G1 X128.689 Y88.056 E0.72147
G1 X130.132 Y88.564 E0.77495
G1 X131.515 Y89.288 E0.82954
G1 X132.833 Y90.123 E0.88409
G1 X134.215 Y91.350 E0.94873
G1 X134.952 Y92.355 E0.99230
G1 X140.000 Y101.095 E1.34523
G1 X140.609 Y102.553 E1.40047
G1 X140.874 Y103.830 E1.44609
G1 X140.960 Y105.864 E1.51728
G1 X140.888 Y107.345 E1.56913
G1 X140.706 Y108.409 E1.60686
G1 X134.133 Y133.490 E2.51348
G1 X133.616 Y134.882 E2.56540
G1 X132.788 Y136.424 E2.62660
G1 X132.019 Y137.496 E2.67273
G1 X130.856 Y138.750 E2.73255
G1 X129.312 Y139.962 E2.80119
G1 X128.155 Y140.641 E2.84809
G1 X126.852 Y141.214 E2.89787
G1 X125.300 Y141.668 E2.95442
G1 X123.922 Y141.889 E3.00320
G1 X122.415 Y141.944 E3.05597
G1 X120.262 Y141.690 E3.13175
G1 X100.103 Y136.990 E3.85557
G1 X98.822 Y136.609 E3.90230
G1 X97.804 Y136.200 E3.94065
G1 X96.292 Y135.387 E4.00068
G1 X95.124 Y134.564 E4.05065
G1 X94.072 Y133.619 E4.10010
G1 X93.160 Y132.613 E4.14759
G1 X92.498 Y131.705 E4.18687
G1 X91.491 Y129.918 E4.25860
G1 X91.006 Y128.698 E4.30452
G1 X90.640 Y127.414 E4.35119
G1 X90.419 Y126.101 E4.39774
G1 X90.327 Y124.663 E4.44813
G1 X90.411 Y123.186 E4.49986
G1 X90.589 Y122.056 E4.53988
G1 X90.958 Y120.660 E4.59036
G1 X91.310 Y119.729 E4.62517
G1 X92.352 Y117.722 E4.70423
G1 X109.365 Y92.091 E5.77995
G1 X109.803 Y92.381 F7200.000
G1 F1200.000
G1 X109.831 Y92.338 E5.78177
G1 X110.958 Y91.066 E5.84119
G1 X112.752 Y89.829 E5.91737
G1 X114.166 Y89.076 E5.97340
G1 X115.194 Y88.669 E6.01207
G1 X116.195 Y88.449 E6.04790
G1 X117.246 Y88.373 E6.08475
G1 X126.904 Y88.371 E6.42247
G1 X128.579 Y88.570 E6.48144
G1 X129.917 Y89.044 E6.53108
G1 X131.257 Y89.746 E6.58397
G1 X132.539 Y90.558 E6.63704
G1 X133.840 Y91.720 E6.69803
G1 X134.502 Y92.627 E6.73731
G1 X139.535 Y101.340 E7.08915
G1 X140.112 Y102.727 E7.14167
G1 X140.357 Y103.936 E7.18479
G1 X140.435 Y105.848 E7.25174
G1 X140.365 Y107.291 E7.30223
G1 X140.193 Y108.291 E7.33773
G1 X133.628 Y133.345 E8.24336
G1 X133.136 Y134.668 E8.29275
G1 X132.329 Y136.166 E8.35223
G1 X131.612 Y137.163 E8.39515
G1 X130.490 Y138.371 E8.45281
G1 X129.001 Y139.538 E8.51897
G1 X127.884 Y140.190 E8.56421
G1 X126.659 Y140.724 E8.61094
G1 X125.152 Y141.163 E8.66582
G1 X123.839 Y141.369 E8.71228
G1 X122.325 Y141.415 E8.76525
G1 X120.375 Y141.176 E8.83396
G1 X100.232 Y136.481 E9.55717
G1 X98.002 Y135.712 E9.63967
G1 X96.548 Y134.926 E9.69745
G1 X95.445 Y134.147 E9.74467
G1 X94.433 Y133.237 E9.79226
G1 X93.563 Y132.275 E9.83763
G1 X92.920 Y131.392 E9.87583
G1 X91.970 Y129.702 E9.94361
G1 X91.503 Y128.527 E9.98782
G1 X91.150 Y127.284 E10.03300
G1 X90.941 Y126.039 E10.07714
G1 X90.853 Y124.646 E10.12595
G1 X90.934 Y123.231 E10.17551
G1 X91.109 Y122.134 E10.21435
G1 X91.464 Y120.806 E10.26244
G1 X91.802 Y119.914 E10.29577
G1 X92.811 Y117.981 E10.37201
G1 X109.769 Y92.431 E11.44432
; INIT printing object Knob.STL id:0 copy 0
G92 E0
G10 ; retract
; printing object Knob.STL id:0 copy 0
G1 X114.281 Y96.434 F7200.000
G11 ; unretract
;TYPE:External perimeter
G1 F1200.000
G1 X114.317 Y96.578 E0.00517
G1 X114.741 Y97.450 E0.03906
G1 X114.956 Y98.129 E0.06398
G1 X115.057 Y98.848 E0.08935
G1 X115.038 Y99.561 E0.11429
G1 X114.899 Y100.275 E0.13974
G1 X114.650 Y100.942 E0.16464
G1 X114.286 Y101.574 E0.19014
G1 X113.822 Y102.134 E0.21556
G1 X113.285 Y102.599 E0.24041
G1 X112.675 Y102.973 E0.26542
G1 X112.002 Y103.245 E0.29080
G1 X111.293 Y103.401 E0.31619
G1 X110.476 Y103.445 E0.34479
G1 X110.220 Y103.500 E0.35395
G1 X110.077 Y103.558 E0.35936
G1 X109.944 Y103.632 E0.36467
G1 X109.743 Y103.796 E0.37376
G1 X109.584 Y103.991 E0.38254
G1 X109.509 Y104.124 E0.38789
G1 X109.422 Y104.367 E0.39690
G1 X109.395 Y104.516 E0.40221
G1 X109.343 Y105.650 E0.44190
G1 X109.391 Y106.744 E0.48020
G1 X109.416 Y106.908 E0.48598
G1 X109.458 Y107.054 E0.49129
G1 X109.571 Y107.286 E0.50031
G1 X109.726 Y107.486 E0.50916
G1 X109.837 Y107.589 E0.51446
G1 X110.053 Y107.729 E0.52348
G1 X110.193 Y107.789 E0.52878
G1 X110.442 Y107.849 E0.53773
G1 X111.305 Y107.900 E0.56796
G1 X112.002 Y108.054 E0.59293
G1 X112.663 Y108.320 E0.61784
G1 X113.293 Y108.706 E0.64369
G1 X113.833 Y109.176 E0.66871
G1 X114.286 Y109.725 E0.69360
G1 X114.650 Y110.356 E0.71910
G1 X114.899 Y111.023 E0.74399
G1 X115.038 Y111.736 E0.76937
G1 X115.057 Y112.451 E0.79438
G1 X114.956 Y113.170 E0.81976
G1 X114.737 Y113.862 E0.84516
G1 X114.366 Y114.591 E0.87375
G1 X114.286 Y114.840 E0.88291
G1 X114.264 Y114.994 E0.88833
G1 X114.262 Y115.146 E0.89364
G1 X114.304 Y115.402 E0.90272
G1 X114.393 Y115.637 E0.91151
G1 X114.471 Y115.768 E0.91685
G1 X114.637 Y115.965 E0.92587
G1 X114.753 Y116.063 E0.93118
G1 X115.709 Y116.675 E0.97086
G1 X116.681 Y117.181 E1.00917
G1 X116.835 Y117.241 E1.01494
G1 X116.982 Y117.277 E1.02025
G1 X117.240 Y117.296 E1.02927
G1 X117.491 Y117.262 E1.03813
G1 X117.640 Y117.215 E1.04360
G1 X117.780 Y117.150 E1.04898
G1 X117.994 Y117.002 E1.05810
G1 X118.097 Y116.902 E1.06314
G1 X118.631 Y116.110 E1.09651
G1 X119.110 Y115.584 E1.12139
G1 X119.681 Y115.135 E1.14678
G1 X120.319 Y114.787 E1.17220
G1 X120.994 Y114.553 E1.19718
G1 X121.724 Y114.432 E1.22305
G1 X122.439 Y114.432 E1.24806
G1 X123.141 Y114.550 E1.27295
G1 X123.827 Y114.786 E1.29833
G1 X124.456 Y115.128 E1.32334
G1 X125.028 Y115.574 E1.34872
G1 X125.518 Y116.110 E1.37412
G1 X125.964 Y116.796 E1.40271
G1 X126.140 Y116.990 E1.41187
G1 X126.262 Y117.085 E1.41729
G1 X126.392 Y117.163 E1.42260
G1 X126.635 Y117.255 E1.43168
G1 X126.883 Y117.295 E1.44047
G1 X127.036 Y117.294 E1.44581
G1 X127.288 Y117.248 E1.45476
G1 X127.469 Y117.180 E1.46153
G1 X128.440 Y116.674 E1.49981
G1 X129.364 Y116.086 E1.53812
G1 X129.489 Y115.986 E1.54371
G1 X129.661 Y115.793 E1.55275
G1 X129.741 Y115.664 E1.55805
G1 X129.839 Y115.425 E1.56709
G1 X129.872 Y115.277 E1.57238
G1 X129.886 Y115.020 E1.58140
G1 X129.867 Y114.864 E1.58688
G1 X129.831 Y114.721 E1.59205
G1 X129.408 Y113.849 E1.62594
G1 X129.193 Y113.170 E1.65086
G1 X129.092 Y112.451 E1.67624
G1 X129.110 Y111.738 E1.70117
G1 X129.249 Y111.023 E1.72662
G1 X129.498 Y110.356 E1.75152
G1 X129.863 Y109.725 E1.77702
G1 X130.327 Y109.165 E1.80245
G1 X130.864 Y108.699 E1.82730
G1 X131.473 Y108.326 E1.85230
G1 X132.146 Y108.054 E1.87768
G1 X132.856 Y107.898 E1.90308
G1 X133.672 Y107.854 E1.93167
G1 X133.928 Y107.799 E1.94083
G1 X134.072 Y107.741 E1.94624
G1 X134.204 Y107.666 E1.95155
G1 X134.406 Y107.503 E1.96064
G1 X134.564 Y107.308 E1.96942
G1 X134.639 Y107.174 E1.97477
G1 X134.727 Y106.932 E1.98378
G1 X134.753 Y106.782 E1.98909
G1 X134.805 Y105.649 E2.02878
G1 X134.758 Y104.554 E2.06708
G1 X134.733 Y104.391 E2.07286
G1 X134.690 Y104.245 E2.07817
G1 X134.578 Y104.013 E2.08719
G1 X134.423 Y103.813 E2.09604
G1 X134.311 Y103.710 E2.10134
G1 X134.095 Y103.570 E2.11036
G1 X133.956 Y103.510 E2.11566
G1 X133.707 Y103.449 E2.12461
G1 X132.844 Y103.399 E2.15484
G1 X132.147 Y103.245 E2.17982
G1 X131.486 Y102.979 E2.20472
G1 X130.856 Y102.593 E2.23057
G1 X130.316 Y102.123 E2.25559
G1 X129.863 Y101.574 E2.28049
G1 X129.498 Y100.942 E2.30598
G1 X129.249 Y100.275 E2.33088
G1 X129.110 Y99.563 E2.35625
G1 X129.092 Y98.848 E2.38126
G1 X129.193 Y98.129 E2.40664
G1 X129.412 Y97.437 E2.43204
G1 X129.782 Y96.708 E2.46064
G1 X129.862 Y96.458 E2.46979
G1 X129.884 Y96.305 E2.47521
G1 X129.886 Y96.152 E2.48057
G1 X129.844 Y95.891 E2.48979
G1 X129.798 Y95.754 E2.49486
G1 X129.672 Y95.521 E2.50410
G1 X129.583 Y95.408 E2.50913
G1 X129.358 Y95.209 E2.51964
G1 X128.439 Y94.624 E2.55773
G1 X127.468 Y94.118 E2.59604
G1 X127.319 Y94.060 E2.60163
G1 X127.065 Y94.007 E2.61067
G1 X126.914 Y94.002 E2.61597
G1 X126.658 Y94.037 E2.62501
G1 X126.508 Y94.084 E2.63048
G1 X126.369 Y94.148 E2.63586
G1 X126.159 Y94.293 E2.64480
G1 X125.985 Y94.475 E2.65358
G1 X125.510 Y95.197 E2.68380
G1 X125.028 Y95.724 E2.70879
G1 X124.456 Y96.171 E2.73416
G1 X123.829 Y96.512 E2.75909
G1 X123.155 Y96.745 E2.78406
G1 X122.439 Y96.866 E2.80944
G1 X121.710 Y96.866 E2.83494
G1 X121.008 Y96.749 E2.85984
G1 X120.321 Y96.513 E2.88522
G1 X119.693 Y96.171 E2.91023
G1 X119.121 Y95.724 E2.93561
G1 X118.631 Y95.188 E2.96100
G1 X118.185 Y94.503 E2.98960
G1 X118.009 Y94.309 E2.99876
G1 X117.887 Y94.213 E3.00417
G1 X117.756 Y94.136 E3.00948
G1 X117.513 Y94.043 E3.01857
G1 X117.265 Y94.003 E3.02735
G1 X117.112 Y94.005 E3.03270
G1 X116.861 Y94.050 E3.04165
G1 X116.679 Y94.119 E3.04842
G1 X115.709 Y94.624 E3.08669
G1 X114.784 Y95.213 E3.12501
G1 X114.659 Y95.313 E3.13060
G1 X114.488 Y95.506 E3.13964
G1 X114.408 Y95.634 E3.14493
G1 X114.309 Y95.873 E3.15397
G1 X114.276 Y96.021 E3.15927
G1 X114.263 Y96.279 E3.16829
G1 X114.274 Y96.375 E3.17167
G1 X114.421 Y96.481 F7200.000
G1 X114.790 Y96.262
;TYPE:Perimeter
G1 F1200.000
G1 X114.799 Y96.339 E3.17438
G1 X114.814 Y96.396 E3.17647
G1 X115.230 Y97.254 E3.20982
G1 X115.470 Y98.012 E3.23762
G1 X115.583 Y98.818 E3.26605
G1 X115.563 Y99.618 E3.29404
G1 X115.407 Y100.418 E3.32255
G1 X115.127 Y101.167 E3.35050
G1 X114.719 Y101.875 E3.37908
G1 X114.199 Y102.502 E3.40757
G1 X113.596 Y103.025 E3.43546
G1 X112.912 Y103.444 E3.46350
G1 X112.158 Y103.748 E3.49194
G1 X111.364 Y103.924 E3.52039
G1 X110.546 Y103.967 E3.54902
G1 X110.375 Y104.004 E3.55515
G1 X110.304 Y104.033 E3.55781
G1 X110.241 Y104.068 E3.56035
G1 X110.116 Y104.170 E3.56597
G1 X110.020 Y104.288 E3.57130
G1 X109.989 Y104.344 E3.57354
G1 X109.931 Y104.503 E3.57946
G1 X109.919 Y104.575 E3.58200
G1 X109.870 Y105.651 E3.61966
G1 X109.915 Y106.693 E3.65615
G1 X109.930 Y106.794 E3.65972
G1 X109.951 Y106.864 E3.66228
G1 X110.020 Y107.007 E3.66784
G1 X110.114 Y107.129 E3.67323
G1 X110.160 Y107.172 E3.67542
G1 X110.302 Y107.264 E3.68133
G1 X110.360 Y107.289 E3.68352
G1 X110.520 Y107.327 E3.68928
G1 X111.377 Y107.378 E3.71931
G1 X112.158 Y107.550 E3.74726
G1 X112.900 Y107.848 E3.77523
G1 X113.605 Y108.281 E3.80416
G1 X114.211 Y108.808 E3.83223
G1 X114.719 Y109.424 E3.86017
G1 X115.127 Y110.132 E3.88873
G1 X115.407 Y110.880 E3.91667
G1 X115.563 Y111.678 E3.94511
G1 X115.583 Y112.481 E3.97317
G1 X115.470 Y113.286 E4.00161
G1 X115.225 Y114.062 E4.03006
G1 X114.854 Y114.792 E4.05869
G1 X114.800 Y114.959 E4.06482
G1 X114.789 Y115.034 E4.06748
G1 X114.789 Y115.107 E4.07002
G1 X114.814 Y115.265 E4.07564
G1 X114.868 Y115.408 E4.08098
G1 X114.901 Y115.463 E4.08321
G1 X115.010 Y115.592 E4.08913
G1 X115.066 Y115.639 E4.09168
G1 X115.973 Y116.219 E4.12933
G1 X116.898 Y116.702 E4.16582
G1 X116.994 Y116.739 E4.16939
G1 X117.065 Y116.756 E4.17195
G1 X117.223 Y116.767 E4.17751
G1 X117.376 Y116.747 E4.18290
G1 X117.450 Y116.724 E4.18561
G1 X117.518 Y116.692 E4.18822
G1 X117.680 Y116.580 E4.19512
G1 X118.217 Y115.785 E4.22868
G1 X118.751 Y115.198 E4.25641
G1 X119.390 Y114.695 E4.28486
G1 X120.106 Y114.305 E4.31336
G1 X120.864 Y114.042 E4.34142
G1 X121.680 Y113.906 E4.37036
G1 X122.483 Y113.907 E4.39843
G1 X123.271 Y114.039 E4.42636
G1 X124.040 Y114.303 E4.45480
G1 X124.745 Y114.687 E4.48286
G1 X125.386 Y115.187 E4.51130
G1 X125.935 Y115.787 E4.53975
G1 X126.382 Y116.474 E4.56838
G1 X126.499 Y116.604 E4.57451
G1 X126.559 Y116.651 E4.57717
G1 X126.622 Y116.688 E4.57971
G1 X126.772 Y116.745 E4.58533
G1 X126.922 Y116.769 E4.59066
G1 X126.986 Y116.768 E4.59290
G1 X127.148 Y116.739 E4.59863
G1 X127.255 Y116.699 E4.60262
G1 X128.177 Y116.219 E4.63899
G1 X129.058 Y115.658 E4.67550
G1 X129.126 Y115.603 E4.67855
G1 X129.239 Y115.477 E4.68448
G1 X129.272 Y115.424 E4.68667
G1 X129.336 Y115.267 E4.69260
G1 X129.350 Y115.206 E4.69478
G1 X129.358 Y115.037 E4.70069
G1 X129.349 Y114.960 E4.70341
G1 X129.335 Y114.902 E4.70549
G1 X128.918 Y114.044 E4.73884
G1 X128.678 Y113.286 E4.76664
G1 X128.565 Y112.481 E4.79508
G1 X128.586 Y111.681 E4.82306
G1 X128.741 Y110.880 E4.85157
G1 X129.021 Y110.132 E4.87952
G1 X129.430 Y109.424 E4.90811
G1 X129.949 Y108.796 E4.93659
G1 X130.552 Y108.274 E4.96448
G1 X131.236 Y107.855 E4.99253
G1 X131.990 Y107.550 E5.02096
G1 X132.784 Y107.375 E5.04941
G1 X133.602 Y107.331 E5.07804
G1 X133.774 Y107.294 E5.08417
G1 X133.844 Y107.266 E5.08683
G1 X133.907 Y107.230 E5.08938
G1 X134.032 Y107.129 E5.09500
G1 X134.128 Y107.011 E5.10033
G1 X134.160 Y106.955 E5.10256
G1 X134.217 Y106.796 E5.10848
G1 X134.230 Y106.724 E5.11103
G1 X134.279 Y105.648 E5.14868
G1 X134.234 Y104.606 E5.18517
G1 X134.218 Y104.505 E5.18874
G1 X134.198 Y104.434 E5.19130
G1 X134.128 Y104.291 E5.19686
G1 X134.034 Y104.169 E5.20226
G1 X133.988 Y104.127 E5.20444
G1 X133.846 Y104.035 E5.21035
G1 X133.789 Y104.010 E5.21255
G1 X133.629 Y103.971 E5.21830
G1 X132.771 Y103.921 E5.24833
G1 X131.991 Y103.749 E5.27628
G1 X131.249 Y103.450 E5.30426
G1 X130.543 Y103.018 E5.33318
G1 X129.938 Y102.491 E5.36125
G1 X129.429 Y101.874 E5.38919
G1 X129.021 Y101.167 E5.41775
G1 X128.742 Y100.418 E5.44569
G1 X128.586 Y99.620 E5.47413
G1 X128.565 Y98.818 E5.50220
G1 X128.678 Y98.012 E5.53064
G1 X128.924 Y97.237 E5.55908
G1 X129.295 Y96.507 E5.58771
G1 X129.348 Y96.340 E5.59384
G1 X129.359 Y96.265 E5.59650
G1 X129.360 Y96.191 E5.59909
G1 X129.332 Y96.018 E5.60520
G1 X129.314 Y95.965 E5.60716
G1 X129.231 Y95.811 E5.61330
G1 X129.199 Y95.770 E5.61511
G1 X129.041 Y95.630 E5.62249
G1 X128.176 Y95.080 E5.65832
G1 X127.250 Y94.597 E5.69484
G1 X127.169 Y94.566 E5.69788
G1 X127.003 Y94.531 E5.70381
G1 X126.940 Y94.529 E5.70600
G1 X126.772 Y94.552 E5.71193
G1 X126.699 Y94.575 E5.71463
G1 X126.631 Y94.606 E5.71724
G1 X126.502 Y94.695 E5.72274
G1 X126.398 Y94.804 E5.72797
G1 X125.926 Y95.521 E5.75800
G1 X125.386 Y96.112 E5.78598
G1 X124.745 Y96.612 E5.81442
G1 X124.042 Y96.994 E5.84238
G1 X123.286 Y97.256 E5.87039
G1 X122.483 Y97.392 E5.89884
G1 X121.666 Y97.392 E5.92742
G1 X120.878 Y97.260 E5.95536
G1 X120.109 Y96.995 E5.98380
G1 X119.404 Y96.612 E6.01187
G1 X118.763 Y96.112 E6.04031
G1 X118.214 Y95.511 E6.06875
G1 X117.767 Y94.825 E6.09738
G1 X117.649 Y94.695 E6.10351
G1 X117.589 Y94.648 E6.10617
G1 X117.527 Y94.611 E6.10872
G1 X117.377 Y94.554 E6.11434
G1 X117.226 Y94.530 E6.11967
G1 X117.162 Y94.530 E6.12190
G1 X117.001 Y94.559 E6.12764
G1 X116.894 Y94.599 E6.13163
G1 X115.972 Y95.080 E6.16799
G1 X115.091 Y95.641 E6.20451
G1 X115.023 Y95.695 E6.20755
G1 X114.910 Y95.822 E6.21348
G1 X114.877 Y95.875 E6.21567
G1 X114.813 Y96.032 E6.22160
G1 X114.799 Y96.093 E6.22378
G1 X114.793 Y96.202 E6.22760
G1 X115.276 Y96.146 F7200.000
G1 F1200.000
