; generated by SuperSlicer 2.3.56 on 2021-05-24 at 21:12:28 UTC

; 

; external perimeters extrusion width = 0.42mm
; perimeters extrusion width = 0.44mm
; infill extrusion width = 0.44mm
; solid infill extrusion width = 0.44mm
; top infill extrusion width = 0.40mm
; first layer extrusion width = 0.56mm

; object:{"name":"Webcam_mount_Ender_3_V2_v1","id":"Webcam_mount_Ender_3_V2_v1.stl id:0 copy 0","object_center":[115.000000,115.000000,0.000000],"boundingbox_center":[115.000000,115.000000,36.871208],"boundingbox_size":[40.000000,36.576088,73.742417]}
; plater:{"center":[115.000000,115.000000,0.000000],"boundingbox_center":[115.000000,115.000000,36.871208],"boundingbox_size":[40.000000,36.576088,73.742417]}

;TYPE:Custom
START_PRINT T_BED=70 T_EXTRUDER=240 Z_OFFSET=0.0
M107
G21 ; set units to millimeters
G90 ; use absolute coordinates
M82 ; use absolute distances for extrusion
G92 E0
; Filament gcode
M104 S240 ; set temperature
M109 S240 ; set temperature and wait for it to be reached
M190 S70 ; set bed temperature and wait for it to be reached
M107
;LAYER_CHANGE
;Z:0.16
;HEIGHT:0.16
;BEFORE_LAYER_CHANGE
;0.16


G1 E-5.00000 F3600.000
G1 Z0.160000 F7200.000
;AFTER_LAYER_CHANGE
;0.16
G92 E0
G1 X91.409 Y115.187
G1 E5.00000 F2400.000
;TYPE:Skirt
;WIDTH:0.56
G1 F1200.000
G1 X92.652 Y114.436 E5.05079
G1 X93.763 Y114.072 E5.09166
G1 X94.930 Y113.939 E5.13274
G1 X135.006 Y113.938 E6.53408
G1 X136.099 Y114.043 E6.57247
G1 X137.152 Y114.353 E6.61087
G1 X138.128 Y114.856 E6.64926
G1 X138.992 Y115.535 E6.68765
G1 X139.711 Y116.364 E6.72605
G1 X140.259 Y117.308 E6.76423
G1 X140.621 Y118.345 E6.80263
G1 X140.781 Y119.431 E6.84102
G1 X140.788 Y130.623 E7.23236
G1 X140.600 Y132.004 E7.28108
G1 X140.108 Y133.263 E7.32836
G1 X139.341 Y134.369 E7.37544
G1 X137.554 Y136.152 E7.46370
G1 X136.191 Y137.001 E7.51984
G1 X135.080 Y137.364 E7.56072
G1 X133.913 Y137.497 E7.60180
G1 X94.632 Y137.486 E8.97535
G1 X93.093 Y137.175 E9.03026
G1 X91.689 Y136.457 E9.08538
G1 X90.535 Y135.393 E9.14028
G1 X89.709 Y134.057 E9.19519
G1 X89.354 Y132.987 E9.23462
G1 X89.214 Y131.874 E9.27384
G1 X89.212 Y119.697 E9.69964
G1 X89.276 Y118.868 E9.72872
G1 X89.670 Y117.470 E9.77950
G1 X90.395 Y116.219 E9.83008
G1 X91.367 Y115.230 E9.87857
G1 X91.741 Y115.601 F7200.000
G1 F1200.000
G1 X91.770 Y115.572 E9.88002
G1 X92.918 Y114.893 E9.92666
G1 X93.911 Y114.578 E9.96307
G1 X94.946 Y114.464 E9.99947
G1 X135.006 Y114.464 E11.40027
G1 X136.008 Y114.561 E11.43549
G1 X136.969 Y114.846 E11.47051
G1 X137.858 Y115.307 E11.50554
G1 X138.643 Y115.929 E11.54056
G1 X139.297 Y116.688 E11.57559
G1 X139.797 Y117.562 E11.61081
G1 X140.122 Y118.516 E11.64603
G1 X140.258 Y119.508 E11.68106
G1 X140.262 Y130.608 E12.06919
G1 X140.101 Y131.836 E12.11249
G1 X139.652 Y133.002 E12.15618
G1 X138.936 Y134.033 E12.20008
G1 X137.216 Y135.750 E12.28507
G1 X135.926 Y136.543 E12.33800
G1 X134.934 Y136.858 E12.37440
G1 X133.899 Y136.972 E12.41081
G1 X94.683 Y136.963 E13.78210
G1 X93.265 Y136.678 E13.83267
G1 X91.978 Y136.018 E13.88325
G1 X90.919 Y135.033 E13.93382
G1 X90.166 Y133.791 E13.98459
G1 X89.860 Y132.838 E14.01962
G1 X89.739 Y131.843 E14.05464
G1 X89.792 Y118.970 E14.50479
G1 X90.152 Y117.680 E14.55163
G1 X90.826 Y116.522 E14.59847
G1 X91.698 Y115.644 E14.64177
; INIT printing object Webcam_mount_Ender_3_V2_v1.stl id:0 copy 0
G92 E0
G1 E-3.50000 F3600.000
;WIPE_START
G1 F5760.000
G1 X91.770 Y115.572 E-3.56023
G1 X92.918 Y114.893 E-4.35227
G1 X93.838 Y114.601 E-4.92500
;WIPE_END
G1 E-5.00000 F3600.000
; printing object Webcam_mount_Ender_3_V2_v1.stl id:0 copy 0
G1 X96.431 Y129.450 F7200.000
G1 E0.00000 F2400.000
;TYPE:Perimeter
G1 F1200.000
G1 X133.569 Y129.450 E1.29859
G1 X133.569 Y129.980 E1.31711
G1 X133.277 Y130.274 E1.33160
G1 X96.431 Y130.274 E2.62001
G1 X96.431 Y129.510 E2.64674
G1 X95.906 Y128.924 F7200.000
G1 F1200.000
G1 X134.094 Y128.924 E3.98209
G1 X134.094 Y130.195 E4.02654
G1 X133.497 Y130.800 E4.05626
G1 X95.906 Y130.800 E5.37072
G1 X95.906 Y128.984 E5.43421
G1 X95.380 Y128.398 F7200.000
;TYPE:External perimeter
G1 F1200.000
G1 X134.620 Y128.398 E6.80633
G1 X134.620 Y130.411 E6.87671
G1 X133.717 Y131.325 E6.92165
G1 X95.380 Y131.325 E8.26218
G1 X95.380 Y128.458 E8.36243
G1 X95.726 Y128.598 F7200.000
G1 X96.674 Y129.862
;TYPE:Gap fill
;WIDTH:0.373306
G1 F1200.000
G1 X96.759 Y129.862 E8.36434
G1 X96.843 Y129.862 E8.36625
G1 X133.105 Y129.862 E9.18390
G1 X133.124 Y129.859 E9.18432
;WIDTH:0.28932
G1 X133.160 Y129.853 E9.18500
;WIDTH:0.247328
G1 X133.179 Y129.850 E9.18526
G1 X133.234 Y129.834 E9.18608
;WIDTH:0.184657
G1 X133.290 Y129.819 E9.18666
G1 X133.326 Y129.809 E9.18703
; INIT stop printing object Webcam_mount_Ender_3_V2_v1.stl id:0 copy 0
M106 S255
;LAYER_CHANGE
;Z:0.36
;HEIGHT:0.2
;BEFORE_LAYER_CHANGE
;0.36


G92 E0
G1 E-3.50000 F3600.000
;WIPE_START
G1 F5760.000
G1 X133.290 Y129.819 E-3.52209
G1 X133.234 Y129.834 E-3.55639
;WIPE_END
G1 E-5.00000 F3600.000
; stop printing object Webcam_mount_Ender_3_V2_v1.stl id:0 copy 0
G1 Z0.360000 F7200.000
;AFTER_LAYER_CHANGE
;0.36
G92 E0
G1 X137.554 Y136.152
G1 E5.00000 F2400.000
;TYPE:Skirt
;WIDTH:0.56
G1 F6000.000
G1 X136.191 Y137.001 E5.06903
G1 X135.080 Y137.364 E5.11929
G1 X133.913 Y137.497 E5.16981
G1 X94.632 Y137.486 E6.85871
G1 X93.093 Y137.175 E6.92623
G1 X91.689 Y136.457 E6.99399
G1 X90.535 Y135.393 E7.06151
G1 X89.709 Y134.057 E7.12902
G1 X89.354 Y132.987 E7.17750
G1 X89.214 Y131.874 E7.22573
G1 X89.212 Y119.697 E7.74929
G1 X89.276 Y118.868 E7.78503
G1 X89.670 Y117.470 E7.84748
G1 X90.395 Y116.219 E7.90968
G1 X91.409 Y115.187 E7.97187
G1 X92.652 Y114.436 E8.03432
G1 X93.763 Y114.072 E8.08458
G1 X94.930 Y113.939 E8.13509
G1 X135.006 Y113.938 E9.85816
G1 X136.099 Y114.043 E9.90536
G1 X137.152 Y114.353 E9.95257
G1 X138.128 Y114.856 E9.99978
G1 X138.992 Y115.535 E10.04699
G1 X139.711 Y116.364 E10.09419
G1 X140.259 Y117.308 E10.14115
G1 X140.621 Y118.345 E10.18836
G1 X140.781 Y119.431 E10.23556
G1 X140.788 Y130.623 E10.71675
G1 X140.600 Y132.004 E10.77666
G1 X140.108 Y133.263 E10.83480
G1 X139.341 Y134.369 E10.89268
G1 X137.597 Y136.110 E10.99862
G1 X137.227 Y135.739 F7200.000
G1 F6000.000
G1 X137.216 Y135.750 E10.99928
G1 X135.926 Y136.543 E11.06436
G1 X134.934 Y136.858 E11.10913
G1 X133.899 Y136.972 E11.15389
G1 X94.683 Y136.963 E12.84002
G1 X93.265 Y136.678 E12.90220
G1 X91.978 Y136.018 E12.96438
G1 X90.919 Y135.033 E13.02657
G1 X90.166 Y133.791 E13.08900
G1 X89.860 Y132.838 E13.13206
G1 X89.739 Y131.843 E13.17513
G1 X89.792 Y118.970 E13.72862
G1 X90.152 Y117.680 E13.78622
G1 X90.826 Y116.522 E13.84381
G1 X91.770 Y115.572 E13.90141
G1 X92.918 Y114.893 E13.95876
G1 X93.911 Y114.578 E14.00353
G1 X94.946 Y114.464 E14.04829
G1 X135.006 Y114.464 E15.77069
G1 X136.008 Y114.561 E15.81400
G1 X136.969 Y114.846 E15.85707
G1 X137.858 Y115.307 E15.90013
G1 X138.643 Y115.929 E15.94320
G1 X139.297 Y116.688 E15.98627
G1 X139.797 Y117.562 E16.02957
G1 X140.122 Y118.516 E16.07288
G1 X140.258 Y119.508 E16.11595
G1 X140.262 Y130.608 E16.59319
G1 X140.101 Y131.836 E16.64643
G1 X139.652 Y133.002 E16.70016
G1 X138.936 Y134.033 E16.75413
G1 X137.269 Y135.697 E16.85540
; INIT printing object Webcam_mount_Ender_3_V2_v1.stl id:0 copy 0
G92 E0
G1 E-3.50000 F3600.000
;WIPE_START
G1 F5760.000
G1 X137.216 Y135.750 E-3.54469
G1 X135.926 Y136.543 E-4.44342
G1 X135.153 Y136.788 E-4.92500
;WIPE_END
G1 E-5.00000 F3600.000
; printing object Webcam_mount_Ender_3_V2_v1.stl id:0 copy 0
G1 X106.685 Y128.475 F7200.000
G1 E0.00000 F2400.000
;TYPE:Perimeter
;WIDTH:0.44
G1 F4150.523
G1 X106.999 Y128.241 E0.01294
G1 X107.071 Y128.168 E0.01630
;TYPE:Overhang perimeter
G1 F3000.000
G1 X107.231 Y128.008 E0.02377
;TYPE:Bridge infill
;WIDTH:0.389872
;HEIGHT:0.389872
G1 X107.276 Y127.963 E0.02694
G1 X107.511 Y127.650 E0.04639
G1 X107.699 Y127.306 E0.06584
G1 X107.835 Y126.938 E0.08530
G1 X107.919 Y126.555 E0.10475
G1 X107.947 Y126.164 E0.12420
G1 X107.919 Y125.774 E0.14365
G1 X107.835 Y125.391 E0.16310
G1 X107.699 Y125.023 E0.18256
G1 X107.511 Y124.679 E0.20201
G1 X107.276 Y124.366 E0.22146
G1 X106.999 Y124.088 E0.24091
G1 X106.685 Y123.854 E0.26037
G1 X106.341 Y123.666 E0.27982
G1 X105.974 Y123.529 E0.29927
G1 X105.591 Y123.445 E0.31872
G1 X105.200 Y123.417 E0.33818
G1 X104.809 Y123.445 E0.35763
G1 X104.426 Y123.529 E0.37708
G1 X104.059 Y123.666 E0.39653
G1 X103.715 Y123.854 E0.41598
G1 X103.401 Y124.088 E0.43544
G1 X103.124 Y124.366 E0.45489
G1 X102.889 Y124.679 E0.47434
G1 X102.701 Y125.023 E0.49379
G1 X102.565 Y125.391 E0.51325
G1 X102.481 Y125.774 E0.53270
G1 X102.453 Y126.164 E0.55215
G1 X102.481 Y126.555 E0.57160
G1 X102.565 Y126.938 E0.59105
G1 X102.701 Y127.306 E0.61051
G1 X102.889 Y127.650 E0.62996
G1 X103.124 Y127.963 E0.64941
G1 X103.169 Y128.008 E0.65258
;TYPE:Overhang perimeter
;WIDTH:0.44
;HEIGHT:0.2
G1 X103.329 Y128.168 E0.66005
;TYPE:Perimeter
G1 F4150.523
G1 X103.401 Y128.241 E0.66341
G1 X103.715 Y128.475 E0.67635
G1 X104.059 Y128.663 E0.68929
G1 X104.426 Y128.800 E0.70223
G1 X104.809 Y128.884 E0.71517
G1 X105.200 Y128.912 E0.72811
G1 X105.591 Y128.884 E0.74105
G1 X105.974 Y128.800 E0.75399
G1 X106.341 Y128.663 E0.76693
G1 X106.632 Y128.504 E0.77789
G1 X106.176 Y128.301 F7200.000
G1 F3561.433
G1 X106.419 Y128.168 E0.78703
;TYPE:Overhang perimeter
G1 F3000.000
G1 X106.470 Y128.141 E0.78896
G1 X106.646 Y128.008 E0.79623
;TYPE:Bridge infill
;WIDTH:0.389872
;HEIGHT:0.389872
G1 X106.738 Y127.940 E0.80193
G1 X106.975 Y127.703 E0.81856
G1 X107.176 Y127.434 E0.83519
G1 X107.336 Y127.140 E0.85183
G1 X107.453 Y126.826 E0.86846
G1 X107.525 Y126.499 E0.88510
G1 X107.549 Y126.164 E0.90173
G1 X107.525 Y125.830 E0.91836
G1 X107.453 Y125.503 E0.93500
G1 X107.336 Y125.189 E0.95163
G1 X107.176 Y124.895 E0.96826
G1 X106.975 Y124.626 E0.98490
G1 X106.738 Y124.389 E1.00153
G1 X106.470 Y124.188 E1.01816
G1 X106.176 Y124.028 E1.03479
G1 X105.862 Y123.911 E1.05143
G1 X105.534 Y123.839 E1.06806
G1 X105.200 Y123.815 E1.08469
G1 X104.866 Y123.839 E1.10133
G1 X104.538 Y123.911 E1.11796
G1 X104.224 Y124.028 E1.13459
G1 X103.930 Y124.188 E1.15122
G1 X103.662 Y124.389 E1.16786
G1 X103.425 Y124.626 E1.18449
G1 X103.224 Y124.895 E1.20112
G1 X103.064 Y125.189 E1.21776
G1 X102.947 Y125.503 E1.23439
G1 X102.875 Y125.830 E1.25102
G1 X102.851 Y126.164 E1.26766
G1 X102.875 Y126.499 E1.28429
G1 X102.947 Y126.826 E1.30092
G1 X103.064 Y127.140 E1.31756
G1 X103.224 Y127.434 E1.33419
G1 X103.425 Y127.703 E1.35082
G1 X103.662 Y127.940 E1.36746
G1 X103.754 Y128.008 E1.37315
;TYPE:Overhang perimeter
;WIDTH:0.44
;HEIGHT:0.2
G1 X103.930 Y128.141 E1.38043
G1 X103.981 Y128.168 E1.38235
;TYPE:Perimeter
G1 F3561.433
G1 X104.224 Y128.301 E1.39149
G1 X104.538 Y128.418 E1.40256
G1 X104.866 Y128.490 E1.41362
G1 X105.200 Y128.514 E1.42469
G1 X105.534 Y128.490 E1.43575
G1 X105.862 Y128.418 E1.44682
G1 X106.119 Y128.322 E1.45590
G1 X105.200 Y128.125 F7200.000
;TYPE:Overhang perimeter
;WIDTH:0.42
G1 F3000.000
G1 X105.479 Y128.105 E1.46467
G1 X105.752 Y128.046 E1.47344
G1 X105.853 Y128.008 E1.47681
;TYPE:Bridge infill
;WIDTH:0.389872
;HEIGHT:0.389872
G1 X106.014 Y127.948 E1.48536
G1 X106.260 Y127.814 E1.49925
G1 X106.484 Y127.646 E1.51313
G1 X106.682 Y127.449 E1.52702
G1 X106.849 Y127.225 E1.54090
G1 X106.983 Y126.979 E1.55479
G1 X107.081 Y126.717 E1.56868
G1 X107.141 Y126.444 E1.58256
G1 X107.161 Y126.164 E1.59645
G1 X107.141 Y125.885 E1.61033
G1 X107.081 Y125.612 E1.62422
G1 X106.983 Y125.350 E1.63811
G1 X106.849 Y125.104 E1.65199
G1 X106.682 Y124.880 E1.66588
G1 X106.484 Y124.683 E1.67976
G1 X106.260 Y124.515 E1.69365
G1 X106.014 Y124.381 E1.70753
G1 X105.752 Y124.283 E1.72141
G1 X105.479 Y124.223 E1.73530
G1 X105.200 Y124.204 E1.74918
G1 X104.921 Y124.223 E1.76307
G1 X104.648 Y124.283 E1.77695
G1 X104.386 Y124.381 E1.79083
G1 X104.140 Y124.515 E1.80472
G1 X103.916 Y124.683 E1.81860
G1 X103.718 Y124.880 E1.83249
G1 X103.551 Y125.104 E1.84637
G1 X103.417 Y125.350 E1.86026
G1 X103.319 Y125.612 E1.87415
G1 X103.259 Y125.885 E1.88803
G1 X103.239 Y126.164 E1.90192
G1 X103.259 Y126.444 E1.91580
G1 X103.319 Y126.717 E1.92969
G1 X103.417 Y126.979 E1.94358
G1 X103.551 Y127.225 E1.95746
G1 X103.718 Y127.449 E1.97135
G1 X103.916 Y127.646 E1.98523
G1 X104.140 Y127.814 E1.99912
G1 X104.386 Y127.948 E2.01300
G1 X104.547 Y128.008 E2.02156
;TYPE:Overhang perimeter
;WIDTH:0.42
;HEIGHT:0.2
G1 X104.648 Y128.046 E2.02492
G1 X104.921 Y128.105 E2.03369
G1 X105.140 Y128.121 E2.04058
G92 E0
G1 E-3.50000 F3600.000
;WIPE_START
G1 F5760.000
G1 X105.479 Y128.105 E-3.70142
G1 X105.752 Y128.046 E-3.86751
G1 X105.853 Y128.008 E-3.93124
;WIPE_END
G1 E-5.00000 F3600.000
G1 X95.994 Y130.715 F7200.000
G1 E0.00000 F2400.000
;TYPE:Perimeter
;WIDTH:0.44
G1 F4800.000
G1 X95.994 Y128.168 E0.08409
;TYPE:Overhang perimeter
G1 F3000.000
G1 X95.994 Y128.008 E0.08937
;TYPE:Bridge infill
;WIDTH:0.389872
;HEIGHT:0.389872
G1 X95.994 Y120.721 E0.45107
G1 X134.006 Y120.721 E2.33769
G1 X134.006 Y128.008 E2.69940
;TYPE:Overhang perimeter
;WIDTH:0.44
;HEIGHT:0.2
G1 X134.006 Y128.168 E2.70468
;TYPE:Perimeter
G1 F4800.000
G1 X134.006 Y130.131 E2.76949
G1 X133.429 Y130.715 E2.79659
G1 X96.054 Y130.715 E4.03060
G1 X95.597 Y131.112 F7200.000
G1 F4800.000
G1 X95.597 Y128.168 E4.12780
;TYPE:Overhang perimeter
G1 F3000.000
G1 X95.597 Y128.008 E4.13308
;TYPE:Bridge infill
;WIDTH:0.389872
;HEIGHT:0.389872
G1 X95.597 Y120.324 E4.51449
G1 X134.403 Y120.324 E6.44053
G1 X134.403 Y128.008 E6.82194
;TYPE:Overhang perimeter
;WIDTH:0.44
;HEIGHT:0.2
G1 X134.403 Y128.168 E6.82722
;TYPE:Perimeter
G1 F4800.000
G1 X134.403 Y130.294 E6.89742
G1 X133.595 Y131.112 E6.93538
G1 X95.657 Y131.112 E8.18798
G1 X95.210 Y131.499 F7200.000
;TYPE:External perimeter
;WIDTH:0.42
G1 F4200.000
G1 X95.210 Y128.168 E8.29241
;TYPE:Overhang perimeter
G1 F3000.000
G1 X95.210 Y128.008 E8.29743
;TYPE:Bridge infill
;WIDTH:0.389872
;HEIGHT:0.389872
G1 X95.210 Y119.937 E8.69805
G1 X134.790 Y119.937 E10.66251
G1 X134.790 Y128.008 E11.06314
;TYPE:Overhang perimeter
;WIDTH:0.42
;HEIGHT:0.2
G1 X134.790 Y128.168 E11.06815
;TYPE:External perimeter
G1 F4200.000
G1 X134.790 Y130.453 E11.13980
G1 X133.756 Y131.499 E11.18590
G1 X95.270 Y131.499 E12.39262
G1 X95.410 Y131.153 F7200.000
G92 E0
G1 E-3.50000 F3600.000
;WIPE_START
G1 F5760.000
G1 X95.227 Y129.100 E-4.92500
;WIPE_END
G1 E-5.00000 F3600.000
G1 X96.504 Y128.936 F7200.000
G1 E0.00000 F2400.000
;TYPE:Bridge infill
;WIDTH:0.389872
;HEIGHT:0.389872
G1 F3000.000
G1 X103.274 Y128.582 E0.33648
G1 X103.288 Y128.554 E0.33800
G1 X103.192 Y128.482 E0.34396
G1 X102.882 Y128.173 E0.36568
G1 X102.874 Y128.162 E0.36635
G1 X96.313 Y128.506 E0.69243
G1 X96.313 Y128.066 E0.71429
G1 X102.574 Y127.737 E1.02543
G1 X102.410 Y127.439 E1.04233
G1 X102.362 Y127.308 E1.04924
G1 X96.313 Y127.625 E1.34985
G1 X96.313 Y127.185 E1.37171
G1 X102.224 Y126.875 E1.66548
G1 X102.165 Y126.601 E1.67939
G1 X102.153 Y126.438 E1.68749
G1 X96.313 Y126.744 E1.97772
G1 X96.313 Y126.304 E1.99958
G1 X102.145 Y125.998 E2.28943
G1 X102.165 Y125.728 E2.30286
G1 X102.202 Y125.555 E2.31168
G1 X96.313 Y125.863 E2.60436
G1 X96.313 Y125.423 E2.62622
G1 X102.329 Y125.107 E2.92523
G1 X102.410 Y124.890 E2.93672
G1 X102.538 Y124.656 E2.94998
G1 X96.313 Y124.982 E3.25937
G1 X96.313 Y124.542 E3.28123
G1 X102.850 Y124.199 E3.60610
G1 X102.882 Y124.156 E3.60878
G1 X103.192 Y123.847 E3.63049
G1 X103.344 Y123.733 E3.63992
G1 X96.313 Y124.101 E3.98933
G1 X96.313 Y123.661 E4.01119
G1 X133.687 Y121.702 E5.86867
G1 X133.687 Y122.143 E5.89053
G1 X106.798 Y123.552 E7.22689
G1 X106.858 Y123.584 E7.23027
G1 X107.208 Y123.847 E7.25199
G1 X107.326 Y123.965 E7.26026
G1 X133.687 Y122.583 E8.57039
G1 X133.687 Y123.024 E8.59226
G1 X107.690 Y124.386 E9.88432
G1 X107.780 Y124.506 E9.89178
G1 X107.947 Y124.813 E9.90912
G1 X133.687 Y123.464 E11.18838
G1 X133.687 Y123.905 E11.21024
G1 X108.122 Y125.244 E12.48085
G1 X108.143 Y125.300 E12.48382
G1 X108.225 Y125.679 E12.50307
G1 X133.687 Y124.345 E13.76853
G1 X133.687 Y124.785 E13.79040
G1 X108.263 Y126.118 E15.05395
G1 X108.267 Y126.164 E15.05627
G1 X108.238 Y126.560 E15.07594
G1 X133.687 Y125.226 E16.34073
G1 X133.687 Y125.666 E16.36259
G1 X108.148 Y127.005 E17.63190
