; generated by PrusaSlicer 2.7.0+win64 on 2023-12-06 at 03:48:33 UTC

; 

; external perimeters extrusion width = 0.45mm
; perimeters extrusion width = 0.45mm
; infill extrusion width = 0.45mm
; solid infill extrusion width = 0.45mm
; top infill extrusion width = 0.40mm
; support material extrusion width = 0.35mm
; first layer extrusion width = 0.42mm

M73 P0 R15
M190 S40 ; set bed temperature and wait for it to be reached
M104 S205 ; set temperature
;TYPE:Custom
START_PRINT EXTRUDER_TEMP=205 BED_TEMP=40 Z_OFFSET=0.1
M109 S205 ; set temperature and wait for it to be reached
G21 ; set units to millimeters
G90 ; use absolute coordinates
M83 ; use relative distances for extrusion
; Filament gcode
M107
;LAYER_CHANGE
;Z:0.3
;HEIGHT:0.3
;BEFORE_LAYER_CHANGE
G92 E0
;0.3


G10 ; retract
G1 Z.3 F7800
;AFTER_LAYER_CHANGE
;0.3
G1 X97.949 Y97.816
G11 ; unretract
;TYPE:Skirt/Brim
;WIDTH:0.42
G1 F1800
G1 X98.886 Y97.004 E.05499
G1 X99.79 Y96.387 E.04855
G1 X100.533 Y95.98 E.03758
G1 X101.67 Y95.501 E.05472
G1 X103.535 Y95.041 E.0852
G1 X105 Y94.933 E.06516
G1 X125.225 Y94.937 E.89708
G1 X126.651 Y95.07 E.06352
G1 X128.33 Y95.501 E.07689
G1 X130.048 Y96.291 E.08387
G1 X131.23 Y97.094 E.06338
G1 X132.491 Y98.277 E.07669
G1 X133.378 Y99.421 E.06421
G1 X134.273 Y101.085 E.08381
G1 X134.804 Y102.717 E.07612
G1 X135.011 Y103.951 E.0555
G1 X135.067 Y105 E.04659
G1 X135.057 Y125.413 E.90541
G1 X134.93 Y126.651 E.0552
G1 X134.635 Y127.913 E.05748
G1 X134.02 Y129.467 E.07413
G1 X133.378 Y130.579 E.05695
G1 X132.616 Y131.581 E.05584
G1 X132.051 Y132.184 E.03665
G1 X131.081 Y133.021 E.05683
G1 X130.082 Y133.688 E.05328
G1 X129.088 Y134.198 E.04955
G1 X127.913 Y134.635 E.0556
G1 X127.099 Y134.845 E.03729
G1 X125.861 Y135.029 E.05551
G1 X104.587 Y135.057 E.94361
G1 X103.349 Y134.929 E.0552
G1 X102.087 Y134.635 E.05747
G1 X100.533 Y134.02 E.07413
G1 X99.406 Y133.368 E.05775
G1 X98.419 Y132.616 E.05504
G1 X97.816 Y132.051 E.03665
G1 X96.979 Y131.081 E.05683
G1 X96.312 Y130.082 E.05328
G1 X95.802 Y129.088 E.04955
G1 X95.365 Y127.913 E.0556
G1 X95.155 Y127.099 E.03729
G1 X94.973 Y125.88 E.05467
G1 X94.967 Y104.198 E.9617
G1 X95.182 Y102.78 E.06361
G1 X95.544 Y101.552 E.05679
G1 X96.038 Y100.419 E.05482
G1 X96.706 Y99.298 E.05788
G1 X97.91 Y97.862 E.08312
G1 X98.182 Y98.09 F7800
G1 F1800
G1 X98.2 Y98.068 E.00126
G1 X99.105 Y97.284 E.05311
G1 X99.972 Y96.693 E.04654
G1 X100.693 Y96.298 E.03646
G1 X101.791 Y95.836 E.05284
G1 X103.59 Y95.393 E.08218
G1 X105 Y95.289 E.06271
G1 X125.214 Y95.292 E.89659
G1 X127.022 Y95.502 E.08073
G1 X128.386 Y95.9 E.06302
G1 X129.866 Y96.597 E.07256
G1 X131.346 Y97.65 E.08056
G1 X132.349 Y98.653 E.06292
G1 X133.403 Y100.134 E.08063
G1 X134.1 Y101.614 E.07256
G1 X134.498 Y102.978 E.06302
G1 X134.657 Y103.984 E.04517
G1 X134.711 Y105 E.04513
G1 X134.702 Y125.402 E.90493
G1 X134.498 Y127.022 E.07242
G1 X134.164 Y128.209 E.05469
G1 X133.617 Y129.475 E.06117
G1 X132.978 Y130.535 E.0549
G1 X132.224 Y131.488 E.0539
G1 X131.488 Y132.225 E.0462
G1 X129.899 Y133.383 E.08721
G1 X128.946 Y133.872 E.04751
G1 X127.813 Y134.294 E.05363
G1 X127.022 Y134.498 E.03623
G1 X125.828 Y134.675 E.05354
G1 X104.172 Y134.675 E.96055
G1 X102.978 Y134.498 E.05354
M73 P1 R15
G1 X101.791 Y134.164 E.05469
G1 X100.525 Y133.617 E.06117
G1 X99.465 Y132.978 E.0549
G1 X98.512 Y132.224 E.0539
G1 X97.776 Y131.488 E.04617
G1 X96.617 Y129.899 E.08724
G1 X96.129 Y128.946 E.04749
G1 X95.706 Y127.813 E.05364
G1 X95.502 Y127.022 E.03623
G1 X95.327 Y125.846 E.05274
G1 X95.321 Y104.23 E.95877
G1 X95.53 Y102.855 E.06169
G1 X95.879 Y101.671 E.05475
G1 X96.356 Y100.578 E.0529
G1 X97.001 Y99.496 E.05587
G1 X98.143 Y98.136 E.07877
G1 X98.414 Y98.364 F7800
G1 F1800
G1 X98.452 Y98.319 E.00261
G1 X99.324 Y97.565 E.05113
G1 X100.153 Y96.999 E.04452
G1 X101.912 Y96.17 E.08625
G1 X103.645 Y95.744 E.07916
G1 X105 Y95.644 E.06026
G1 X125.203 Y95.648 E.8961
G1 X126.944 Y95.85 E.07774
G1 X128.265 Y96.234 E.06102
G1 X129.685 Y96.903 E.06962
G1 X131.111 Y97.917 E.07761
G1 X132.083 Y98.888 E.06094
G1 X133.097 Y100.315 E.07765
G1 X133.766 Y101.735 E.06962
G1 X134.15 Y103.056 E.06102
G1 X134.303 Y104.018 E.04321
G1 X134.356 Y105 E.04362
G1 X134.346 Y125.391 E.90444
G1 X134.15 Y126.944 E.06943
G1 X133.83 Y128.088 E.05269
G1 X133.3 Y129.314 E.05924
G1 X132.684 Y130.335 E.05289
G1 X131.958 Y131.253 E.05191
G1 X131.253 Y131.958 E.04422
G1 X129.716 Y133.078 E.08435
G1 X128.805 Y133.545 E.04541
G1 X127.713 Y133.952 E.05169
G1 X125.794 Y134.321 E.08668
G1 X104.609 Y134.346 E.93966
G1 X103.056 Y134.15 E.06943
G1 X101.912 Y133.83 E.05269
G1 X100.686 Y133.3 E.05924
G1 X99.665 Y132.684 E.05289
G1 X98.747 Y131.958 E.05191
G1 X98.042 Y131.253 E.04422
G1 X96.922 Y129.716 E.08435
G1 X96.455 Y128.805 E.04541
G1 X96.047 Y127.713 E.05171
G1 X95.681 Y125.813 E.08582
G1 X95.675 Y104.261 E.95594
G1 X95.878 Y102.93 E.05972
G1 X96.214 Y101.79 E.05272
G1 X96.674 Y100.736 E.05101
G1 X97.296 Y99.695 E.05379
G1 X98.376 Y98.41 E.07445
G10 ; retract
G1 X98.376 Y98.41 F7800
G1 X122.7 Y106.237
G11 ; unretract
;TYPE:Perimeter
;WIDTH:0.42
G1 F1800
G1 X122.314 Y105.995 E.02021
G1 X121.818 Y105.889 E.0225
G1 X119.342 Y105.933 E.10984
G1 X118.863 Y106.05 E.02187
G1 X118.523 Y106.261 E.01775
G1 X118.166 Y106.689 E.02472
G1 X117.86 Y107.365 E.03291
G1 X117.679 Y108.203 E.03803
G1 X117.598 Y108.711 E.02282
G1 X117.554 Y109.244 E.02372
G1 X117.532 Y110.285 E.04618
G1 X117.698 Y119.755 E.4201
G1 X117.727 Y120.38 E.02775
G1 X117.763 Y120.978 E.02657
G1 X117.921 Y122.024 E.04692
G1 X118.189 Y122.943 E.04246
G1 X118.459 Y123.463 E.02599
G1 X118.83 Y123.878 E.02469
G1 X119.184 Y124.079 E.01806
G1 X119.662 Y124.178 E.02165
G1 X122.135 Y124.134 E.10971
G1 X122.563 Y124.035 E.01949
G1 X122.442 Y124.431 E.01837
G1 X122.381 Y124.915 E.02164
G1 X122.412 Y125.409 E.02195
G1 X122.531 Y125.879 E.0215
G1 X107.469 Y125.879 E.66807
G1 X107.558 Y125.569 E.01431
G1 X107.62 Y125.088 E.02151
G1 X107.588 Y124.588 E.02222
G1 X107.459 Y124.15 E.02025
G1 X107.662 Y124.178 E.00909
G1 X110.135 Y124.134 E.10971
G1 X110.613 Y124.018 E.02182
G1 X110.956 Y123.806 E.01789
G1 X111.314 Y123.377 E.02478
G1 X111.564 Y122.849 E.02591
G1 X111.734 Y122.263 E.02706
G1 X111.871 Y121.423 E.03775
G1 X111.945 Y120.307 E.04961
G1 X111.946 Y119.783 E.02324
G1 X111.777 Y110.141 E.42773
G1 X111.719 Y109.129 E.04496
G1 X111.558 Y108.042 E.04874
G1 X111.29 Y107.125 E.04237
G1 X111.021 Y106.606 E.02593
G1 X110.65 Y106.19 E.02472
G1 X110.302 Y105.991 E.01778
G1 X109.818 Y105.889 E.02194
M73 P2 R15
G1 X107.43 Y105.931 E.10594
G1 X107.54 Y105.625 E.01442
G1 X107.62 Y105.088 E.02408
G1 X107.588 Y104.588 E.02222
G1 X107.449 Y104.121 E.02161
G1 X122.536 Y104.121 E.66918
G1 X122.411 Y104.591 E.02157
M73 P2 R14
G1 X122.391 Y105.247 E.02911
G1 X122.499 Y105.773 E.02382
G1 X122.676 Y106.181 E.01973
G10 ; retract
G1 X122.676 Y106.181 F7800
G1 X125.879 Y122.531
G11 ; unretract
G1 F1800
G1 X125.569 Y122.442 E.01431
G1 X125.063 Y122.381 E.02261
G1 X124.456 Y122.438 E.02704
G1 X124.08 Y122.551 E.01741
G1 X123.583 Y122.798 E.02462
G1 X123.766 Y122.066 E.03347
G1 X123.882 Y121.317 E.03362
G1 X123.945 Y120.307 E.04489
G1 X123.778 Y110.176 E.44942
G1 X123.72 Y109.137 E.04616
G1 X123.558 Y108.042 E.0491
G1 X123.358 Y107.302 E.034
G1 X123.128 Y106.812 E.02401
G1 X123.226 Y106.923 E.00657
G1 X123.666 Y107.256 E.02448
G1 X124.108 Y107.465 E.02169
G1 X124.591 Y107.589 E.02212
G1 X125.08 Y107.62 E.02173
G1 X125.568 Y107.559 E.02181
G1 X125.879 Y107.455 E.01455
G1 X125.879 Y122.471 E.66603
G10 ; retract
G1 X125.879 Y122.471 F7800
G1 X122.566 Y123.639
G11 ; unretract
;WIDTH:0.456907
G1 F1800
G1 X122.5 Y123.681 E.00383
;WIDTH:0.42
G1 X122.129 Y123.779 E.01702
G1 X119.656 Y123.822 E.10971
G1 X119.284 Y123.738 E.01692
G1 X119.071 Y123.618 E.01084
G1 X118.774 Y123.299 E.01933
G1 X118.504 Y122.779 E.02599
G1 X118.264 Y121.932 E.03905
G1 X118.114 Y120.912 E.04573
G1 X118.056 Y119.906 E.04469
G1 X117.887 Y110.279 E.42707
G1 X117.91 Y109.252 E.04556
G1 X117.953 Y108.741 E.02275
G1 X118.095 Y107.862 E.03949
G1 X118.235 Y107.371 E.02265
G1 X118.487 Y106.842 E.02599
G1 X118.773 Y106.514 E.0193
G1 X118.978 Y106.387 E.0107
G1 X119.348 Y106.288 E.01699
G1 X121.824 Y106.245 E.10984
G1 X122.206 Y106.334 E.0174
;WIDTH:0.465833
G1 X122.372 Y106.436 E.00976
;WIDTH:0.511666
G1 X122.538 Y106.539 E.0109
;WIDTH:0.5575
G1 X122.704 Y106.641 E.01198
G1 X122.794 Y106.857 E.01439
;WIDTH:0.511666
G1 X122.884 Y107.073 E.01305
;WIDTH:0.465833
G1 X122.974 Y107.288 E.01167
;WIDTH:0.42
G1 X123.192 Y108.051 E.0352
G1 X123.325 Y108.866 E.03663
G1 X123.365 Y109.157 E.01303
G1 X123.422 Y110.161 E.0446
G1 X123.591 Y119.789 E.42711
G1 X123.59 Y120.307 E.02298
G1 X123.52 Y121.366 E.04707
G1 X123.383 Y122.206 E.03775
G1 X123.243 Y122.696 E.0226
;WIDTH:0.442945
G1 X123.003 Y123.23 E.02764
;WIDTH:0.456907
G1 X122.786 Y123.5 E.01696
G1 X122.616 Y123.607 E.00983
G1 X122.382 Y123.345 F7800
;TYPE:External perimeter
;WIDTH:0.42
G1 F1800
G1 X122.123 Y123.423 E.012
G1 X119.647 Y123.467 E.10984
G1 X119.313 Y123.357 E.0156
G1 X119.09 Y123.135 E.01396
G1 X118.82 Y122.616 E.02595
G1 X118.607 Y121.839 E.03574
G1 X118.484 Y120.998 E.0377
G1 X118.409 Y119.743 E.05576
G1 X118.243 Y110.272 E.42015
G1 X118.265 Y109.26 E.0449
G1 X118.309 Y108.758 E.02235
G1 X118.446 Y107.919 E.03771
G1 X118.557 Y107.524 E.0182
G1 X118.808 Y106.995 E.02597
G1 X119.092 Y106.724 E.01741
G1 X119.355 Y106.644 E.01219
G1 X121.83 Y106.6 E.1098
G1 X122.166 Y106.712 E.01571
G1 X122.389 Y106.933 E.01393
G1 X122.658 Y107.452 E.02593
G1 X122.849 Y108.144 E.03184
G1 X123.01 Y109.177 E.04637
G1 X123.067 Y110.188 E.04491
G1 X123.235 Y119.798 E.42631
G1 X123.234 Y120.306 E.02253
G1 X123.169 Y121.308 E.04454
G1 X123.032 Y122.148 E.03775
G1 X122.849 Y122.697 E.02567
G1 X122.635 Y123.123 E.02115
G1 X122.428 Y123.307 E.01228
G1 X122.042 Y123.412 F7800
G10 ; retract
G1 X126.354 Y106.798
G11 ; unretract
;TYPE:Perimeter
;WIDTH:0.416161
G1 F1800
G1 X126.299 Y106.88 E.00433
;WIDTH:0.42
G1 X126.234 Y107.13 E.01146
G1 X126.234 Y122.209 E.66883
G1 X126.253 Y122.998 E.03501
;WIDTH:0.414202
G1 X126.386 Y123.227 E.01155
;WIDTH:0.408496
G1 X126.251 Y123.118 E.00745
;WIDTH:0.42
G1 X125.882 Y122.912 E.01874
G1 X125.471 Y122.784 E.01909
G1 X124.915 Y122.737 E.02475
G1 X124.389 Y122.818 E.02361
G1 X123.853 Y123.052 E.02594
;WIDTH:0.43702
G1 X123.377 Y123.405 E.02754
;WIDTH:0.454518
G1 X123.1 Y123.735 E.02097
G1 X122.912 Y124.118 E.02076
;WIDTH:0.42
G1 X122.784 Y124.529 E.01909
G1 X122.735 Y124.949 E.01876
G1 X122.766 Y125.375 E.01895
G1 X122.874 Y125.786 E.01885
G1 X122.991 Y126.036 E.01224
G1 X123.227 Y126.386 E.01872
;WIDTH:0.408508
G1 X123.089 Y126.288 E.00726
;WIDTH:0.42
G1 X122.87 Y126.234 E.01
G1 X107.791 Y126.234 E.66883
G1 X107.002 Y126.253 E.03501
;WIDTH:0.414207
G1 X106.773 Y126.386 E.01155
;WIDTH:0.408508
G1 X106.882 Y126.251 E.00745
;WIDTH:0.42
G1 X107.088 Y125.882 E.01874
G1 X107.216 Y125.471 E.01909
G1 X107.266 Y125.053 E.01867
G1 X107.234 Y124.623 E.01913
G1 X107.105 Y124.216 E.01894
;WIDTH:0.46801
G1 X107.083 Y124.115 E.0052
;WIDTH:0.51602
G1 X107.061 Y124.013 E.00588
;WIDTH:0.56403
G1 X107.038 Y123.912 E.00646
;WIDTH:0.61204
G1 X107.016 Y123.811 E.00706
;WIDTH:0.660051
G1 X106.994 Y123.71 E.00768
G1 X107.059 Y123.736 E.0052
;WIDTH:0.618443
G1 X107.209 Y123.758 E.01048
;WIDTH:0.568832
G1 X107.358 Y123.779 E.00947
;WIDTH:0.519221
G1 X107.507 Y123.801 E.00854
;WIDTH:0.46961
G1 X107.656 Y123.822 E.00761
;WIDTH:0.42
G1 X110.129 Y123.779 E.10971
G1 X110.5 Y123.681 E.01702
G1 X110.706 Y123.554 E.01073
G1 X110.992 Y123.225 E.01934
G1 X111.275 Y122.609 E.03007
G1 X111.448 Y121.808 E.03635
G1 X111.553 Y120.891 E.04094
G1 X111.59 Y120.307 E.02596
G1 X111.422 Y110.161 E.45009
G1 X111.364 Y109.152 E.04483
G1 X111.215 Y108.134 E.04563
G1 X110.974 Y107.288 E.03902
G1 X110.705 Y106.769 E.02593
G1 X110.408 Y106.451 E.0193
G1 X110.2 Y106.332 E.01063
G1 X109.824 Y106.245 E.01712
G1 X107.26 Y106.297 E.11375
;WIDTH:0.460977
G1 X107.002 Y106.391 E.01358
;WIDTH:0.501955
G1 X106.744 Y106.484 E.01497
G1 X106.883 Y106.25 E.01485
;WIDTH:0.460977
G1 X107.022 Y106.016 E.01346
;WIDTH:0.42
G1 X107.205 Y105.504 E.02412
G1 X107.269 Y105.005 E.02231
G1 X107.205 Y104.496 E.02275
G1 X107.022 Y103.984 E.02412
G1 X106.773 Y103.624 E.01942
;WIDTH:0.418253
G1 X106.999 Y103.748 E.01138
;WIDTH:0.42
G1 X107.13 Y103.766 E.00587
G1 X122.87 Y103.766 E.69814
G1 X123.094 Y103.709 E.01025
;WIDTH:0.406685
G1 X123.2 Y103.638 E.00545
G1 X123.126 Y103.742 E.00545
;WIDTH:0.42
G1 X122.875 Y104.221 E.02399
G1 X122.759 Y104.668 E.02048
G1 X122.737 Y105.048 E.01688
G1 X122.796 Y105.534 E.02171
G1 X122.999 Y106.033 E.02389
;WIDTH:0.468093
G1 X123.007 Y106.106 E.0037
;WIDTH:0.516186
G1 X123.016 Y106.18 E.0042
;WIDTH:0.564279
G1 X123.024 Y106.253 E.00458
G1 X123.196 Y106.443 E.01598
;WIDTH:0.542083
G1 X123.377 Y106.588 E.01382
;WIDTH:0.501388
G1 X123.559 Y106.732 E.01265
;WIDTH:0.460694
G1 X123.74 Y106.877 E.01146
;WIDTH:0.42
G1 X124.25 Y107.139 E.02543
G1 X124.668 Y107.241 E.01908
G1 X125.092 Y107.264 E.01883
G1 X125.513 Y107.207 E.01884
G1 X126.036 Y107 E.02495
G1 X126.303 Y106.83 E.01404
G1 X126.451 Y106.213 F7800
;TYPE:External perimeter
G1 F1800
M73 P3 R14
G1 X126.151 Y106.506 E.0186
G1 X125.894 Y106.673 E.01359
G1 X125.458 Y106.856 E.02097
G1 X125.103 Y106.909 E.01592
G1 X124.744 Y106.894 E.01594
G1 X124.392 Y106.813 E.01602
G1 X123.939 Y106.582 E.02255
G1 X123.76 Y106.454 E.00976
G1 X123.402 Y106.046 E.02408
G1 X123.156 Y105.501 E.02652
G1 X123.093 Y105.059 E.0198
G1 X123.106 Y104.744 E.01398
G1 X123.191 Y104.383 E.01645
G1 X123.437 Y103.901 E.024
G1 X123.855 Y103.47 E.02663
G1 X124.296 Y103.229 E.02229
G1 X124.604 Y103.138 E.01425
G1 X125.122 Y103.092 E.02307
G1 X125.678 Y103.214 E.02525
G1 X126.038 Y103.395 E.01787
G1 X126.322 Y103.618 E.01602
G1 X126.558 Y103.891 E.01601
G1 X126.736 Y104.2 E.01582
G1 X126.856 Y104.541 E.01603
G1 X126.91 Y104.896 E.01593
G1 X126.872 Y105.355 E.02043
G1 X126.78 Y105.683 E.01511
G1 X126.535 Y106.13 E.02261
G1 X126.494 Y106.171 E.00257
G1 X126.208 Y106.451 F7800
G10 ; retract
G1 X125.327 Y126.877
G11 ; unretract
G1 F1800
G1 X124.982 Y126.912 E.01538
G1 X124.551 Y126.848 E.01933
G1 X124.073 Y126.673 E.02258
G1 X123.627 Y126.329 E.02498
G1 X123.377 Y126.01 E.01798
G1 X123.216 Y125.688 E.01597
G1 X123.12 Y125.341 E.01597
G1 X123.089 Y124.983 E.01594
G1 X123.126 Y124.627 E.01588
G1 X123.229 Y124.28 E.01605
G1 X123.472 Y123.862 E.02145
G1 X123.618 Y123.678 E.01042
G1 X124.034 Y123.358 E.02328
G1 X124.321 Y123.22 E.01412
G1 X124.547 Y123.143 E.01059
G1 X125 Y123.089 E.02023
G1 X125.373 Y123.126 E.01663
G1 X125.874 Y123.308 E.02364
G1 X126.297 Y123.595 E.02267
G1 X126.66 Y124.055 E.02599
G1 X126.848 Y124.551 E.02353
G1 X126.912 Y125.018 E.02091
G1 X126.874 Y125.373 E.01584
G1 X126.771 Y125.72 E.01605
G1 X126.605 Y126.038 E.01591
G1 X126.373 Y126.329 E.01651
G1 X125.945 Y126.66 E.024
G1 X125.386 Y126.87 E.02649
G1 X124.987 Y126.9 F7800
G10 ; retract
G1 X104.121 Y107.449
G11 ; unretract
;TYPE:Perimeter
G1 F1800
G1 X104.376 Y107.54 E.01201
G1 X104.915 Y107.619 E.02416
G1 X105.409 Y107.588 E.02195
G1 X105.827 Y107.484 E.01911
G1 X105.724 Y107.926 E.02013
G1 X105.598 Y108.711 E.03526
G1 X105.554 Y109.244 E.02372
G1 X105.532 Y110.285 E.04618
G1 X105.701 Y119.927 E.42773
G1 X105.759 Y120.932 E.04465
G1 X105.824 Y121.399 E.02091
G1 X105.921 Y122.024 E.02805
G1 X106.079 Y122.613 E.02705
G1 X105.526 Y122.431 E.02582
G1 X104.98 Y122.377 E.02434
G1 X104.456 Y122.438 E.0234
G1 X104.121 Y122.536 E.01548
G1 X104.121 Y107.509 E.66652
G1 X103.624 Y106.773 F7800
G1 F1800
G1 X103.984 Y107.022 E.01942
G1 X104.496 Y107.205 E.02412
G1 X104.949 Y107.265 E.02027
G1 X105.432 Y107.226 E.02149
G1 X105.922 Y107.067 E.02285
;WIDTH:0.448839
G1 X106.228 Y106.889 E.01698
;WIDTH:0.477679
G1 X106.533 Y106.711 E.0182
G1 X106.47 Y106.834 E.00712
;WIDTH:0.456103
G1 X106.203 Y107.459 E.03321
;WIDTH:0.42
G1 X106.075 Y107.983 E.02393
G1 X105.953 Y108.741 E.03405
G1 X105.91 Y109.252 E.02275
G1 X105.888 Y110.257 E.04459
G1 X106.056 Y119.885 E.42711
G1 X106.114 Y120.912 E.04562
G1 X106.176 Y121.348 E.01953
G1 X106.279 Y121.989 E.0288
