; G-Code generated by Simplify3D(R) Version 4.0.0
; Sep 19, 2017 at 5:56:35 PM
; Settings Summary
;   processName,Process1
;   applyToModels,170-220 TPU Temp Tower v1
;   profileName,Tronxy P802 (modified)
;   profileVersion,2017-08-19 17:21:20
;   baseProfile,Default (modified)
;   printMaterial,TPU 
;   printQuality,Medium
;   printExtruders,
;   extruderName,Primary Extruder
;   extruderToolheadNumber,0
;   extruderDiameter,0.4
;   extruderAutoWidth,0
;   extruderWidth,0.48
;   extrusionMultiplier,1
;   extruderUseRetract,1
;   extruderRetractionDistance,4.1
;   extruderExtraRestartDistance,0
;   extruderRetractionZLift,0
;   extruderRetractionSpeed,1800
;   extruderUseCoasting,1
;   extruderCoastingDistance,0.2
;   extruderUseWipe,1
;   extruderWipeDistance,5
;   primaryExtruder,0
;   layerHeight,0.2
;   topSolidLayers,3
;   bottomSolidLayers,3
;   perimeterOutlines,3
;   printPerimetersInsideOut,1
;   startPointOption,2
;   startPointOriginX,0
;   startPointOriginY,0
;   sequentialIslands,0
;   spiralVaseMode,0
;   firstLayerHeightPercentage,90
;   firstLayerWidthPercentage,100
;   firstLayerUnderspeed,0.5
;   useRaft,0
;   raftExtruder,0
;   raftTopLayers,3
;   raftBaseLayers,2
;   raftOffset,3
;   raftSeparationDistance,0.14
;   raftTopInfill,100
;   aboveRaftSpeedMultiplier,0.3
;   useSkirt,1
;   skirtExtruder,0
;   skirtLayers,1
;   skirtOutlines,2
;   skirtOffset,1.6
;   usePrimePillar,0
;   primePillarExtruder,999
;   primePillarWidth,12
;   primePillarLocation,7
;   primePillarSpeedMultiplier,1
;   useOozeShield,0
;   oozeShieldExtruder,999
;   oozeShieldOffset,2
;   oozeShieldOutlines,1
;   oozeShieldSidewallShape,1
;   oozeShieldSidewallAngle,30
;   oozeShieldSpeedMultiplier,1
;   infillExtruder,0
;   internalInfillPattern,Rectilinear
;   externalInfillPattern,Rectilinear
;   infillPercentage,65
;   outlineOverlapPercentage,15
;   infillExtrusionWidthPercentage,90
;   minInfillLength,5
;   infillLayerInterval,1
;   internalInfillAngles,45,-45
;   overlapInternalInfillAngles,0
;   externalInfillAngles,45,-45
;   generateSupport,0
;   supportExtruder,0
;   supportInfillPercentage,20
;   supportExtraInflation,0
;   supportBaseLayers,0
;   denseSupportExtruder,0
;   denseSupportLayers,5
;   denseSupportInfillPercentage,40
;   supportLayerInterval,1
;   supportHorizontalPartOffset,0.4
;   supportUpperSeparationLayers,1
;   supportLowerSeparationLayers,1
;   supportType,0
;   supportGridSpacing,2
;   maxOverhangAngle,45
;   supportAngles,0
;   temperatureName,Primary Extruder,Headed bed
;   temperatureNumber,0,1
;   temperatureSetpointCount,9,1
;   temperatureSetpointLayers,1,39,73,107,140,174,207,241,275,1
;   temperatureSetpointTemperatures,210,205,200,195,190,185,180,175,170,70
;   temperatureStabilizeAtStartup,1,1
;   temperatureHeatedBed,0,1
;   temperatureRelayBetweenLayers,0,0
;   temperatureRelayBetweenLoops,0,0
;   fanLayers,1,2
;   fanSpeeds,0,100
;   blipFanToFullPower,0
;   adjustSpeedForCooling,1
;   minSpeedLayerTime,15
;   minCoolingSpeedSlowdown,20
;   increaseFanForCooling,0
;   minFanLayerTime,45
;   maxCoolingFanSpeed,100
;   increaseFanForBridging,0
;   bridgingFanSpeed,100
;   use5D,1
;   relativeEdistances,0
;   allowEaxisZeroing,1
;   independentExtruderAxes,0
;   includeM10123,0
;   stickySupport,1
;   applyToolheadOffsets,0
;   gcodeXoffset,0
;   gcodeYoffset,0
;   gcodeZoffset,0
;   overrideMachineDefinition,0
;   machineTypeOverride,0
;   strokeXoverride,200
;   strokeYoverride,200
;   strokeZoverride,200
;   originOffsetXoverride,0
;   originOffsetYoverride,0
;   originOffsetZoverride,0
;   homeXdirOverride,-1
;   homeYdirOverride,-1
;   homeZdirOverride,-1
;   flipXoverride,1
;   flipYoverride,-1
;   flipZoverride,1
;   toolheadOffsets,0,0|0,0|0,0|0,0|0,0|0,0
;   overrideFirmwareConfiguration,0
;   firmwareTypeOverride,RepRap (Marlin/Repetier/Sprinter)
;   GPXconfigOverride,r2
;   baudRateOverride,115200
;   overridePrinterModels,0
;   printerModelsOverride
;   startingGcode,G28 ;Home,G1 E10 F240 ;Extrude 10MM fillament,,,
;   layerChangeGcode,
;   retractionGcode,
;   toolChangeGcode,
;   endingGcode,M104 S0,M140 S0,G92 E1,G1 E-1 F300,G28 X0 Y0,M84
;   exportFileFormat,gcode
;   celebration,0
;   celebrationSong,Random Song
;   postProcessing,
;   defaultSpeed,1200
;   outlineUnderspeed,0.5
;   solidInfillUnderspeed,0.8
;   supportUnderspeed,0.8
;   rapidXYspeed,4800
;   rapidZspeed,1002
;   minBridgingArea,50
;   bridgingExtraInflation,0
;   bridgingExtrusionMultiplier,1
;   bridgingSpeedMultiplier,1
;   useFixedBridgingAngle,0
;   fixedBridgingAngle,0
;   applyBridgingToPerimeters,0
;   filamentDiameters,1.75|1.75|1.75|1.75|1.75|1.75
;   filamentPricesPerKg,46|46|46|46|46|46
;   filamentDensities,1.25|1.25|1.25|1.25|1.25|1.25
;   useMinPrintHeight,0
;   minPrintHeight,0
;   useMaxPrintHeight,0
;   maxPrintHeight,0
;   useDiaphragm,0
;   diaphragmLayerInterval,20
;   robustSlicing,1
;   mergeAllIntoSolid,0
;   onlyRetractWhenCrossingOutline,1
;   retractBetweenLayers,1
;   useRetractionMinTravel,0
;   retractionMinTravel,3
;   retractWhileWiping,0
;   onlyWipeOutlines,1
;   avoidCrossingOutline,0
;   maxMovementDetourFactor,3
;   toolChangeRetractionDistance,12
;   toolChangeExtraRestartDistance,-0.5
;   toolChangeRetractionSpeed,600
;   externalThinWallType,1
;   internalThinWallType,1
;   thinWallAllowedOverlapPercentage,20
;   singleExtrusionMinLength,1
;   singleExtrusionMinPrintingWidthPercentage,50
;   singleExtrusionMaxPrintingWidthPercentage,200
;   singleExtrusionEndpointExtension,2
;   horizontalSizeCompensation,0
G90
M82
M106 S0
M140 S40
M190 S40
M104 S210 T0
M109 S210 T0
G28 ;Home
G1 E10 F240 ;Extrude 10MM fillament
G92 E0
G1 E-4.1000 F1800
G1 Z0.180 F1002
; process Process1
; layer 1, Z = 0.180
T0
; tool H0.200 W0.480
; skirt
G1 X88.929 Y102.790 F4800
G1 E0.0000 F540
G92 E0
G1 X89.194 Y102.680 E0.0114 F600
G1 X130.806 Y102.680 E1.6723
G1 X131.071 Y102.790 E1.6837
G1 X132.210 Y103.929 E1.7480
G1 X132.320 Y104.194 E1.7595
G1 X132.320 Y115.806 E2.2229
G1 X132.210 Y116.071 E2.2343
G1 X131.071 Y117.210 E2.2987
G1 X130.806 Y117.320 E2.3101
G1 X89.194 Y117.320 E3.9709
G1 X88.929 Y117.210 E3.9824
G1 X87.790 Y116.071 E4.0467
G1 X87.680 Y115.806 E4.0581
G1 X87.680 Y104.194 E4.5216
G1 X87.790 Y103.929 E4.5330
G1 X88.788 Y102.931 E4.5894
G1 X88.929 Y102.790 F600
G1 X89.201 Y103.197 F4800
G92 E0
G1 X89.290 Y103.160 E0.0038 F600
G1 X130.710 Y103.160 E1.6570
G1 X130.799 Y103.197 E1.6608
G1 X131.803 Y104.201 E1.7175
G1 X131.840 Y104.290 E1.7213
G1 X131.840 Y115.710 E2.1772
G1 X131.803 Y115.799 E2.1810
G1 X130.799 Y116.803 E2.2377
G1 X130.710 Y116.840 E2.2415
G1 X89.290 Y116.840 E3.8947
G1 X89.201 Y116.803 E3.8985
G1 X88.197 Y115.799 E3.9552
G1 X88.160 Y115.710 E3.9591
G1 X88.160 Y104.290 E4.4149
G1 X88.197 Y104.201 E4.4187
G1 X89.060 Y103.338 E4.4674
G1 X89.201 Y103.197 F600
G92 E0
G1 E-4.1000 F1800
; inner perimeter
G1 X91.200 Y106.200 F4800
G1 E0.0000 F1800
G92 E0
G1 X128.800 Y106.200 E1.5007 F450
G1 X128.800 Y113.800 E1.8040
G1 X91.200 Y113.800 E3.3047
G1 X91.200 Y106.400 E3.6001
G1 X91.200 Y106.200 F450
G1 X90.720 Y105.720 F4800
G92 E0
G1 X129.280 Y105.720 E1.5390 F450
G1 X129.280 Y114.280 E1.8807
G1 X90.720 Y114.280 E3.4197
G1 X90.720 Y105.920 E3.7533
G1 X90.720 Y105.720 F450
; outer perimeter
G1 X90.240 Y105.240 F4800
G92 E0
G1 X129.760 Y105.240 E1.5773 F300
G1 X129.760 Y114.760 E1.9573
G1 X90.240 Y114.760 E3.5346
G1 X90.240 Y105.440 E3.9066
G1 X90.240 Y105.240 F300
G1 X95.240 Y105.240 F1200
; solid layer
G1 X91.670 Y113.392 F4800
G92 E0
G1 X91.608 Y113.330 E0.0035 F480
G1 X91.608 Y112.651 E0.0306
G1 X92.349 Y113.392 E0.0724
G1 X93.027 Y113.392 E0.0995
G1 X91.608 Y111.973 E0.1796
G1 X91.608 Y111.294 E0.2067
G1 X93.706 Y113.392 E0.3251
G1 X94.385 Y113.392 E0.3522
G1 X91.608 Y110.615 E0.5089
G1 X91.608 Y109.936 E0.5360
G1 X95.064 Y113.392 E0.7311
G1 X95.743 Y113.392 E0.7582
G1 X91.608 Y109.257 E0.9916
G1 X91.608 Y108.579 E1.0187
G1 X96.421 Y113.392 E1.2904
G1 X97.100 Y113.392 E1.3174
G1 X91.608 Y107.900 E1.6275
G1 X91.608 Y107.221 E1.6545
G1 X97.779 Y113.392 E2.0029
G1 X98.458 Y113.392 E2.0300
G1 X91.674 Y106.608 E2.4129
G1 X92.353 Y106.608 E2.4400
G1 X99.137 Y113.392 E2.8229
G1 X99.816 Y113.392 E2.8500
G1 X93.032 Y106.608 E3.2329
G1 X93.710 Y106.608 E3.2600
G1 X100.494 Y113.392 E3.6429
G1 X101.173 Y113.392 E3.6700
G1 X94.389 Y106.608 E4.0529
G1 X95.068 Y106.608 E4.0800
G1 X101.852 Y113.392 E4.4629
G1 X102.531 Y113.392 E4.4900
G1 X95.747 Y106.608 E4.8729
G1 X96.426 Y106.608 E4.9000
G1 X103.210 Y113.392 E5.2830
G1 X103.889 Y113.392 E5.3101
G1 X97.105 Y106.608 E5.6930
G1 X97.783 Y106.608 E5.7201
G1 X104.567 Y113.392 E6.1030
G1 X105.246 Y113.392 E6.1301
G1 X98.462 Y106.608 E6.5130
G1 X99.141 Y106.608 E6.5401
G1 X105.925 Y113.392 E6.9230
G1 X106.604 Y113.392 E6.9501
G1 X99.820 Y106.608 E7.3330
G1 X100.499 Y106.608 E7.3601
G1 X107.283 Y113.392 E7.7430
G1 X107.961 Y113.392 E7.7701
G1 X101.177 Y106.608 E8.1530
G1 X101.856 Y106.608 E8.1801
G1 X108.640 Y113.392 E8.5631
G1 X109.319 Y113.392 E8.5901
G1 X102.535 Y106.608 E8.9731
G1 X103.214 Y106.608 E9.0002
G1 X109.998 Y113.392 E9.3831
G1 X110.677 Y113.392 E9.4102
G1 X103.893 Y106.608 E9.7931
G1 X104.572 Y106.608 E9.8202
G1 X111.356 Y113.392 E10.2031
G1 X112.034 Y113.392 E10.2302
G1 X105.250 Y106.608 E10.6131
G1 X105.929 Y106.608 E10.6402
G1 X112.713 Y113.392 E11.0231
G1 X113.392 Y113.392 E11.0502
G1 X106.608 Y106.608 E11.4331
G1 X107.287 Y106.608 E11.4602
G1 X114.071 Y113.392 E11.8431
G1 X114.750 Y113.392 E11.8702
G1 X107.966 Y106.608 E12.2532
G1 X108.644 Y106.608 E12.2803
G1 X115.428 Y113.392 E12.6632
G1 X116.107 Y113.392 E12.6903
G1 X109.323 Y106.608 E13.0732
G1 X110.002 Y106.608 E13.1003
G1 X116.786 Y113.392 E13.4832
G1 X117.465 Y113.392 E13.5103
G1 X110.681 Y106.608 E13.8932
G1 X111.360 Y106.608 E13.9203
G1 X118.144 Y113.392 E14.3032
G1 X118.823 Y113.392 E14.3303
G1 X112.039 Y106.608 E14.7132
G1 X112.717 Y106.608 E14.7403
G1 X119.501 Y113.392 E15.1232
G1 X120.180 Y113.392 E15.1503
G1 X113.396 Y106.608 E15.5332
G1 X114.075 Y106.608 E15.5603
G1 X120.859 Y113.392 E15.9433
G1 X121.538 Y113.392 E15.9704
G1 X114.754 Y106.608 E16.3533
G1 X115.433 Y106.608 E16.3804
G1 X122.217 Y113.392 E16.7633
G1 X122.896 Y113.392 E16.7904
G1 X116.112 Y106.608 E17.1733
G1 X116.790 Y106.608 E17.2004
G1 X123.574 Y113.392 E17.5833
G1 X124.253 Y113.392 E17.6104
G1 X117.469 Y106.608 E17.9933
G1 X118.148 Y106.608 E18.0204
G1 X124.932 Y113.392 E18.4033
G1 X125.611 Y113.392 E18.4304
G1 X118.827 Y106.608 E18.8133
G1 X119.506 Y106.608 E18.8404
G1 X126.290 Y113.392 E19.2234
G1 X126.968 Y113.392 E19.2504
G1 X120.184 Y106.608 E19.6334
G1 X120.863 Y106.608 E19.6605
G1 X127.647 Y113.392 E20.0434
G1 X128.326 Y113.392 E20.0705
G1 X121.542 Y106.608 E20.4534
G1 X122.221 Y106.608 E20.4805
G1 X128.392 Y112.779 E20.8288
G1 X128.392 Y112.100 E20.8559
G1 X122.900 Y106.608 E21.1659
G1 X123.579 Y106.608 E21.1930
G1 X128.392 Y111.421 E21.4647
G1 X128.392 Y110.743 E21.4918
G1 X124.257 Y106.608 E21.7252
G1 X124.936 Y106.608 E21.7522
G1 X128.392 Y110.064 E21.9473
G1 X128.392 Y109.385 E21.9744
G1 X125.615 Y106.608 E22.1311
G1 X126.294 Y106.608 E22.1582
G1 X128.392 Y108.706 E22.2767
G1 X128.392 Y108.027 E22.3038
G1 X126.973 Y106.608 E22.3839
G1 X127.652 Y106.608 E22.4110
G1 X128.392 Y107.348 E22.4528
G1 X128.392 Y106.782 E22.4753
G1 X128.392 Y106.670 F480
G1 X128.330 Y106.608 F480
G92 E0
G1 E-4.1000 F1800
; layer 2, Z = 0.380
M106 S255
; inner perimeter
G1 X128.800 Y106.200 F4800
G1 Z0.380 F1002
G1 E0.0000 F1800
G92 E0
G1 X128.800 Y113.800 E0.3033 F900
G1 X91.200 Y113.800 E1.8040
G1 X91.200 Y106.200 E2.1074
G1 X128.600 Y106.200 E3.6001
G1 X128.800 Y106.200 F900
G1 X129.280 Y105.720 F4800
G92 E0
G1 X129.280 Y114.280 E0.3416 F900
G1 X90.720 Y114.280 E1.8807
G1 X90.720 Y105.720 E2.2223
G1 X129.080 Y105.720 E3.7533
G1 X129.280 Y105.720 F900
; outer perimeter
G1 X129.760 Y105.240 F4800
G92 E0
G1 X129.760 Y114.760 E0.3800 F600
G1 X90.240 Y114.760 E1.9573
G1 X90.240 Y105.240 E2.3373
G1 X129.560 Y105.240 E3.9066
G1 X129.760 Y105.240 F600
G1 X129.760 Y110.240 F1200
; solid layer
G1 X128.392 Y113.330 F4800
G92 E0
G1 X128.330 Y113.392 E0.0035 F960
G1 X127.652 Y113.392 E0.0306
G1 X128.392 Y112.652 E0.0724
G1 X128.392 Y111.973 E0.0995
G1 X126.973 Y113.392 E0.1796
G1 X126.294 Y113.392 E0.2067
G1 X128.392 Y111.294 E0.3251
G1 X128.392 Y110.615 E0.3522
G1 X125.615 Y113.392 E0.5089
G1 X124.936 Y113.392 E0.5360
G1 X128.392 Y109.936 E0.7311
G1 X128.392 Y109.257 E0.7582
G1 X124.257 Y113.392 E0.9915
G1 X123.579 Y113.392 E1.0186
G1 X128.392 Y108.579 E1.2903
G1 X128.392 Y107.900 E1.3174
G1 X122.900 Y113.392 E1.6274
G1 X122.221 Y113.392 E1.6545
G1 X128.392 Y107.221 E2.0028
G1 X128.392 Y106.608 E2.0273
G1 X128.326 Y106.608 E2.0299
G1 X121.542 Y113.392 E2.4129
G1 X120.863 Y113.392 E2.4399
G1 X127.647 Y106.608 E2.8229
G1 X126.968 Y106.608 E2.8500
G1 X120.184 Y113.392 E3.2329
G1 X119.506 Y113.392 E3.2600
G1 X126.290 Y106.608 E3.6429
G1 X125.611 Y106.608 E3.6700
G1 X118.827 Y113.392 E4.0529
G1 X118.148 Y113.392 E4.0800
G1 X124.932 Y106.608 E4.4629
G1 X124.253 Y106.608 E4.4900
G1 X117.469 Y113.392 E4.8729
G1 X116.790 Y113.392 E4.9000
G1 X123.574 Y106.608 E5.2829
G1 X122.896 Y106.608 E5.3100
G1 X116.112 Y113.392 E5.6929
G1 X115.433 Y113.392 E5.7200
G1 X122.217 Y106.608 E6.1030
G1 X121.538 Y106.608 E6.1301
G1 X114.754 Y113.392 E6.5130
G1 X114.075 Y113.392 E6.5401
G1 X120.859 Y106.608 E6.9230
G1 X120.180 Y106.608 E6.9501
G1 X113.396 Y113.392 E7.3330
G1 X112.717 Y113.392 E7.3601
G1 X119.501 Y106.608 E7.7430
G1 X118.823 Y106.608 E7.7701
G1 X112.039 Y113.392 E8.1530
G1 X111.360 Y113.392 E8.1801
G1 X118.144 Y106.608 E8.5630
G1 X117.465 Y106.608 E8.5901
G1 X110.681 Y113.392 E8.9730
G1 X110.002 Y113.392 E9.0001
G1 X116.786 Y106.608 E9.3831
G1 X116.107 Y106.608 E9.4101
G1 X109.323 Y113.392 E9.7931
G1 X108.644 Y113.392 E9.8202
G1 X115.428 Y106.608 E10.2031
G1 X114.750 Y106.608 E10.2302
G1 X107.966 Y113.392 E10.6131
G1 X107.287 Y113.392 E10.6402
G1 X114.071 Y106.608 E11.0231
G1 X113.392 Y106.608 E11.0502
G1 X106.608 Y113.392 E11.4331
G1 X105.929 Y113.392 E11.4602
G1 X112.713 Y106.608 E11.8431
G1 X112.034 Y106.608 E11.8702
G1 X105.250 Y113.392 E12.2531
G1 X104.572 Y113.392 E12.2802
G1 X111.356 Y106.608 E12.6631
G1 X110.677 Y106.608 E12.6902
G1 X103.893 Y113.392 E13.0732
G1 X103.214 Y113.392 E13.1002
G1 X109.998 Y106.608 E13.4832
G1 X109.319 Y106.608 E13.5103
G1 X102.535 Y113.392 E13.8932
G1 X101.856 Y113.392 E13.9203
G1 X108.640 Y106.608 E14.3032
G1 X107.961 Y106.608 E14.3303
G1 X101.177 Y113.392 E14.7132
G1 X100.499 Y113.392 E14.7403
G1 X107.283 Y106.608 E15.1232
G1 X106.604 Y106.608 E15.1503
G1 X99.820 Y113.392 E15.5332
G1 X99.141 Y113.392 E15.5603
G1 X105.925 Y106.608 E15.9432
G1 X105.246 Y106.608 E15.9703
G1 X98.462 Y113.392 E16.3532
G1 X97.783 Y113.392 E16.3803
G1 X104.567 Y106.608 E16.7633
G1 X103.889 Y106.608 E16.7904
G1 X97.105 Y113.392 E17.1733
G1 X96.426 Y113.392 E17.2004
G1 X103.210 Y106.608 E17.5833
G1 X102.531 Y106.608 E17.6104
G1 X95.747 Y113.392 E17.9933
G1 X95.068 Y113.392 E18.0204
G1 X101.852 Y106.608 E18.4033
G1 X101.173 Y106.608 E18.4304
G1 X94.389 Y113.392 E18.8133
G1 X93.710 Y113.392 E18.8404
G1 X100.494 Y106.608 E19.2233
G1 X99.816 Y106.608 E19.2504
G1 X93.032 Y113.392 E19.6333
G1 X92.353 Y113.392 E19.6604
G1 X99.137 Y106.608 E20.0434
G1 X98.458 Y106.608 E20.0704
G1 X91.674 Y113.392 E20.4534
G1 X91.608 Y113.392 E20.4560
G1 X91.608 Y112.779 E20.4805
G1 X97.779 Y106.608 E20.8288
G1 X97.100 Y106.608 E20.8559
G1 X91.608 Y112.100 E21.1659
G1 X91.608 Y111.421 E21.1930
G1 X96.421 Y106.608 E21.4647
G1 X95.743 Y106.608 E21.4918
G1 X91.608 Y110.743 E21.7251
G1 X91.608 Y110.064 E21.7522
G1 X95.064 Y106.608 E21.9473
G1 X94.385 Y106.608 E21.9744
G1 X91.608 Y109.385 E22.1311
G1 X91.608 Y108.706 E22.1582
G1 X93.706 Y106.608 E22.2767
G1 X93.027 Y106.608 E22.3037
G1 X91.608 Y108.027 E22.3839
G1 X91.608 Y107.349 E22.4110
G1 X92.349 Y106.608 E22.4528
G1 X91.782 Y106.608 E22.4753
G1 X91.670 Y106.608 F960
G1 X91.608 Y106.670 F960
G92 E0
G1 E-4.1000 F1800
; layer 3, Z = 0.580
; inner perimeter
