; generated by PrusaSlicer 2.7.0+win64 on 2023-12-12 at 02:36:45 UTC

; 

; external perimeters extrusion width = 0.45mm
; perimeters extrusion width = 0.45mm
; infill extrusion width = 0.45mm
; solid infill extrusion width = 0.45mm
; top infill extrusion width = 0.40mm
; support material extrusion width = 0.35mm
; first layer extrusion width = 0.42mm

; external perimeters extrusion width = 0.45mm
; perimeters extrusion width = 0.45mm
; infill extrusion width = 0.45mm
; solid infill extrusion width = 0.45mm
; top infill extrusion width = 0.40mm
; support material extrusion width = 0.35mm
; first layer extrusion width = 0.42mm

M73 P0 R54
M190 S50 ; set bed temperature and wait for it to be reached
M104 S220 ; set temperature
;TYPE:Custom
START_PRINT EXTRUDER_TEMP=220 BED_TEMP=50 Z_OFFSET=0.1
M109 S220 ; set temperature and wait for it to be reached
G21 ; set units to millimeters
G90 ; use absolute coordinates
M83 ; use relative distances for extrusion
; Filament gcode
M107
;LAYER_CHANGE
;Z:0.3
;HEIGHT:0.3
;BEFORE_LAYER_CHANGE
G92 E0
;0.3


G10 ; retract
G1 Z.3 F7800
;AFTER_LAYER_CHANGE
;0.3
G1 X94.071 Y101.548
G11 ; unretract
;TYPE:Skirt/Brim
;WIDTH:0.42
G1 F1800
G1 X94.972 Y100.83 E.0511
G1 X104.162 Y94.453 E.49614
G1 X105.176 Y93.907 E.05108
G1 X106.341 Y93.409 E.0562
G1 X107.437 Y93.054 E.0511
G1 X108.672 Y92.772 E.05619
G1 X109.814 Y92.618 E.05111
G1 X111.079 Y92.562 E.05616
G1 X112.23 Y92.613 E.0511
G1 X113.485 Y92.784 E.05618
G1 X114.608 Y93.04 E.05109
G1 X115.812 Y93.432 E.05616
G1 X116.871 Y93.885 E.05109
G1 X117.986 Y94.485 E.05616
G1 X118.948 Y95.12 E.05113
G1 X119.938 Y95.909 E.05615
G1 X141.216 Y116.3 E1.30719
G1 X142.358 Y117.624 E.07755
G1 X142.9 Y118.457 E.04408
G1 X143.362 Y119.356 E.04483
G1 X143.989 Y121.198 E.08631
G1 X144.249 Y123.146 E.08717
G1 X144.123 Y125.102 E.08694
G1 X143.616 Y127.004 E.08731
G1 X142.751 Y128.766 E.08706
G1 X141.573 Y130.308 E.08607
G1 X140.104 Y131.606 E.08695
G1 X138.634 Y132.487 E.07601
G1 X137.484 Y132.962 E.05519
G1 X127.877 Y135.988 E.44675
G1 X126.676 Y136.201 E.0541
G1 X125.431 Y136.296 E.05538
G1 X124.211 Y136.27 E.05413
G1 X122.303 Y135.988 E.08555
G1 X120.61 Y135.475 E.07846
G1 X119.484 Y134.981 E.05454
G1 X96.395 Y123.51 E1.14353
G1 X95.188 Y122.807 E.06195
G1 X94.077 Y121.99 E.06117
G1 X93.368 Y121.366 E.04189
G1 X92.188 Y119.959 E.08145
G1 X91.063 Y118.129 E.09528
G1 X90.514 Y116.987 E.0562
G1 X90.109 Y115.909 E.05108
G1 X89.772 Y114.688 E.05618
G1 X89.567 Y113.555 E.05107
G1 X89.453 Y112.293 E.0562
G1 X89.453 Y111.141 E.0511
G1 X89.566 Y109.88 E.05616
G1 X89.772 Y108.746 E.05112
G1 X90.109 Y107.525 E.05618
G1 X90.513 Y106.447 E.05106
G1 X91.063 Y105.305 E.05622
G1 X91.654 Y104.316 E.0511
G1 X92.398 Y103.291 E.05618
G1 X93.156 Y102.424 E.05108
G1 X94.028 Y101.59 E.05352
G1 X94.273 Y101.846 F7800
G1 F1800
G1 X94.293 Y101.826 E.00125
G1 X95.193 Y101.108 E.05107
G1 X104.33 Y94.766 E.49333
G1 X105.345 Y94.22 E.05112
G1 X106.451 Y93.748 E.05334
G1 X107.547 Y93.392 E.05111
G1 X108.72 Y93.125 E.05336
G1 X109.861 Y92.97 E.05107
G1 X111.063 Y92.917 E.05337
G1 X112.214 Y92.969 E.0511
G1 X113.406 Y93.13 E.05335
G1 X114.529 Y93.387 E.0511
G1 X115.672 Y93.759 E.05332
G1 X116.731 Y94.212 E.05109
G1 X117.791 Y94.782 E.05338
G1 X118.752 Y95.416 E.05107
G1 X119.692 Y96.166 E.05334
G1 X140.97 Y116.557 E1.30719
G1 X142.073 Y117.837 E.07495
G1 X143.04 Y119.507 E.08559
G1 X143.644 Y121.284 E.08325
G1 X143.894 Y123.163 E.08408
G1 X143.772 Y125.05 E.08387
G1 X143.282 Y126.884 E.0842
G1 X142.446 Y128.583 E.08399
G1 X141.309 Y130.07 E.08303
G1 X139.891 Y131.321 E.08387
G1 X138.483 Y132.165 E.07281
G1 X137.364 Y132.627 E.0537
G1 X127.791 Y135.643 E.44518
G1 X126.623 Y135.849 E.05261
G1 X125.414 Y135.941 E.05378
G1 X124.228 Y135.915 E.05262
G1 X122.389 Y135.643 E.08246
G1 X120.729 Y135.14 E.07693
G1 X119.636 Y134.66 E.05295
G1 X96.553 Y123.192 E1.14324
G1 X95.388 Y122.513 E.05981
G1 X94.298 Y121.712 E.06
G1 X93.609 Y121.103 E.04079
G1 X92.487 Y119.768 E.07735
G1 X91.369 Y117.946 E.09482
G1 X90.847 Y116.862 E.05336
G1 X90.442 Y115.784 E.05108
G1 X90.122 Y114.624 E.05337
G1 X89.917 Y113.491 E.05107
G1 X89.809 Y112.293 E.05335
G1 X89.809 Y111.141 E.0511
G1 X89.916 Y109.943 E.05335
G1 X90.122 Y108.81 E.05108
G1 X90.442 Y107.65 E.05337
G1 X90.846 Y106.572 E.05106
G1 X91.368 Y105.488 E.05336
G1 X91.959 Y104.499 E.0511
G1 X92.666 Y103.525 E.05338
G1 X93.424 Y102.658 E.05108
G1 X94.229 Y101.887 E.04944
G1 X94.474 Y102.143 F7800
G1 F1800
G1 X94.515 Y102.104 E.00251
G1 X95.415 Y101.386 E.05107
G1 X104.498 Y95.079 E.49048
G1 X105.513 Y94.533 E.05112
G1 X106.561 Y94.086 E.05054
G1 X107.657 Y93.73 E.05111
G1 X108.767 Y93.477 E.0505
G1 X109.909 Y93.323 E.05111
G1 X111.047 Y93.272 E.05053
G1 X112.197 Y93.324 E.05106
G1 X113.326 Y93.477 E.05053
G1 X114.449 Y93.734 E.0511
G1 X115.533 Y94.086 E.05055
G1 X116.592 Y94.539 E.05109
G1 X117.595 Y95.079 E.05053
G1 X118.556 Y95.713 E.05107
G1 X119.446 Y96.423 E.0505
G1 X140.724 Y116.813 E1.30715
G1 X141.788 Y118.05 E.07237
G1 X142.718 Y119.658 E.08239
G1 X143.299 Y121.37 E.08019
G1 X143.538 Y123.18 E.08098
G1 X143.42 Y124.998 E.08081
G1 X142.947 Y126.764 E.08109
G1 X142.141 Y128.4 E.08089
G1 X141.045 Y129.832 E.07998
G1 X139.678 Y131.036 E.0808
G1 X138.332 Y131.843 E.06961
G1 X137.243 Y132.293 E.05226
G1 X127.705 Y135.298 E.44356
G1 X126.571 Y135.497 E.05107
G1 X125.396 Y135.586 E.05227
G1 X124.245 Y135.56 E.05107
G1 X122.476 Y135.298 E.07932
G1 X120.849 Y134.805 E.07541
G1 X119.788 Y134.338 E.05142
G1 X96.711 Y122.873 E1.14294
G1 X95.588 Y122.219 E.05764
G1 X94.519 Y121.433 E.05885
G1 X93.849 Y120.841 E.03966
G1 X92.787 Y119.576 E.07326
G1 X91.674 Y117.764 E.09432
G1 X91.18 Y116.738 E.05051
G1 X90.775 Y115.659 E.05112
G1 X90.472 Y114.561 E.05052
G1 X90.266 Y113.428 E.05108
G1 X90.164 Y112.293 E.05055
G1 X90.164 Y111.141 E.0511
G1 X90.266 Y110.007 E.0505
G1 X90.472 Y108.873 E.05112
G1 X90.775 Y107.775 E.05052
G1 X91.179 Y106.697 E.05106
G1 X91.674 Y105.67 E.05057
G1 X92.264 Y104.681 E.05108
G1 X92.934 Y103.759 E.05055
G1 X93.691 Y102.892 E.05105
G1 X94.431 Y102.184 E.04543
G10 ; retract
G1 X94.431 Y102.184 F7800
G1 X130.959 Y123.808
G11 ; unretract
;TYPE:Perimeter
;WIDTH:0.634165
G1 F1800
G1 X131.002 Y123.932 E.00933
;WIDTH:0.596257
G1 X131.115 Y124.222 E.02065
;WIDTH:0.559228
G1 X131.227 Y124.512 E.01919
;WIDTH:0.5222
G1 X131.434 Y124.795 E.02002
G1 X131.05 Y124.842 E.02209
G1 X130.691 Y124.938 E.02122
G1 X130.861 Y124.3 E.0377
;WIDTH:0.559521
G1 X130.894 Y124.136 E.01033
;WIDTH:0.596843
G1 X130.926 Y123.972 E.0111
;WIDTH:0.634165
G1 X130.947 Y123.867 E.00761
G10 ; retract
G1 X130.947 Y123.867 F7800
G1 X129.969 Y125.673
G11 ; unretract
;TYPE:External perimeter
;WIDTH:0.522051
G1 F1800
G1 X129.71 Y126.209 E.03398
G1 X129.462 Y126.646 E.02868
G1 X129.14 Y127.061 E.02998
G1 X128.81 Y127.443 E.02882
G1 X128.413 Y127.788 E.03002
G1 X128.016 Y128.098 E.02875
G1 X127.56 Y128.358 E.02996
G1 X127.109 Y128.585 E.02882
;WIDTH:0.521433
G1 X126.611 Y128.751 E.02992
G1 X126.125 Y128.885 E.02874
;WIDTH:0.522281
G1 X125.603 Y128.952 E.03006
G1 X125.101 Y128.988 E.02874
G1 X124.577 Y128.952 E.03
G1 X124.076 Y128.889 E.02884
;WIDTH:0.521429
G1 X123.569 Y128.751 E.02995
G1 X123.091 Y128.593 E.0287
;WIDTH:0.522111
G1 X122.62 Y128.358 E.03005
G1 X122.182 Y128.109 E.02876
G1 X121.767 Y127.788 E.02995
G1 X121.385 Y127.458 E.02882
G1 X121.04 Y127.061 E.03003
G1 X120.73 Y126.664 E.02876
G1 X120.47 Y126.208 E.02997
G1 X120.243 Y125.756 E.02888
;WIDTH:0.521433
G1 X120.077 Y125.259 E.02987
G1 X119.943 Y124.773 E.02874
;WIDTH:0.521785
G1 X119.876 Y124.251 E.03002
G1 X119.839 Y123.748 E.02877
G1 X119.876 Y123.225 E.02991
G1 X119.939 Y122.724 E.02881
;WIDTH:0.521433
G1 X120.077 Y122.217 E.02995
G1 X120.235 Y121.739 E.0287
;WIDTH:0.522111
G1 X120.47 Y121.268 E.03005
G1 X120.719 Y120.829 E.02881
G1 X121.04 Y120.415 E.02991
G1 X121.37 Y120.033 E.02882
G1 X121.767 Y119.688 E.03003
G1 X122.164 Y119.378 E.02876
G1 X122.62 Y119.117 E.03
G1 X123.072 Y118.891 E.02885
;WIDTH:0.521431
G1 X123.569 Y118.725 E.02987
G1 X124.055 Y118.59 E.02875
;WIDTH:0.521625
G1 X124.577 Y118.524 E.03001
G1 X125.097 Y118.487 E.02973
;WIDTH:0.522239
G1 X125.603 Y118.524 E.02897
G1 X126.104 Y118.586 E.02883
;WIDTH:0.521433
G1 X126.611 Y118.725 E.02997
G1 X127.089 Y118.883 E.0287
;WIDTH:0.522109
G1 X127.56 Y119.117 E.03003
G1 X127.999 Y119.366 E.02881
G1 X128.413 Y119.688 E.02994
G1 X128.795 Y120.018 E.02882
G1 X129.14 Y120.415 E.03003
G1 X129.45 Y120.812 E.02876
;WIDTH:0.516549
G1 X129.776 Y121.395 E.03767
;WIDTH:0.519873
G1 X129.792 Y121.423 E.00183
G1 X131.361 Y122.281 F7800
;TYPE:Perimeter
;WIDTH:0.535252
G1 F1800
G1 X131.29 Y122.378 E.00706
G1 X131.189 Y122.636 E.01627
;WIDTH:0.505912
G1 X131.158 Y122.823 E.01044
;WIDTH:0.458228
G1 X131.128 Y123.011 E.00935
;WIDTH:0.410545
G1 X131.098 Y123.199 E.00822
;WIDTH:0.40752
G1 X131.074 Y123.279 E.00357
;WIDTH:0.452179
G1 X131.051 Y123.359 E.00403
;WIDTH:0.496837
G1 X131.028 Y123.439 E.00449
;WIDTH:0.541496
G1 X131.005 Y123.519 E.00495
;WIDTH:0.586154
G1 X130.982 Y123.599 E.00542
;WIDTH:0.630813
G1 X130.958 Y123.68 E.00597
G1 X130.932 Y123.614 E.00501
;WIDTH:0.585651
G1 X130.906 Y123.549 E.00455
;WIDTH:0.54049
G1 X130.88 Y123.483 E.00421
;WIDTH:0.495329
G1 X130.854 Y123.418 E.00376
;WIDTH:0.450167
G1 X130.828 Y123.353 E.00337
;WIDTH:0.405006
G1 X130.802 Y123.287 E.00301
;WIDTH:0.374319
G1 X130.796 Y123.127 E.00619
;WIDTH:0.418183
G1 X130.785 Y122.954 E.00765
;WIDTH:0.462047
G1 X130.774 Y122.782 E.00855
;WIDTH:0.505912
G1 X130.763 Y122.609 E.00955
;WIDTH:0.535252
G1 X130.599 Y122.131 E.02968
G1 X130.827 Y122.201 E.01401
G1 X131.302 Y122.272 E.02821
G1 X132.094 Y121.885 F7800
;TYPE:External perimeter
;WIDTH:0.540829
G1 F1800
G1 X132.538 Y121.41 E.03864
;WIDTH:0.525603
G1 X132.974 Y121.119 E.03015
G1 X133.461 Y120.917 E.03033
;WIDTH:0.525787
G1 X133.977 Y120.815 E.03027
;WIDTH:0.526083
G1 X134.503 Y120.815 E.03029
G1 X135.02 Y120.917 E.03035
;WIDTH:0.525605
G1 X135.507 Y121.119 E.03033
G1 X135.944 Y121.411 E.03023
;WIDTH:0.524673
G1 X136.317 Y121.784 E.03028
;WIDTH:0.525603
G1 X136.609 Y122.221 E.03023
G1 X136.811 Y122.708 E.03033
;WIDTH:0.525859
G1 X136.913 Y123.225 E.03033
G1 X136.913 Y123.751 E.03028
G1 X136.811 Y124.267 E.03027
;WIDTH:0.525603
G1 X136.609 Y124.754 E.03033
G1 X136.317 Y125.192 E.03028
;WIDTH:0.524669
G1 X135.944 Y125.564 E.03024
;WIDTH:0.525605
G1 X135.507 Y125.857 E.03027
G1 X135.02 Y126.058 E.03031
;WIDTH:0.525861
G1 X134.503 Y126.161 E.03034
G1 X133.977 Y126.161 E.03028
G1 X133.461 Y126.058 E.03029
;WIDTH:0.525605
G1 X132.974 Y125.857 E.03031
G1 X132.537 Y125.564 E.03027
;WIDTH:0.542379
G1 X132.137 Y125.15 E.03432
G10 ; retract
G1 X132.137 Y125.15 F7800
G1 X132.041 Y121.986
G11 ; unretract
;WIDTH:0.50536
G1 F1800
G1 X131.989 Y122.087 E.00625
;WIDTH:0.469891
G1 X131.568 Y122.76 E.04015
;WIDTH:0.42
G1 X131.423 Y123.284 E.02412
G1 X131.427 Y123.802 E.02298
G1 X131.609 Y124.359 E.02599
G1 X131.924 Y124.761 E.02265
;WIDTH:0.460793
G1 X131.995 Y124.891 E.00732
;WIDTH:0.501586
G1 X132.066 Y125.021 E.00808
;WIDTH:0.542379
G1 X132.137 Y125.15 E.00878
G1 X132.04 Y125.135 E.00585
;WIDTH:0.503435
G1 X131.943 Y125.12 E.00537
;WIDTH:0.464491
G1 X131.757 Y125.165 E.00955
;WIDTH:0.42
G1 X131.099 Y125.245 E.0294
G1 X130.761 Y125.347 E.01566
;WIDTH:0.462043
G1 X130.096 Y125.578 E.03492
;WIDTH:0.498683
G1 X129.969 Y125.673 E.00859
G1 X130.023 Y125.468 E.01148
;WIDTH:0.459341
G1 X130.076 Y125.263 E.01043
;WIDTH:0.42
G1 X130.313 Y124.796 E.02323
G1 X130.456 Y124.266 E.02435
G1 X130.498 Y123.703 E.02504
G1 X130.47 Y123.191 E.02274
G1 X130.362 Y122.653 E.02434
G1 X130.172 Y122.175 E.02282
;WIDTH:0.439613
G1 X129.905 Y121.718 E.02477
;WIDTH:0.479743
G1 X129.849 Y121.571 E.00815
;WIDTH:0.519873
G1 X129.792 Y121.423 E.00901
G1 X129.931 Y121.469 E.00832
;WIDTH:0.479743
G1 X130.069 Y121.516 E.00755
;WIDTH:0.439613
G1 X130.858 Y121.784 E.039
;WIDTH:0.42
G1 X131.381 Y121.868 E.02349
;WIDTH:0.469891
G1 X131.911 Y121.922 E.02694
;WIDTH:0.50536
G1 X132.003 Y121.904 E.00516
;WIDTH:0.540829
G1 X132.094 Y121.885 E.00552
G1 X132.069 Y121.933 E.00322
G1 X131.867 Y122.278 F7800
G10 ; retract
G1 X111.466 Y99.653
G11 ; unretract
;TYPE:Support material
;WIDTH:0.42
G1 F1800
G1 X111.911 Y99.673 E.01976
G1 X113.034 Y99.93 E.0511
G1 X114.093 Y100.383 E.05109
G1 X115.054 Y101.017 E.05107
G1 X115.887 Y101.813 E.0511
G1 X116.564 Y102.745 E.05109
G1 X117.064 Y103.782 E.05106
G1 X117.37 Y104.893 E.05111
G1 X117.474 Y106.04 E.05108
G1 X117.371 Y107.187 E.05108
G1 X117.065 Y108.298 E.05111
G1 X116.566 Y109.336 E.05108
G1 X115.889 Y110.268 E.05109
G1 X115.364 Y110.771 E.03225
G1 X115.885 Y111.115 E.02769
G1 X116.718 Y111.911 E.0511
G1 X117.395 Y112.843 E.05109
G1 X117.895 Y113.882 E.05114
G1 X118.202 Y114.993 E.05112
G1 X118.305 Y116.141 E.05112
G1 X118.201 Y117.288 E.05108
G1 X117.895 Y118.399 E.05111
G1 X117.394 Y119.437 E.05112
G1 X116.717 Y120.369 E.05109
G1 X115.884 Y121.165 E.0511
G1 X114.922 Y121.8 E.05113
G1 X113.863 Y122.253 E.05109
G1 X112.739 Y122.509 E.05113
G1 X111.588 Y122.56 E.0511
G1 X110.447 Y122.405 E.05107
G1 X109.351 Y122.049 E.05111
G1 X108.337 Y121.503 E.05108
G1 X107.436 Y120.785 E.0511
G1 X106.678 Y119.918 E.05108
G1 X106.087 Y118.929 E.0511
G1 X105.632 Y117.571 E.06352
G1 X106.42 Y117.034 E.0423
G1 X107.222 Y116.292 E.04846
G1 X106.932 Y115.584 E.03394
G1 X104.852 Y115.584 E.09226
G1 X103.48 Y116.161 E.06602
G1 X102.437 Y116.308 E.04672
G1 X101.734 Y116.266 E.03124
G1 X101.048 Y116.112 E.03118
G1 X99.846 Y115.584 E.05823
G1 X97.8 Y115.584 E.09075
G1 X97.13 Y114.505 E.05633
G1 X96.726 Y113.426 E.0511
G1 X96.52 Y112.293 E.05108
G1 X96.52 Y111.141 E.0511
G1 X96.725 Y110.007 E.05111
G1 X97.13 Y108.929 E.05108
G1 X97.721 Y107.94 E.0511
G1 X98.479 Y107.072 E.05111
G1 X99.379 Y106.354 E.05107
G1 X100.393 Y105.807 E.0511
G1 X101.489 Y105.451 E.05111
G1 X102.631 Y105.296 E.05112
G1 X103.782 Y105.347 E.0511
G1 X104.632 Y105.541 E.03867
G1 X104.852 Y104.33 E.05459
G1 X105.257 Y103.251 E.05112
G1 X105.849 Y102.262 E.05113
G1 X106.607 Y101.395 E.05108
G1 X107.508 Y100.677 E.0511
G1 X108.523 Y100.131 E.05112
G1 X109.619 Y99.776 E.0511
G1 X110.76 Y99.621 E.05107
G1 X111.413 Y99.651 E.02899
G1 X117.723 Y118.387 F7800
G1 F1800
G1 X117.723 Y114.46 E.17418
G1 X117.328 Y113.441 E.04847
G1 X117.328 Y118.839 E.23943
G1 X116.932 Y119.528 E.03525
G1 X116.932 Y112.751 E.30059
G1 X116.537 Y112.207 E.02982
G1 X116.537 Y120.072 E.34885
G1 X116.142 Y120.476 E.02506
G1 X116.142 Y111.803 E.38469
G1 X115.747 Y111.426 E.02422
G1 X115.747 Y120.854 E.41818
G1 X115.352 Y121.133 E.02145
G1 X115.352 Y110.955 E.45144
G1 X116.932 Y108.177 F7800
G1 F1800
G1 X116.932 Y104.509 E.16269
G1 X116.763 Y103.895 E.02825
G1 X116.537 Y103.427 E.02305
G1 X116.537 Y108.656 E.23193
G1 X116.142 Y109.374 E.03635
G1 X116.142 Y102.709 E.29562
G1 X115.747 Y102.165 E.02982
G1 X115.747 Y109.919 E.34393
G1 X115.352 Y110.339 E.02557
G1 X115.352 Y101.745 E.38119
G1 X114.957 Y101.367 E.02425
G1 X114.957 Y121.394 E.88829
G1 X114.562 Y121.606 E.01988
G1 X114.562 Y101.075 E.91065
G1 X114.166 Y100.815 E.02101
G1 X114.166 Y121.775 E.92968
G1 X113.771 Y121.944 E.01906
G1 X113.771 Y100.593 E.94702
G1 X113.376 Y100.424 E.01906
G1 X113.376 Y122.035 E.95855
G1 X112.981 Y122.125 E.01797
G1 X112.981 Y100.255 E.97004
G1 X112.586 Y100.156 E.01806
G1 X112.586 Y122.195 E.97754
G1 X112.191 Y122.213 E.01754
G1 X112.191 Y100.065 E.98237
G1 X111.796 Y99.988 E.01785
M73 P1 R54
G1 X111.796 Y122.231 E.98658
G1 X111.401 Y122.212 E.01754
G1 X111.401 Y99.971 E.9865
G1 X111.005 Y99.953 E.01758
G1 X111.005 Y122.158 E.9849
G1 X110.61 Y122.105 E.01768
G1 X110.61 Y99.964 E.98206
G1 X110.215 Y100.018 E.01768
G1 X110.215 Y121.994 E.97474
G1 X109.82 Y121.865 E.01843
G1 X109.82 Y100.071 E.96667
G1 X109.425 Y100.175 E.01812
G1 X109.425 Y121.725 E.95585
G1 X109.03 Y121.513 E.01988
G1 X109.03 Y100.303 E.94077
G1 X108.635 Y100.434 E.01846
G1 X108.635 Y121.3 E.92551
G1 X108.239 Y121.016 E.02161
G1 X108.239 Y100.647 E.90346
G1 X107.844 Y100.859 E.01988
G1 X107.844 Y120.701 E.88009
G1 X107.449 Y120.314 E.02453
G1 X107.449 Y101.133 E.85077
