; generated by PrusaSlicer 2.7.0+win64 on 2023-12-11 at 00:58:25 UTC

; 

; external perimeters extrusion width = 0.45mm
; perimeters extrusion width = 0.45mm
; infill extrusion width = 0.45mm
; solid infill extrusion width = 0.45mm
; top infill extrusion width = 0.40mm
; support material extrusion width = 0.35mm
; first layer extrusion width = 0.42mm

; external perimeters extrusion width = 0.45mm
; perimeters extrusion width = 0.45mm
; infill extrusion width = 0.45mm
; solid infill extrusion width = 0.45mm
; top infill extrusion width = 0.40mm
; support material extrusion width = 0.35mm
; first layer extrusion width = 0.42mm

; external perimeters extrusion width = 0.45mm
; perimeters extrusion width = 0.45mm
; infill extrusion width = 0.45mm
; solid infill extrusion width = 0.45mm
; top infill extrusion width = 0.40mm
; support material extrusion width = 0.35mm
; first layer extrusion width = 0.42mm

; external perimeters extrusion width = 0.45mm
; perimeters extrusion width = 0.45mm
; infill extrusion width = 0.45mm
; solid infill extrusion width = 0.45mm
; top infill extrusion width = 0.40mm
; support material extrusion width = 0.35mm
; first layer extrusion width = 0.42mm

M73 P0 R48
M190 S50 ; set bed temperature and wait for it to be reached
M104 S220 ; set temperature
;TYPE:Custom
START_PRINT EXTRUDER_TEMP=220 BED_TEMP=50 Z_OFFSET=0.1
M109 S220 ; set temperature and wait for it to be reached
G21 ; set units to millimeters
G90 ; use absolute coordinates
M83 ; use relative distances for extrusion
; Filament gcode
M107
;LAYER_CHANGE
;Z:0.3
;HEIGHT:0.3
;BEFORE_LAYER_CHANGE
G92 E0
;0.3


G10 ; retract
G1 Z.3 F7800
;AFTER_LAYER_CHANGE
;0.3
G1 X91.653 Y97.022
G11 ; unretract
;TYPE:Skirt/Brim
;WIDTH:0.42
G1 F1800
G1 X92.625 Y96.256 E.05489
G1 X93.664 Y95.591 E.05472
G1 X94.785 Y95.023 E.05574
G1 X95.916 Y94.583 E.05383
G1 X97.107 Y94.249 E.05486
G1 X98.316 Y94.034 E.05447
G1 X99.902 Y93.93 E.0705
G1 X123.838 Y93.938 E1.06168
G1 X125.083 Y94.034 E.05539
G1 X126.27 Y94.244 E.05347
G1 X135.285 Y96.585 E.41312
G1 X136.78 Y97.125 E.0705
G1 X137.923 Y97.734 E.05744
G1 X139.468 Y98.914 E.08623
G1 X140.766 Y100.383 E.08695
G1 X141.646 Y101.852 E.07595
G1 X142.122 Y103.003 E.05525
G1 X142.396 Y103.957 E.04403
G1 X142.656 Y105.905 E.08717
G1 X142.656 Y123.595 E.78464
G1 X142.531 Y124.868 E.05674
G1 X142.122 Y126.497 E.0745
G1 X141.307 Y128.284 E.08712
G1 X140.593 Y129.349 E.05687
G1 X139.468 Y130.586 E.07416
G1 X138.511 Y131.372 E.05493
G1 X137.678 Y131.913 E.04406
G1 X136.164 Y132.63 E.0743
G1 X127.248 Y135.497 E.41541
G1 X125.617 Y135.886 E.07437
G1 X124.377 Y136.036 E.0554
G1 X99.023 Y136.036 E1.12457
G1 X97.116 Y135.753 E.08551
G1 X95.422 Y135.24 E.07851
G1 X93.672 Y134.413 E.08585
G1 X92.205 Y133.432 E.07828
G1 X91.264 Y132.626 E.05496
G1 X89.973 Y131.201 E.08529
G1 X89.279 Y130.21 E.05366
G1 X88.659 Y129.109 E.05605
G1 X88.169 Y127.992 E.0541
G1 X87.788 Y126.829 E.05428
G1 X87.523 Y125.638 E.05412
G1 X87.37 Y124.383 E.05608
G1 X87.336 Y106.497 E.79333
G1 X87.438 Y104.926 E.06983
G1 X87.784 Y103.186 E.07869
G1 X88.423 Y101.393 E.08443
G1 X88.986 Y100.279 E.05536
G1 X89.973 Y98.799 E.0789
G1 X90.776 Y97.863 E.0547
G1 X91.61 Y97.063 E.05126
G1 X91.856 Y97.32 F7800
G1 F1800
G1 X91.892 Y97.285 E.00223
G1 X92.838 Y96.541 E.05338
G1 X93.848 Y95.896 E.05315
G1 X94.936 Y95.345 E.05409
G1 X96.036 Y94.918 E.05234
G1 X97.194 Y94.594 E.05334
G1 X98.369 Y94.385 E.05293
G1 X99.902 Y94.285 E.06814
G1 X123.821 Y94.293 E1.06092
G1 X125.031 Y94.385 E.05382
G1 X126.184 Y94.589 E.05194
G1 X135.195 Y96.929 E.41294
G1 X136.628 Y97.446 E.06757
G1 X137.74 Y98.039 E.0559
G1 X139.229 Y99.178 E.08315
G1 X140.481 Y100.596 E.0839
G1 X141.325 Y102.003 E.07277
G1 X141.787 Y103.123 E.05374
G1 X142.051 Y104.043 E.04245
G1 X142.301 Y105.922 E.08408
G1 X142.301 Y123.578 E.78313
G1 X142.179 Y124.816 E.05518
G1 X141.787 Y126.377 E.07139
G1 X141.002 Y128.101 E.08402
G1 X140.308 Y129.136 E.05527
G1 X139.229 Y130.322 E.07112
G1 X138.298 Y131.087 E.05345
G1 X137.495 Y131.608 E.04246
G1 X136.044 Y132.295 E.07121
G1 X127.139 Y135.159 E.4149
G1 X125.565 Y135.535 E.07178
G1 X124.36 Y135.681 E.05384
G1 X99.04 Y135.681 E1.12306
G1 X97.202 Y135.408 E.08242
G1 X95.542 Y134.905 E.07693
G1 X93.855 Y134.108 E.08276
G1 X92.417 Y133.147 E.07671
G1 X91.503 Y132.362 E.05344
G1 X90.259 Y130.989 E.08218
G1 X89.584 Y130.027 E.05213
G1 X88.981 Y128.958 E.05444
G1 X88.503 Y127.872 E.05263
G1 X88.133 Y126.743 E.0527
G1 X87.874 Y125.585 E.05263
G1 X87.725 Y124.366 E.05447
G1 X87.691 Y106.497 E.79258
G1 X87.79 Y104.978 E.06752
G1 X88.129 Y103.272 E.07715
G1 X88.745 Y101.544 E.08137
G1 X89.291 Y100.462 E.05376
G1 X90.259 Y99.011 E.07737
G1 X91.039 Y98.102 E.05313
G1 X91.812 Y97.361 E.0475
G1 X92.05 Y97.637 F7800
G1 F1800
G1 X92.617 Y97.148 E.03321
G1 X93.563 Y96.483 E.05129
G1 X94.6 Y95.896 E.05285
G1 X95.654 Y95.432 E.05108
G1 X96.75 Y95.072 E.05117
G1 X98.422 Y94.737 E.07564
G1 X99.902 Y94.641 E.06578
G1 X123.804 Y94.648 E1.06017
G1 X124.978 Y94.737 E.05222
G1 X126.098 Y94.934 E.05044
G1 X135.105 Y97.273 E.41275
G1 X136.477 Y97.768 E.06469
G1 X138.076 Y98.692 E.08191
G1 X139.452 Y99.903 E.0813
G1 X140.548 Y101.334 E.07995
G1 X141.126 Y102.417 E.05445
G1 X141.706 Y104.129 E.08017
G1 X141.946 Y105.939 E.08098
G1 X141.932 Y123.846 E.79426
G1 X141.706 Y125.371 E.06838
G1 X141.354 Y126.53 E.05373
G1 X140.697 Y127.918 E.06811
G1 X139.646 Y129.382 E.07994
G1 X138.991 Y130.058 E.04175
G1 X138.086 Y130.801 E.05194
G1 X137.312 Y131.303 E.04092
G1 X135.924 Y131.96 E.06811
G1 X127.031 Y134.82 E.41434
G1 X125.512 Y135.183 E.06927
G1 X124.343 Y135.326 E.05224
G1 X99.057 Y135.326 E1.12156
G1 X97.288 Y135.063 E.07933
G1 X96.176 Y134.754 E.05119
G1 X95.088 Y134.334 E.05173
G1 X93.575 Y133.525 E.0761
G1 X92.142 Y132.462 E.07914
G1 X91.307 Y131.664 E.05123
G1 X90.545 Y130.778 E.05183
G1 X89.889 Y129.843 E.05066
G1 X89.302 Y128.806 E.05285
G1 X88.659 Y127.25 E.07468
G1 X88.346 Y126.132 E.0515
G1 X88.144 Y124.992 E.05135
G1 X88.054 Y123.81 E.05258
G1 X88.047 Y106.497 E.76791
G1 X88.142 Y105.03 E.0652
G1 X88.474 Y103.358 E.07561
G1 X89.067 Y101.695 E.07831
G1 X89.877 Y100.176 E.07636
G1 X90.944 Y98.736 E.07949
G1 X91.732 Y97.911 E.0506
G1 X92.005 Y97.676 E.01598
G10 ; retract
G1 X92.005 Y97.676 F7800
G1 X129.366 Y123.574
G11 ; unretract
;TYPE:Perimeter
;WIDTH:0.634165
G1 F1800
G1 X129.41 Y123.698 E.00935
;WIDTH:0.596257
G1 X129.522 Y123.987 E.02056
;WIDTH:0.559228
G1 X129.634 Y124.277 E.01919
;WIDTH:0.5222
G1 X129.841 Y124.561 E.02007
G1 X129.457 Y124.607 E.02208
G1 X129.099 Y124.704 E.02118
G1 X129.269 Y124.065 E.03776
;WIDTH:0.559521
G1 X129.301 Y123.901 E.01032
;WIDTH:0.596843
G1 X129.334 Y123.738 E.01104
;WIDTH:0.634165
G1 X129.354 Y123.632 E.00767
G10 ; retract
G1 X129.354 Y123.632 F7800
G1 X128.377 Y125.439
G11 ; unretract
;TYPE:External perimeter
;WIDTH:0.522051
G1 F1800
G1 X128.117 Y125.974 E.03395
G1 X127.869 Y126.412 E.02873
G1 X127.547 Y126.827 E.02998
G1 X127.218 Y127.209 E.02878
G1 X126.821 Y127.553 E.02999
G1 X126.423 Y127.863 E.0288
G1 X125.967 Y128.124 E.02999
G1 X125.516 Y128.351 E.02882
;WIDTH:0.521433
G1 X125.019 Y128.517 E.02987
G1 X124.532 Y128.651 E.02879
;WIDTH:0.522281
G1 X124.011 Y128.717 E.02999
G1 X123.508 Y128.754 E.0288
G1 X122.984 Y128.717 E.03
G1 X122.483 Y128.655 E.02883
;WIDTH:0.521429
G1 X121.976 Y128.517 E.02995
G1 X121.498 Y128.359 E.0287
;WIDTH:0.522111
G1 X121.028 Y128.124 E.03
G1 X120.589 Y127.875 E.02881
G1 X120.174 Y127.554 E.02995
G1 X119.792 Y127.224 E.02882
G1 X119.447 Y126.827 E.03003
G1 X119.138 Y126.429 E.02877
G1 X118.877 Y125.973 E.03
G1 X118.65 Y125.522 E.02883
;WIDTH:0.521433
G1 X118.484 Y125.025 E.02987
G1 X118.35 Y124.538 E.02879
;WIDTH:0.521785
G1 X118.283 Y124.017 E.02997
G1 X118.246 Y123.514 E.02877
G1 X118.283 Y122.99 E.02997
G1 X118.346 Y122.489 E.02881
;WIDTH:0.521433
G1 X118.484 Y121.982 E.02995
G1 X118.642 Y121.504 E.0287
;WIDTH:0.522111
G1 X118.877 Y121.034 E.03
G1 X119.126 Y120.595 E.02881
G1 X119.447 Y120.18 E.02995
G1 X119.777 Y119.798 E.02882
G1 X120.174 Y119.453 E.03003
G1 X120.572 Y119.144 E.02877
G1 X121.028 Y118.883 E.03
G1 X121.479 Y118.656 E.02883
;WIDTH:0.521431
G1 X121.976 Y118.49 E.02987
G1 X122.463 Y118.356 E.02879
;WIDTH:0.521625
G1 X122.984 Y118.289 E.02996
G1 X123.504 Y118.253 E.02973
;WIDTH:0.522239
G1 X124.011 Y118.29 E.02903
G1 X124.512 Y118.352 E.02883
;WIDTH:0.521433
G1 X125.019 Y118.49 E.02995
G1 X125.497 Y118.648 E.0287
;WIDTH:0.522109
G1 X125.967 Y118.883 E.03
G1 X126.406 Y119.132 E.02881
G1 X126.821 Y119.453 E.02995
G1 X127.203 Y119.783 E.02882
G1 X127.547 Y120.18 E.02999
G1 X127.857 Y120.578 E.0288
;WIDTH:0.516549
G1 X128.183 Y121.161 E.03767
;WIDTH:0.519873
G1 X128.2 Y121.189 E.00186
G1 X129.769 Y122.047 F7800
;TYPE:Perimeter
;WIDTH:0.535252
G1 F1800
G1 X129.697 Y122.143 E.00705
G1 X129.596 Y122.401 E.01627
;WIDTH:0.505912
G1 X129.566 Y122.589 E.01048
;WIDTH:0.458228
G1 X129.535 Y122.777 E.00936
;WIDTH:0.410545
G1 X129.505 Y122.965 E.00822
;WIDTH:0.40752
G1 X129.482 Y123.045 E.00356
;WIDTH:0.452179
G1 X129.458 Y123.125 E.00404
;WIDTH:0.496837
G1 X129.435 Y123.205 E.00449
;WIDTH:0.541496
G1 X129.412 Y123.285 E.00495
;WIDTH:0.586154
G1 X129.389 Y123.365 E.00542
;WIDTH:0.630813
G1 X129.366 Y123.445 E.00588
G1 X129.34 Y123.38 E.00495
;WIDTH:0.585651
G1 X129.314 Y123.315 E.00455
;WIDTH:0.54049
G1 X129.288 Y123.249 E.00421
;WIDTH:0.495329
G1 X129.262 Y123.184 E.00376
;WIDTH:0.450167
G1 X129.236 Y123.118 E.00341
;WIDTH:0.405006
G1 X129.21 Y123.053 E.00297
;WIDTH:0.374319
G1 X129.204 Y122.893 E.00619
;WIDTH:0.418183
G1 X129.192 Y122.72 E.00765
;WIDTH:0.462047
G1 X129.181 Y122.547 E.0086
;WIDTH:0.505912
G1 X129.17 Y122.375 E.00949
;WIDTH:0.535252
G1 X129.007 Y121.897 E.02966
G1 X129.234 Y121.966 E.01393
G1 X129.709 Y122.038 E.02822
G1 X130.501 Y121.65 F7800
;TYPE:External perimeter
;WIDTH:0.540829
G1 F1800
G1 X130.946 Y121.176 E.03864
;WIDTH:0.525603
G1 X131.381 Y120.884 E.03014
G1 X131.868 Y120.683 E.03031
;WIDTH:0.525787
G1 X132.384 Y120.58 E.03028
;WIDTH:0.526083
G1 X132.91 Y120.58 E.03029
G1 X133.427 Y120.683 E.03036
;WIDTH:0.525605
G1 X133.914 Y120.884 E.03031
G1 X134.351 Y121.177 E.03027
;WIDTH:0.524673
G1 X134.724 Y121.55 E.03028
;WIDTH:0.525603
G1 X135.017 Y121.987 E.03027
G1 X135.218 Y122.474 E.03031
;WIDTH:0.525859
G1 X135.321 Y122.99 E.03029
G1 X135.321 Y123.517 E.03033
G1 X135.218 Y124.033 E.03029
;WIDTH:0.525603
G1 X135.017 Y124.52 E.03031
G1 X134.724 Y124.957 E.03027
;WIDTH:0.524669
G1 X134.351 Y125.33 E.03028
;WIDTH:0.525605
G1 X133.914 Y125.623 E.03027
G1 X133.427 Y125.824 E.03031
;WIDTH:0.525861
G1 X132.911 Y125.927 E.03029
G1 X132.384 Y125.927 E.03033
G1 X131.868 Y125.824 E.03029
;WIDTH:0.525605
G1 X131.381 Y125.623 E.03031
G1 X130.944 Y125.33 E.03027
;WIDTH:0.542379
G1 X130.544 Y124.916 E.03432
G10 ; retract
G1 X130.544 Y124.916 F7800
G1 X130.448 Y121.751
G11 ; unretract
;WIDTH:0.50536
G1 F1800
G1 X130.396 Y121.852 E.00625
;WIDTH:0.469891
G1 X129.975 Y122.526 E.04019
;WIDTH:0.42
G1 X129.831 Y123.05 E.0241
G1 X129.834 Y123.568 E.02298
G1 X130.017 Y124.125 E.026
G1 X130.332 Y124.527 E.02265
;WIDTH:0.460793
G1 X130.403 Y124.657 E.00732
;WIDTH:0.501586
G1 X130.473 Y124.786 E.008
;WIDTH:0.542379
G1 X130.544 Y124.916 E.00883
G1 X130.448 Y124.901 E.00579
;WIDTH:0.503435
G1 X130.351 Y124.886 E.00537
;WIDTH:0.464491
G1 X130.164 Y124.931 E.0096
;WIDTH:0.42
G1 X129.506 Y125.011 E.0294
G1 X129.168 Y125.113 E.01566
;WIDTH:0.462043
G1 X128.503 Y125.344 E.03492
;WIDTH:0.498683
G1 X128.377 Y125.439 E.00855
G1 X128.43 Y125.234 E.01147
;WIDTH:0.459341
G1 X128.483 Y125.028 E.01048
;WIDTH:0.42
G1 X128.72 Y124.562 E.02319
G1 X128.863 Y124.032 E.02435
G1 X128.905 Y123.469 E.02504
G1 X128.877 Y122.956 E.02279
G1 X128.769 Y122.419 E.0243
G1 X128.579 Y121.941 E.02282
;WIDTH:0.439613
G1 X128.313 Y121.484 E.02475
;WIDTH:0.479743
G1 X128.256 Y121.336 E.00822
;WIDTH:0.519873
G1 X128.2 Y121.189 E.00894
G1 X128.338 Y121.235 E.00826
;WIDTH:0.479743
G1 X128.476 Y121.281 E.00754
;WIDTH:0.439613
G1 X129.265 Y121.55 E.03901
;WIDTH:0.42
G1 X129.788 Y121.634 E.02349
;WIDTH:0.469891
G1 X130.318 Y121.688 E.02694
;WIDTH:0.50536
G1 X130.41 Y121.669 E.00517
;WIDTH:0.540829
G1 X130.501 Y121.65 E.00552
G1 X130.476 Y121.698 E.00322
G1 X130.274 Y122.043 F7800
G10 ; retract
G1 X129.366 Y106.567
G11 ; unretract
;TYPE:Perimeter
;WIDTH:0.634165
G1 F1800
G1 X129.41 Y106.691 E.00935
;WIDTH:0.596257
G1 X129.522 Y106.981 E.02062
;WIDTH:0.559228
G1 X129.634 Y107.27 E.01913
;WIDTH:0.5222
G1 X129.841 Y107.554 E.02007
G1 X129.457 Y107.6 E.02208
G1 X129.099 Y107.697 E.02118
G1 X129.269 Y107.058 E.03776
;WIDTH:0.559521
G1 X129.301 Y106.895 E.01026
;WIDTH:0.596843
G1 X129.334 Y106.731 E.01111
;WIDTH:0.634165
G1 X129.354 Y106.625 E.00767
G10 ; retract
G1 X129.354 Y106.625 F7800
G1 X128.377 Y108.432
G11 ; unretract
;TYPE:External perimeter
;WIDTH:0.522051
G1 F1800
G1 X128.117 Y108.967 E.03395
G1 X127.869 Y109.405 E.02873
G1 X127.547 Y109.82 E.02998
G1 X127.218 Y110.202 E.02878
G1 X126.821 Y110.547 E.03002
G1 X126.423 Y110.856 E.02876
G1 X125.967 Y111.117 E.02999
G1 X125.516 Y111.344 E.02882
;WIDTH:0.521433
G1 X125.019 Y111.51 E.02987
G1 X124.532 Y111.644 E.02879
;WIDTH:0.522281
G1 X124.011 Y111.71 E.02999
G1 X123.508 Y111.747 E.0288
G1 X122.984 Y111.71 E.03
G1 X122.483 Y111.648 E.02883
;WIDTH:0.521429
G1 X121.976 Y111.51 E.02995
G1 X121.498 Y111.352 E.0287
;WIDTH:0.522111
G1 X121.028 Y111.117 E.03
G1 X120.589 Y110.868 E.02881
G1 X120.174 Y110.547 E.02995
G1 X119.792 Y110.217 E.02882
G1 X119.447 Y109.82 E.03003
G1 X119.138 Y109.422 E.02877
G1 X118.877 Y108.966 E.03
G1 X118.65 Y108.515 E.02883
;WIDTH:0.521433
G1 X118.484 Y108.018 E.02987
G1 X118.35 Y107.531 E.02879
;WIDTH:0.521785
G1 X118.283 Y107.01 E.02997
G1 X118.246 Y106.507 E.02877
G1 X118.283 Y105.983 E.02997
G1 X118.346 Y105.482 E.02881
;WIDTH:0.521433
G1 X118.484 Y104.975 E.02995
G1 X118.642 Y104.497 E.0287
;WIDTH:0.522111
G1 X118.877 Y104.027 E.03
G1 X119.126 Y103.588 E.02881
G1 X119.447 Y103.173 E.02995
G1 X119.777 Y102.791 E.02882
G1 X120.174 Y102.447 E.02999
G1 X120.572 Y102.137 E.0288
G1 X121.028 Y101.876 E.03
G1 X121.479 Y101.649 E.02883
;WIDTH:0.521431
G1 X121.976 Y101.483 E.02987
G1 X122.463 Y101.349 E.02879
;WIDTH:0.521625
G1 X122.984 Y101.282 E.02996
G1 X123.504 Y101.246 E.02973
;WIDTH:0.522239
G1 X124.011 Y101.283 E.02903
G1 X124.512 Y101.345 E.02883
;WIDTH:0.521433
G1 X125.019 Y101.483 E.02995
G1 X125.497 Y101.641 E.0287
;WIDTH:0.522109
G1 X125.967 Y101.876 E.03
G1 X126.406 Y102.125 E.02881
G1 X126.821 Y102.447 E.02999
G1 X127.203 Y102.776 E.02878
G1 X127.547 Y103.173 E.02999
G1 X127.857 Y103.571 E.0288
;WIDTH:0.516549
G1 X128.183 Y104.154 E.03767
;WIDTH:0.519873
G1 X128.2 Y104.182 E.00186
G1 X129.769 Y105.04 F7800
;TYPE:Perimeter
;WIDTH:0.535252
G1 F1800
G1 X129.697 Y105.136 E.00705
G1 X129.596 Y105.394 E.01627
;WIDTH:0.505912
G1 X129.566 Y105.582 E.01048
;WIDTH:0.458228
G1 X129.535 Y105.77 E.00936
;WIDTH:0.410545
G1 X129.505 Y105.958 E.00822
;WIDTH:0.40752
G1 X129.482 Y106.038 E.00356
;WIDTH:0.452179
G1 X129.458 Y106.118 E.00404
;WIDTH:0.496837
G1 X129.435 Y106.198 E.00449
;WIDTH:0.541496
G1 X129.412 Y106.278 E.00495
;WIDTH:0.586154
G1 X129.389 Y106.358 E.00542
;WIDTH:0.630813
G1 X129.366 Y106.438 E.00588
G1 X129.34 Y106.373 E.00495
;WIDTH:0.585651
G1 X129.314 Y106.308 E.00455
;WIDTH:0.54049
G1 X129.288 Y106.242 E.00421
;WIDTH:0.495329
G1 X129.262 Y106.177 E.00376
;WIDTH:0.450167
G1 X129.236 Y106.111 E.00341
;WIDTH:0.405006
G1 X129.21 Y106.046 E.00297
;WIDTH:0.374319
G1 X129.204 Y105.886 E.00619
;WIDTH:0.418183
G1 X129.192 Y105.713 E.00765
;WIDTH:0.462047
G1 X129.181 Y105.54 E.0086
;WIDTH:0.505912
G1 X129.17 Y105.368 E.00949
;WIDTH:0.535252
G1 X129.007 Y104.89 E.02966
G1 X129.234 Y104.959 E.01393
G1 X129.709 Y105.031 E.02822
G1 X130.501 Y104.643 F7800
;TYPE:External perimeter
;WIDTH:0.540829
G1 F1800
G1 X130.946 Y104.169 E.03864
;WIDTH:0.525603
G1 X131.381 Y103.877 E.03014
G1 X131.868 Y103.676 E.03031
;WIDTH:0.525787
G1 X132.384 Y103.573 E.03028
;WIDTH:0.526083
G1 X132.91 Y103.573 E.03029
G1 X133.427 Y103.676 E.03036
;WIDTH:0.525605
G1 X133.914 Y103.877 E.03031
