;FLAVOR:Marlin
;TIME:3029
;Filament used: 1.9743m
;Layer height: 0.2
;MINX:68.7
;MINY:78.5
;MINZ:0.2
;MAXX:161.3
;MAXY:151.5
;MAXZ:3
;TARGET_MACHINE.NAME:Creality Ender-3 Pro
;Generated with Cura_SteamEngine 5.5.0
M140 S70
M105
M190 S70
M104 S240
M105
M109 S240
M82 ;absolute extrusion mode
START_PRINT BED_TEMP=70 EXTRUDER_TEMP=240
G92 E0
G92 E0
G1 F1500 E-6.5
;LAYER_COUNT:15
;LAYER:0
M107
G0 F6000 X72.907 Y88.616 Z0.2
;TYPE:SKIRT
G1 F1500 E0
G1 F1200 X73.698 Y88.047 E0.03241
G1 X74.537 Y87.55 E0.06484
G1 X75.351 Y87.159 E0.09488
G1 X76.028 Y86.893 E0.11907
G1 X76.872 Y86.594 E0.14885
G1 X77.989 Y86.217 E0.18806
G1 X80.339 Y85.347 E0.27141
G1 X82.636 Y84.422 E0.35377
G1 X84.962 Y83.409 E0.43815
G1 X87.282 Y82.321 E0.52338
G1 X89.483 Y81.209 E0.6054
G1 X92.048 Y79.821 E0.7024
G1 X92.926 Y79.398 E0.73481
G1 X93.836 Y79.056 E0.76715
G1 X94.774 Y78.795 E0.79953
G1 X95.662 Y78.627 E0.82959
G1 X96.89 Y78.517 E0.87059
G1 X97.58 Y78.5 E0.89355
G1 X99.125 Y78.501 E0.94494
G1 X99.899 Y78.515 E0.97069
G1 X101.069 Y78.6 E1.0097
G1 X101.868 Y78.704 E1.0365
G1 X104.425 Y78.992 E1.12209
G1 X106.927 Y79.207 E1.20561
G1 X109.433 Y79.347 E1.28909
G1 X111.974 Y79.419 E1.37364
G1 X114.463 Y79.419 E1.45642
G1 X117.022 Y79.347 E1.54157
G1 X119.483 Y79.208 E1.62355
G1 X122.014 Y78.992 E1.70804
G1 X124.613 Y78.695 E1.79504
G1 X125.387 Y78.596 E1.821
G1 X126.456 Y78.513 E1.85666
G1 X127.08 Y78.5 E1.87742
G1 X132.2 Y78.501 E2.04771
G1 X132.938 Y78.513 E2.07226
G1 X133.91 Y78.572 E2.10465
G1 X134.873 Y78.718 E2.13704
G1 X135.82 Y78.949 E2.16946
G1 X136.709 Y79.25 E2.20068
G1 X137.637 Y79.659 E2.23441
G1 X138.629 Y80.215 E2.27223
G1 X140.608 Y81.467 E2.35012
G1 X142.757 Y82.75 E2.43337
G1 X145.008 Y84.006 E2.5191
G1 X147.171 Y85.136 E2.60027
G1 X149.458 Y86.249 E2.68487
G1 X152.701 Y87.706 E2.80311
G1 X153.774 Y88.264 E2.84334
G1 X154.081 Y88.447 E2.85523
G1 X154.71 Y88.851 E2.88009
G1 X154.986 Y89.044 E2.89129
G1 X155.727 Y89.605 E2.9222
G1 X156.236 Y90.035 E2.94437
G1 X156.462 Y90.239 E2.95449
G1 X157.127 Y90.892 E2.98549
G1 X157.625 Y91.441 E3.01014
G1 X158.295 Y92.266 E3.04549
G1 X158.802 Y92.994 E3.075
G1 X158.964 Y93.245 E3.08494
G1 X159.302 Y93.807 E3.10675
G1 X159.475 Y94.115 E3.1185
G1 X160.077 Y95.366 E3.16467
G1 X160.309 Y95.94 E3.18526
G1 X160.62 Y96.82 E3.21631
G1 X160.816 Y97.541 E3.24116
G1 X160.938 Y98.063 E3.25899
G1 X161.15 Y99.28 E3.30008
G1 X161.206 Y99.761 E3.31618
G1 X161.276 Y100.785 E3.35032
G1 X161.3 Y102.08 E3.3934
G1 X161.299 Y128.343 E4.26691
G1 X161.291 Y128.968 E4.2877
G1 X161.261 Y129.625 E4.30957
G1 X161.221 Y130.145 E4.32692
G1 X161.068 Y131.295 E4.36551
G1 X160.986 Y131.722 E4.37997
G1 X160.772 Y132.632 E4.41106
G1 X160.642 Y133.09 E4.4269
G1 X160.349 Y133.974 E4.45787
G1 X160.137 Y134.49 E4.47642
G1 X159.879 Y135.076 E4.49772
G1 X159.291 Y136.217 E4.54041
G1 X159.095 Y136.544 E4.55309
G1 X158.695 Y137.166 E4.57769
G1 X158.501 Y137.443 E4.58894
G1 X157.945 Y138.177 E4.61956
G1 X157.515 Y138.686 E4.64173
G1 X157.311 Y138.912 E4.65185
G1 X156.658 Y139.577 E4.68285
G1 X156.109 Y140.075 E4.7075
G1 X155.284 Y140.745 E4.74285
G1 X154.542 Y141.262 E4.77293
G1 X153.763 Y141.741 E4.80335
G1 X153.399 Y141.944 E4.81721
G1 X152.187 Y142.525 E4.86191
G1 X151.521 Y142.794 E4.8858
G1 X151.014 Y142.983 E4.9038
G1 X149.574 Y143.475 E4.95441
G1 X147.18 Y144.364 E5.03935
G1 X144.881 Y145.292 E5.12181
G1 X142.534 Y146.317 E5.20699
G1 X140.262 Y147.386 E5.2905
G1 X138.011 Y148.525 E5.37441
G1 X135.699 Y149.776 E5.46184
G1 X134.63 Y150.279 E5.50114
G1 X134.053 Y150.511 E5.52182
G1 X133.144 Y150.83 E5.55386
G1 X132.466 Y151.012 E5.57721
G1 X131.897 Y151.145 E5.59665
G1 X130.711 Y151.351 E5.63668
G1 X130.228 Y151.407 E5.65286
G1 X129.209 Y151.476 E5.68683
G1 X127.905 Y151.5 E5.73021
G1 X101.638 Y151.499 E6.60385
G1 X100.908 Y151.487 E6.62813
G1 X100.019 Y151.437 E6.65775
G1 X99.531 Y151.388 E6.67406
G1 X98.452 Y151.224 E6.71036
G1 X98.128 Y151.158 E6.72136
G1 X97.356 Y150.969 E6.74779
G1 X96.899 Y150.839 E6.7636
G1 X96.017 Y150.545 E6.79452
G1 X95.551 Y150.355 E6.81126
G1 X94.56 Y149.916 E6.84731
G1 X93.252 Y149.287 E6.89558
G1 X90.911 Y148.213 E6.98124
G1 X88.595 Y147.231 E7.06491
G1 X86.224 Y146.304 E7.14959
G1 X83.893 Y145.468 E7.23195
G1 X81.515 Y144.689 E7.31518
G1 X79.079 Y143.968 E7.39967
G1 X76.756 Y143.338 E7.47973
G1 X75.897 Y143.06 E7.50976
G1 X74.934 Y142.651 E7.54456
G1 X74.106 Y142.208 E7.57579
G1 X73.262 Y141.654 E7.60937
G1 X72.5 Y141.049 E7.64173
G1 X71.794 Y140.38 E7.67408
G1 X71.194 Y139.705 E7.70412
G1 X70.572 Y138.864 E7.73891
G1 X70.065 Y138.032 E7.77131
G1 X69.635 Y137.16 E7.80365
G1 X69.306 Y136.319 E7.83369
G1 X69.015 Y135.315 E7.86845
G1 X68.834 Y134.387 E7.8999
G1 X68.713 Y133.039 E7.94492
G1 X68.7 Y132.414 E7.96571
G1 X68.701 Y130.858 E8.01746
G1 X68.715 Y130.097 E8.04278
G1 X68.801 Y128.928 E8.08176
G1 X68.898 Y128.183 E8.10675
G1 X69.192 Y125.575 E8.19404
G1 X69.407 Y123.073 E8.27757
G1 X69.547 Y120.567 E8.36105
G1 X69.619 Y118.026 E8.44559
G1 X69.619 Y115.514 E8.52914
G1 X69.547 Y112.978 E8.61353
G1 X69.405 Y110.514 E8.69561
G1 X69.192 Y107.988 E8.77993
G1 X68.895 Y105.387 E8.867
G1 X68.796 Y104.613 E8.89295
G1 X68.713 Y103.544 E8.92861
G1 X68.7 Y102.92 E8.94937
G1 X68.701 Y97.759 E9.12103
G1 X68.713 Y97.057 E9.14438
G1 X68.773 Y96.084 E9.1768
G1 X68.92 Y95.123 E9.20914
G1 X69.151 Y94.175 E9.24159
G1 X69.453 Y93.286 E9.27282
G1 X69.86 Y92.364 E9.30634
G1 X70.331 Y91.512 E9.33872
G1 X70.876 Y90.705 E9.37111
G1 X71.467 Y89.975 E9.40235
G1 X72.17 Y89.25 E9.43594
G1 X72.907 Y88.616 E9.46827
G0 F6000 X73.141 Y88.94
G1 F1200 X73.902 Y88.391 E9.49948
G1 X74.71 Y87.911 E9.53074
G1 X75.524 Y87.52 E9.56077
G1 X76.161 Y87.27 E9.58353
G1 X77 Y86.973 E9.61314
G1 X78.117 Y86.596 E9.65235
G1 X80.478 Y85.722 E9.73608
G1 X82.796 Y84.789 E9.81919
G1 X85.122 Y83.776 E9.90357
G1 X87.452 Y82.683 E9.98917
G1 X89.673 Y81.561 E10.07193
G1 X92.222 Y80.181 E10.16834
G1 X93.067 Y79.772 E10.19956
G1 X93.944 Y79.441 E10.23074
G1 X94.848 Y79.188 E10.26196
G1 X95.736 Y79.02 E10.29202
G1 X96.9 Y78.917 E10.33089
G1 X97.58 Y78.9 E10.35351
G1 X99.118 Y78.901 E10.40467
G1 X99.87 Y78.914 E10.42968
G1 X101.018 Y78.997 E10.46796
G1 X101.817 Y79.1 E10.49476
G1 X104.391 Y79.391 E10.58092
G1 X106.893 Y79.605 E10.66444
G1 X109.422 Y79.747 E10.74868
G1 X111.963 Y79.819 E10.83323
G1 X114.474 Y79.819 E10.91675
G1 X117.033 Y79.747 E11.0019
G1 X119.517 Y79.606 E11.08465
G1 X122.048 Y79.39 E11.16913
G1 X124.664 Y79.092 E11.2567
G1 X125.418 Y78.995 E11.28199
G1 X126.464 Y78.913 E11.31689
G1 X127.08 Y78.9 E11.33738
G1 X132.194 Y78.901 E11.50747
G1 X132.914 Y78.912 E11.53142
G1 X133.851 Y78.968 E11.56264
G1 X134.779 Y79.107 E11.59385
G1 X135.692 Y79.328 E11.6251
G1 X136.548 Y79.616 E11.65513
G1 X137.442 Y80.008 E11.6876
G1 X138.415 Y80.553 E11.72469
G1 X140.394 Y81.805 E11.80258
G1 X142.562 Y83.099 E11.88656
G1 X144.813 Y84.355 E11.97229
G1 X146.996 Y85.496 E12.05422
G1 X149.285 Y86.61 E12.13889
G1 X152.517 Y88.061 E12.25672
G1 X153.57 Y88.608 E12.29619
G1 X153.865 Y88.783 E12.3076
G1 X154.481 Y89.179 E12.33195
G1 X154.745 Y89.363 E12.34266
G1 X155.469 Y89.91 E12.37284
G1 X155.968 Y90.332 E12.39457
G1 X156.182 Y90.525 E12.40416
G1 X156.831 Y91.161 E12.43438
G1 X157.314 Y91.693 E12.45828
G1 X157.984 Y92.518 E12.49363
G1 X158.466 Y93.211 E12.5217
G1 X158.621 Y93.451 E12.53121
G1 X158.953 Y94.003 E12.55263
G1 X159.126 Y94.311 E12.56438
G1 X159.706 Y95.516 E12.60886
G1 X159.932 Y96.074 E12.62888
G1 X160.234 Y96.925 E12.65892
G1 X160.426 Y97.632 E12.68328
G1 X160.548 Y98.154 E12.70111
G1 X160.753 Y99.327 E12.74072
G1 X160.807 Y99.788 E12.75616
G1 X160.876 Y100.792 E12.78963
G1 X160.9 Y102.08 E12.83248
G1 X160.899 Y128.338 E13.70582
G1 X160.891 Y128.95 E13.72618
G1 X160.862 Y129.595 E13.74765
G1 X160.824 Y130.093 E13.76426
G1 X160.675 Y131.22 E13.80207
G1 X160.597 Y131.63 E13.81595
G1 X160.387 Y132.523 E13.84647
G1 X160.262 Y132.964 E13.86171
G1 X159.969 Y133.848 E13.89269
G1 X159.771 Y134.329 E13.90999
G1 X159.523 Y134.893 E13.93048
G1 X158.935 Y136.034 E13.97317
G1 X158.759 Y136.328 E13.98457
G1 X158.367 Y136.937 E14.00866
G1 X158.182 Y137.202 E14.01941
G1 X157.64 Y137.919 E14.0493
G1 X157.218 Y138.418 E14.07104
G1 X157.025 Y138.632 E14.08062
G1 X156.389 Y139.281 E14.11084
G1 X155.857 Y139.764 E14.13474
G1 X155.032 Y140.434 E14.17009
G1 X154.332 Y140.921 E14.19845
G1 X153.553 Y141.4 E14.22887
G1 X153.226 Y141.583 E14.24133
G1 X152.037 Y142.154 E14.2852
G1 X151.381 Y142.419 E14.30874
G1 X150.874 Y142.608 E14.32673
G1 X149.435 Y143.1 E14.37731
G1 X147.03 Y143.993 E14.46264
G1 X144.721 Y144.925 E14.54546
G1 X142.374 Y145.95 E14.63064
G1 X140.081 Y147.029 E14.71493
G1 X137.83 Y148.168 E14.79883
G1 X135.528 Y149.414 E14.8859
G1 X134.48 Y149.908 E14.92443
G1 X133.92 Y150.134 E14.94452
G1 X133.04 Y150.444 E14.97555
G1 X132.375 Y150.623 E14.99845
G1 X131.828 Y150.751 E15.01714
G1 X130.665 Y150.954 E15.0564
G1 X130.201 Y151.008 E15.07194
G1 X129.202 Y151.076 E15.10524
G1 X127.905 Y151.1 E15.14839
G1 X101.644 Y151.099 E16.02183
G1 X100.93 Y151.088 E16.04559
G1 X100.058 Y151.039 E16.07463
G1 X99.591 Y150.993 E16.09024
G1 X98.532 Y150.832 E16.12587
G1 X98.223 Y150.769 E16.13636
G1 X97.465 Y150.584 E16.16231
G1 X97.025 Y150.459 E16.17752
G1 X96.168 Y150.174 E16.20756
G1 X95.713 Y149.989 E16.2239
G1 X94.722 Y149.55 E16.25995
G1 X93.419 Y148.923 E16.30804
G1 X91.078 Y147.85 E16.39369
G1 X88.741 Y146.858 E16.47813
G1 X86.37 Y145.931 E16.56281
G1 X84.028 Y145.091 E16.64556
G1 X81.629 Y144.305 E16.72953
G1 X79.193 Y143.584 E16.81402
G1 X76.879 Y142.957 E16.89376
G1 X76.02 Y142.679 E16.92379
G1 X75.123 Y142.298 E16.9562
G1 X74.295 Y141.855 E16.98744
G1 X73.51 Y141.34 E17.01866
G1 X72.775 Y140.758 E17.04985
G1 X72.093 Y140.114 E17.08105
G1 X71.493 Y139.439 E17.11108
G1 X70.913 Y138.656 E17.14349
G1 X70.424 Y137.855 E17.17471
G1 X70.008 Y137.014 E17.20591
G1 X69.679 Y136.173 E17.23595
G1 X69.408 Y135.238 E17.26833
G1 X69.227 Y134.31 E17.29977
G1 X69.113 Y133.031 E17.34248
G1 X69.1 Y132.414 E17.36301
G1 X69.101 Y130.865 E17.41453
G1 X69.114 Y130.126 E17.43911
G1 X69.198 Y128.979 E17.47736
G1 X69.294 Y128.234 E17.50235
G1 X69.591 Y125.609 E17.59021
G1 X69.805 Y123.107 E17.67373
G1 X69.947 Y120.578 E17.75798
G1 X70.019 Y118.037 E17.84253
G1 X70.019 Y115.514 E17.92644
G1 X69.947 Y112.967 E18.01119
G1 X69.804 Y110.48 E18.09404
G1 X69.59 Y107.954 E18.17836
G1 X69.292 Y105.336 E18.266
G1 X69.195 Y104.582 E18.29128
G1 X69.113 Y103.536 E18.32618
G1 X69.1 Y102.92 E18.34667
G1 X69.101 Y97.765 E18.51813
G1 X69.112 Y97.081 E18.54088
G1 X69.169 Y96.144 E18.5721
G1 X69.309 Y95.217 E18.60329
G1 X69.53 Y94.304 E18.63453
G1 X69.832 Y93.415 E18.66576
G1 X70.21 Y92.557 E18.69694
G1 X70.663 Y91.735 E18.72816
G1 X71.187 Y90.957 E18.75936
G1 X71.778 Y90.227 E18.79059
G1 X72.431 Y89.553 E18.82181
G1 X73.141 Y88.94 E18.85301
G0 F6000 X73.375 Y89.264
G1 F1200 X74.107 Y88.735 E18.88304
G1 X74.883 Y88.272 E18.9131
G1 X75.697 Y87.881 E18.94313
G1 X76.295 Y87.647 E18.96449
G1 X77.128 Y87.352 E18.99388
G1 X78.245 Y86.975 E19.0331
G1 X80.617 Y86.097 E19.11722
G1 X82.956 Y85.156 E19.20107
G1 X85.282 Y84.143 E19.28546
G1 X87.622 Y83.045 E19.37143
G1 X89.863 Y81.913 E19.45493
G1 X92.397 Y80.541 E19.55077
G1 X93.209 Y80.146 E19.58081
G1 X94.053 Y79.826 E19.61083
G1 X94.922 Y79.581 E19.64086
G1 X95.81 Y79.413 E19.67092
G1 X96.91 Y79.317 E19.70764
G1 X97.58 Y79.3 E19.72993
G1 X99.111 Y79.301 E19.78086
G1 X99.841 Y79.313 E19.80514
G1 X100.967 Y79.394 E19.84269
G1 X101.766 Y79.496 E19.86948
G1 X104.357 Y79.79 E19.95621
G1 X106.859 Y80.003 E20.03972
G1 X109.411 Y80.147 E20.12474
G1 X111.952 Y80.219 E20.20929
G1 X114.485 Y80.219 E20.29354
G1 X117.044 Y80.147 E20.37868
G1 X119.551 Y80.004 E20.4622
G1 X122.082 Y79.788 E20.54669
G1 X124.715 Y79.489 E20.63482
G1 X125.45 Y79.394 E20.65947
G1 X126.473 Y79.313 E20.69361
G1 X127.08 Y79.3 E20.7138
G1 X132.188 Y79.301 E20.88369
G1 X132.891 Y79.311 E20.90708
G1 X133.793 Y79.364 E20.93713
G1 X134.686 Y79.496 E20.96715
G1 X135.564 Y79.707 E20.99719
G1 X136.42 Y79.995 E21.02723
G1 X137.247 Y80.357 E21.05725
G1 X138.201 Y80.891 E21.09361
G1 X140.18 Y82.143 E21.1715
G1 X142.367 Y83.448 E21.25621
G1 X144.618 Y84.704 E21.34194
G1 X146.821 Y85.856 E21.42463
G1 X149.112 Y86.971 E21.50937
G1 X152.333 Y88.416 E21.62679
G1 X153.366 Y88.952 E21.6655
G1 X153.649 Y89.12 E21.67644
G1 X154.253 Y89.508 E21.70032
G1 X154.504 Y89.682 E21.71048
G1 X155.211 Y90.216 E21.73995
G1 X155.7 Y90.629 E21.76124
G1 X155.902 Y90.811 E21.77028
G1 X156.535 Y91.43 E21.79973
G1 X157.018 Y91.962 E21.82363
G1 X157.656 Y92.747 E21.85727
G1 X158.13 Y93.428 E21.88487
G1 X158.278 Y93.657 E21.89394
G1 X158.604 Y94.199 E21.91497
G1 X158.777 Y94.507 E21.92672
G1 X159.335 Y95.666 E21.96951
G1 X159.555 Y96.208 E21.98896
G1 X159.857 Y97.059 E22.01899
G1 X160.036 Y97.723 E22.04187
G1 X160.158 Y98.245 E22.0597
G1 X160.356 Y99.374 E22.09782
G1 X160.408 Y99.816 E22.11262
G1 X160.476 Y100.799 E22.1454
G1 X160.5 Y102.08 E22.18801
G1 X160.499 Y128.333 E23.06119
G1 X160.491 Y128.932 E23.08111
G1 X160.463 Y129.565 E23.10219
G1 X160.427 Y130.041 E23.11806
G1 X160.278 Y131.168 E23.15587
G1 X160.208 Y131.538 E23.1684
G1 X160.002 Y132.414 E23.19833
G1 X159.882 Y132.839 E23.21302
G1 X159.599 Y133.696 E23.24304
G1 X159.405 Y134.168 E23.26001
G1 X159.167 Y134.71 E23.2797
G1 X158.591 Y135.829 E23.32156
G1 X158.423 Y136.111 E23.33247
G1 X158.038 Y136.709 E23.35613
G1 X157.863 Y136.961 E23.36633
G1 X157.334 Y137.661 E23.39552
G1 X156.921 Y138.15 E23.41681
G1 X156.739 Y138.352 E23.42585
G1 X156.12 Y138.985 E23.4553
G1 X155.588 Y139.468 E23.47919
G1 X154.803 Y140.106 E23.51284
G1 X154.122 Y140.58 E23.54044
G1 X153.357 Y141.051 E23.57032
G1 X153.053 Y141.222 E23.58192
G1 X151.864 Y141.793 E23.62579
G1 X151.241 Y142.044 E23.64813
G1 X150.734 Y142.233 E23.66612
G1 X149.296 Y142.725 E23.71667
G1 X146.88 Y143.622 E23.80239
G1 X144.561 Y144.558 E23.88557
G1 X142.214 Y145.583 E23.97075
G1 X139.9 Y146.672 E24.05581
G1 X137.649 Y147.811 E24.13972
G1 X135.357 Y149.052 E24.2264
G1 X134.33 Y149.537 E24.26418
G1 X133.787 Y149.757 E24.28367
G1 X132.936 Y150.058 E24.31369
G1 X132.284 Y150.234 E24.33615
G1 X131.759 Y150.357 E24.35409
G1 X130.618 Y150.557 E24.39261
G1 X130.174 Y150.609 E24.40748
G1 X129.195 Y150.676 E24.44012
G1 X127.905 Y150.7 E24.48303
G1 X101.65 Y150.699 E25.35628
G1 X100.952 Y150.689 E25.3795
G1 X100.097 Y150.641 E25.40798
G1 X99.651 Y150.597 E25.42288
G1 X98.612 Y150.44 E25.45783
G1 X98.318 Y150.38 E25.46781
G1 X97.574 Y150.199 E25.49328
G1 X97.151 Y150.079 E25.5079
G1 X96.294 Y149.794 E25.53794
G1 X95.875 Y149.623 E25.553
G1 X94.896 Y149.19 E25.5886
G1 X93.586 Y148.559 E25.63696
G1 X91.245 Y147.487 E25.7226
G1 X88.897 Y146.49 E25.80744
G1 X86.505 Y145.554 E25.89288
G1 X84.163 Y144.714 E25.97563
G1 X81.743 Y143.921 E26.06033
G1 X79.307 Y143.2 E26.14483
G1 X77.002 Y142.576 E26.22425
G1 X76.143 Y142.298 E26.25428
G1 X75.311 Y141.945 E26.28434
G1 X74.514 Y141.52 E26.31438
G1 X73.758 Y141.026 E26.34442
G1 X73.049 Y140.467 E26.37445
G1 X72.392 Y139.848 E26.40447
G1 X71.792 Y139.173 E26.43451
G1 X71.254 Y138.447 E26.46456
G1 X70.782 Y137.677 E26.4946
G1 X70.381 Y136.868 E26.52463
G1 X70.052 Y136.027 E26.55467
G1 X69.8 Y135.16 E26.5847
G1 X69.625 Y134.274 E26.61474
G1 X69.513 Y133.022 E26.65654
G1 X69.5 Y132.414 E26.67677
G1 X69.501 Y130.872 E26.72806
G1 X69.513 Y130.155 E26.75191
G1 X69.595 Y129.03 E26.78943
G1 X69.69 Y128.285 E26.81441
G1 X69.99 Y125.643 E26.90284
G1 X70.203 Y123.141 E26.98636
G1 X70.347 Y120.589 E27.07138
G1 X70.419 Y118.048 E27.15592
G1 X70.419 Y115.514 E27.24021
G1 X70.347 Y112.956 E27.32532
G1 X70.203 Y110.446 E27.40894
G1 X69.988 Y107.92 E27.49326
G1 X69.689 Y105.285 E27.58146
G1 X69.594 Y104.55 E27.60611
G1 X69.513 Y103.527 E27.64024
G1 X69.5 Y102.92 E27.66044
G1 X69.501 Y97.771 E27.83169
G1 X69.511 Y97.105 E27.85385
G1 X69.565 Y96.203 E27.8839
G1 X69.698 Y95.31 E27.91393
G1 X69.909 Y94.432 E27.94396
G1 X70.198 Y93.576 E27.97401
G1 X70.561 Y92.749 E28.00405
G1 X70.995 Y91.958 E28.03406
G1 X71.498 Y91.208 E28.0641
G1 X72.066 Y90.505 E28.09416
G1 X72.693 Y89.855 E28.12419
G1 X73.375 Y89.264 E28.15421
