;FLAVOR:Marlin
;TIME:15899
;Filament used: 11.0471m
;Layer height: 0.2
;MINX:44.487
;MINY:44.081
;MINZ:0.2
;MAXX:162.14
;MAXY:166.158
;MAXZ:15
;TARGET_MACHINE.NAME:Creality Ender-3 Pro
;Generated with Cura_SteamEngine 5.5.0
M140 S70
M105
M190 S70
M104 S240
M105
M109 S240
M82 ;absolute extrusion mode
START_PRINT BED_TEMP=70 EXTRUDER_TEMP=240
G92 E0
G92 E0
G1 F1500 E-6.5
;LAYER_COUNT:75
;LAYER:0
M107
G0 F6000 X73.444 Y49.367 Z0.2
;TYPE:SKIRT
G1 F1500 E0
G1 F1200 X73.987 Y48.557 E0.03243
G1 X74.553 Y47.853 E0.06248
G1 X75.278 Y47.1 E0.09724
G1 X76.014 Y46.463 E0.12962
G1 X76.745 Y45.932 E0.15967
G1 X77.642 Y45.396 E0.19443
G1 X78.519 Y44.975 E0.22678
G1 X79.431 Y44.633 E0.25918
G1 X80.369 Y44.373 E0.29155
G1 X81.336 Y44.194 E0.32426
G1 X82.453 Y44.098 E0.36155
G1 X83.16 Y44.081 E0.38507
G1 X104.309 Y44.082 E1.08849
G1 X105.055 Y44.096 E1.11331
G1 X106.026 Y44.159 E1.14567
G1 X106.99 Y44.306 E1.1781
G1 X107.867 Y44.52 E1.20813
G1 X109.222 Y45.006 E1.25601
G1 X110.387 Y45.513 E1.29826
G1 X112.819 Y46.532 E1.38597
G1 X115.182 Y47.443 E1.4702
G1 X117.515 Y48.266 E1.55248
G1 X119.947 Y49.047 E1.63744
G1 X122.36 Y49.75 E1.72103
G1 X124.793 Y50.383 E1.80465
G1 X127.224 Y50.943 E1.88762
G1 X129.755 Y51.451 E1.97348
G1 X132.154 Y51.863 E2.05444
G1 X134.703 Y52.227 E2.14008
G1 X137.172 Y52.506 E2.22272
G1 X139.693 Y52.724 E2.30688
G1 X142.196 Y52.864 E2.39026
G1 X144.816 Y52.939 E2.47744
G1 X146.788 Y52.961 E2.54303
G1 X147.761 Y53.016 E2.57545
G1 X148.69 Y53.151 E2.60667
G1 X149.672 Y53.384 E2.64024
G1 X150.594 Y53.694 E2.67259
G1 X151.487 Y54.083 E2.70499
G1 X152.28 Y54.513 E2.73499
G1 X153.151 Y55.092 E2.76978
G1 X153.91 Y55.702 E2.80217
G1 X154.587 Y56.352 E2.83338
G1 X155.25 Y57.112 E2.86693
G1 X155.823 Y57.901 E2.89936
G1 X156.323 Y58.738 E2.93179
G1 X156.746 Y59.614 E2.96414
G1 X157.091 Y60.525 E2.99654
G1 X157.353 Y61.462 E3.0289
G1 X157.534 Y62.43 E3.06165
G1 X157.635 Y63.602 E3.10078
G1 X157.65 Y64.277 E3.12324
G1 X157.649 Y69.41 E3.29396
G1 X157.636 Y70.169 E3.31921
G1 X157.55 Y71.354 E3.35873
G1 X157.466 Y71.991 E3.3801
G1 X157.165 Y74.649 E3.46907
G1 X156.95 Y77.162 E3.55295
G1 X156.81 Y79.624 E3.63497
G1 X156.737 Y82.188 E3.72029
G1 X156.737 Y84.7 E3.80384
G1 X156.808 Y87.212 E3.88742
G1 X156.948 Y89.696 E3.97017
G1 X157.163 Y92.253 E4.05551
G1 X157.451 Y94.771 E4.13981
G1 X157.879 Y98.077 E4.25069
G1 X158.266 Y100.546 E4.33381
G1 X158.732 Y103.04 E4.41819
G1 X159.244 Y105.424 E4.49929
G1 X159.859 Y107.913 E4.58457
G1 X160.543 Y110.394 E4.67016
G1 X161.3 Y112.855 E4.7558
G1 X161.61 Y113.821 E4.78955
G1 X161.865 Y114.761 E4.82194
G1 X162.036 Y115.727 E4.85457
G1 X162.125 Y116.831 E4.89141
G1 X162.14 Y117.488 E4.91327
G1 X162.139 Y154.558 E6.14622
G1 X162.128 Y155.321 E6.1716
G1 X162.071 Y156.294 E6.20402
G1 X161.926 Y157.257 E6.23641
G1 X161.697 Y158.203 E6.26878
G1 X161.386 Y159.127 E6.30121
G1 X160.994 Y160.018 E6.33358
G1 X160.526 Y160.87 E6.36591
G1 X160.004 Y161.651 E6.39716
G1 X159.371 Y162.436 E6.4307
G1 X158.746 Y163.087 E6.46071
G1 X157.957 Y163.775 E6.49553
G1 X157.197 Y164.325 E6.52673
G1 X156.33 Y164.842 E6.56031
G1 X155.452 Y165.264 E6.59271
G1 X154.541 Y165.606 E6.62507
G1 X153.602 Y165.867 E6.65749
G1 X152.636 Y166.045 E6.69016
G1 X151.485 Y166.143 E6.72858
G1 X150.81 Y166.158 E6.75104
G1 X131.662 Y166.157 E7.3879
G1 X130.91 Y166.143 E7.41292
G1 X129.94 Y166.08 E7.44525
G1 X128.977 Y165.933 E7.47765
G1 X128.089 Y165.717 E7.50804
G1 X125.745 Y165.038 E7.58921
G1 X123.338 Y164.412 E7.67193
G1 X120.842 Y163.838 E7.75712
G1 X118.37 Y163.341 E7.84098
G1 X115.92 Y162.923 E7.92364
G1 X113.419 Y162.566 E8.00767
G1 X110.908 Y162.281 E8.09172
G1 X108.416 Y162.067 E8.17491
G1 X105.9 Y161.926 E8.25873
G1 X103.342 Y161.853 E8.34384
G1 X102.039 Y161.844 E8.38718
G1 X93.599 Y161.844 E8.6679
G1 X92.717 Y161.831 E8.69723
G1 X91.745 Y161.772 E8.72962
G1 X90.782 Y161.626 E8.76202
G1 X89.834 Y161.395 E8.79447
G1 X88.978 Y161.107 E8.82451
G1 X88.022 Y160.688 E8.85923
G1 X87.169 Y160.217 E8.89164
G1 X86.388 Y159.691 E8.92295
G1 X85.429 Y158.899 E8.96432
G1 X84.966 Y158.469 E8.98534
G1 X83.747 Y157.304 E9.04142
G1 X81.835 Y155.577 E9.12711
G1 X79.932 Y153.953 E9.21032
G1 X77.974 Y152.375 E9.29396
G1 X75.995 Y150.871 E9.37664
G1 X73.926 Y149.39 E9.46126
G1 X71.842 Y147.983 E9.5449
G1 X69.703 Y146.627 E9.62913
G1 X67.564 Y145.354 E9.71192
G1 X65.353 Y144.122 E9.7961
G1 X63.132 Y142.964 E9.87941
G1 X60.847 Y141.855 E9.96389
G1 X58.557 Y140.823 E10.04743
G1 X56.217 Y139.845 E10.13179
G1 X53.844 Y138.933 E10.21634
G1 X51.779 Y138.199 E10.28923
G1 X50.877 Y137.83 E10.32165
G1 X50.074 Y137.417 E10.35168
G1 X49.19 Y136.858 E10.38647
G1 X48.418 Y136.265 E10.41884
G1 X47.701 Y135.606 E10.45123
G1 X47.045 Y134.886 E10.48363
G1 X46.456 Y134.111 E10.51601
G1 X45.954 Y133.317 E10.54725
G1 X45.493 Y132.42 E10.5808
G1 X45.14 Y131.551 E10.61199
G1 X44.845 Y130.586 E10.64555
G1 X44.644 Y129.634 E10.67792
G1 X44.534 Y128.737 E10.70797
G1 X44.502 Y128.181 E10.7265
G1 X44.487 Y127.524 E10.74835
G1 X44.488 Y90.404 E11.98297
G1 X44.5 Y89.667 E12.00749
G1 X44.559 Y88.695 E12.03987
G1 X44.705 Y87.732 E12.07227
G1 X44.936 Y86.785 E12.10469
G1 X45.249 Y85.864 E12.13704
G1 X45.643 Y84.972 E12.16948
G1 X46.114 Y84.119 E12.20189
G1 X46.658 Y83.313 E12.23423
G1 X47.271 Y82.556 E12.26663
G1 X47.942 Y81.864 E12.29869
G1 X48.457 Y81.407 E12.32159
G1 X50.369 Y79.814 E12.40436
G1 X52.235 Y78.17 E12.48707
G1 X54.095 Y76.439 E12.57158
G1 X55.888 Y74.67 E12.65536
G1 X57.621 Y72.86 E12.7387
G1 X59.334 Y70.97 E12.82354
G1 X60.96 Y69.067 E12.9068
G1 X62.543 Y67.108 E12.99057
G1 X64.037 Y65.146 E13.07259
G1 X65.52 Y63.08 E13.15717
G1 X66.927 Y60.997 E13.24078
G1 X68.295 Y58.848 E13.32551
G1 X69.591 Y56.676 E13.40963
G1 X70.789 Y54.528 E13.49143
G1 X71.97 Y52.268 E13.57625
G1 X72.975 Y50.219 E13.65215
G1 X73.444 Y49.367 E13.6845
G0 F6000 X73.777 Y49.589
G1 F1200 X74.299 Y48.808 E13.71574
G1 X74.865 Y48.104 E13.74579
G1 X75.54 Y47.402 E13.77818
G1 X76.249 Y46.787 E13.8094
G1 X76.98 Y46.256 E13.83945
G1 X77.816 Y45.756 E13.87185
G1 X78.66 Y45.349 E13.90301
G1 X79.539 Y45.018 E13.93425
G1 X80.442 Y44.766 E13.96543
G1 X81.37 Y44.593 E13.99683
G1 X82.487 Y44.497 E14.03412
G1 X83.16 Y44.481 E14.05651
G1 X104.302 Y44.482 E14.75969
G1 X105.03 Y44.495 E14.78391
G1 X105.966 Y44.554 E14.81511
G1 X106.895 Y44.695 E14.84636
G1 X107.772 Y44.909 E14.87638
G1 X109.062 Y45.373 E14.92198
G1 X110.227 Y45.88 E14.96424
G1 X112.675 Y46.905 E15.05251
G1 X115.042 Y47.817 E15.13688
G1 X117.393 Y48.647 E15.2198
G1 X119.828 Y49.429 E15.30486
G1 X122.252 Y50.135 E15.38884
G1 X124.703 Y50.773 E15.47307
G1 X127.134 Y51.333 E15.55605
G1 X129.68 Y51.844 E15.64241
G1 X132.097 Y52.259 E15.72398
G1 X134.646 Y52.623 E15.80962
G1 X137.138 Y52.905 E15.89303
G1 X139.659 Y53.122 E15.97719
G1 X142.185 Y53.264 E16.06134
G1 X144.805 Y53.339 E16.14852
G1 X146.766 Y53.36 E16.21374
G1 X147.703 Y53.412 E16.24496
G1 X148.632 Y53.547 E16.27618
G1 X149.545 Y53.763 E16.30739
G1 X150.435 Y54.061 E16.3386
G1 X151.296 Y54.435 E16.36982
G1 X152.089 Y54.865 E16.39983
G1 X152.901 Y55.404 E16.43224
G1 X153.633 Y55.991 E16.46345
G1 X154.31 Y56.641 E16.49467
G1 X154.927 Y57.348 E16.52588
G1 X155.48 Y58.107 E16.55711
G1 X155.963 Y58.912 E16.58834
G1 X156.372 Y59.756 E16.61953
G1 X156.706 Y60.633 E16.65074
G1 X156.96 Y61.536 E16.68194
G1 X157.135 Y62.464 E16.71335
G1 X157.236 Y63.636 E16.75248
G1 X157.25 Y64.277 E16.7738
G1 X157.249 Y69.403 E16.94429
G1 X157.237 Y70.14 E16.96881
G1 X157.153 Y71.302 E17.00756
G1 X157.07 Y71.939 E17.02892
G1 X156.766 Y74.615 E17.1185
G1 X156.552 Y77.128 E17.20239
G1 X156.41 Y79.613 E17.28517
G1 X156.337 Y82.177 E17.37048
G1 X156.337 Y84.7 E17.4544
G1 X156.408 Y87.223 E17.53835
G1 X156.549 Y89.73 E17.62186
G1 X156.765 Y92.287 E17.70721
G1 X157.054 Y94.822 E17.79207
G1 X157.482 Y98.128 E17.90295
G1 X157.873 Y100.619 E17.98681
G1 X158.341 Y103.124 E18.07157
G1 X158.856 Y105.52 E18.15308
G1 X159.473 Y108.019 E18.2387
G1 X160.157 Y110.5 E18.32429
G1 X160.919 Y112.977 E18.41049
G1 X161.224 Y113.926 E18.44364
G1 X161.471 Y114.832 E18.47488
G1 X161.637 Y115.759 E18.5062
G1 X161.725 Y116.84 E18.54227
G1 X161.74 Y117.488 E18.56383
G1 X161.739 Y154.553 E19.79662
G1 X161.729 Y155.298 E19.8214
G1 X161.675 Y156.235 E19.85262
G1 X161.537 Y157.164 E19.88385
G1 X161.318 Y158.076 E19.91505
G1 X161.02 Y158.966 E19.94627
G1 X160.643 Y159.826 E19.9775
G1 X160.193 Y160.648 E20.00867
G1 X159.671 Y161.429 E20.03991
G1 X159.082 Y162.159 E20.07111
G1 X158.457 Y162.81 E20.10112
G1 X157.722 Y163.451 E20.13356
G1 X156.962 Y164.001 E20.16476
G1 X156.156 Y164.482 E20.19598
G1 X155.311 Y164.89 E20.22719
G1 X154.433 Y165.221 E20.2584
G1 X153.529 Y165.474 E20.28962
G1 X152.602 Y165.646 E20.32098
G1 X151.451 Y165.744 E20.3594
G1 X150.81 Y165.758 E20.38073
G1 X131.669 Y165.757 E21.01736
G1 X130.935 Y165.744 E21.04177
G1 X130 Y165.685 E21.07293
G1 X129.072 Y165.544 E21.10415
G1 X128.184 Y165.328 E21.13455
G1 X125.846 Y164.651 E21.21551
G1 X123.428 Y164.022 E21.29861
G1 X120.932 Y163.448 E21.38379
G1 X118.449 Y162.949 E21.46803
G1 X115.977 Y162.527 E21.55144
G1 X113.476 Y162.17 E21.63546
G1 X110.942 Y161.882 E21.72029
G1 X108.45 Y161.669 E21.80347
G1 X105.911 Y161.526 E21.88805
G1 X103.353 Y161.453 E21.97317
G1 X102.042 Y161.444 E22.01677
G1 X93.605 Y161.444 E22.29739
G1 X92.741 Y161.432 E22.32613
G1 X91.804 Y161.376 E22.35735
G1 X90.876 Y161.237 E22.38856
G1 X89.962 Y161.016 E22.41983
G1 X89.106 Y160.728 E22.44987
G1 X88.215 Y160.338 E22.48222
G1 X87.392 Y159.885 E22.51347
G1 X86.642 Y159.382 E22.5435
G1 X85.701 Y158.606 E22.58407
G1 X85.242 Y158.18 E22.6049
G1 X84.015 Y157.007 E22.66136
G1 X82.103 Y155.28 E22.74705
G1 X80.192 Y153.649 E22.83061
G1 X78.225 Y152.064 E22.91463
G1 X76.228 Y150.546 E22.99807
G1 X74.15 Y149.058 E23.08307
G1 X72.066 Y147.651 E23.1667
G1 X69.908 Y146.283 E23.25169
G1 X67.769 Y145.01 E23.33448
G1 X65.538 Y143.767 E23.41942
G1 X63.317 Y142.609 E23.50273
G1 X61.022 Y141.495 E23.58758
G1 X58.721 Y140.458 E23.67152
G1 X56.371 Y139.476 E23.75623
G1 X53.978 Y138.556 E23.8415
G1 X51.93 Y137.828 E23.9138
G1 X51.06 Y137.474 E23.94504
G1 X50.257 Y137.061 E23.97507
G1 X49.433 Y136.541 E24.00748
G1 X48.688 Y135.97 E24.0387
G1 X47.996 Y135.336 E24.06991
G1 X47.363 Y134.643 E24.10113
G1 X46.794 Y133.897 E24.13233
G1 X46.31 Y133.134 E24.16239
G1 X45.864 Y132.269 E24.19476
G1 X45.511 Y131.4 E24.22595
G1 X45.236 Y130.503 E24.25716
G1 X45.041 Y129.585 E24.28837
G1 X44.931 Y128.688 E24.31843
G1 X44.902 Y128.172 E24.33562
G1 X44.887 Y127.524 E24.35718
G1 X44.888 Y90.41 E25.59159
G1 X44.899 Y89.691 E25.61551
G1 X44.955 Y88.754 E25.64673
G1 X45.094 Y87.826 E25.67794
G1 X45.315 Y86.913 E25.70918
G1 X45.615 Y86.025 E25.74036
G1 X45.993 Y85.165 E25.7716
G1 X46.446 Y84.342 E25.80285
G1 X46.969 Y83.564 E25.83403
G1 X47.559 Y82.834 E25.86525
G1 X48.208 Y82.163 E25.8963
G1 X48.713 Y81.714 E25.91877
G1 X50.625 Y80.121 E26.00155
G1 X52.508 Y78.463 E26.08499
G1 X54.368 Y76.732 E26.1695
G1 X56.169 Y74.955 E26.25365
G1 X57.91 Y73.137 E26.33737
G1 X59.63 Y71.239 E26.42257
G1 X61.264 Y69.327 E26.50622
G1 X62.854 Y67.359 E26.59037
G1 X64.362 Y65.379 E26.67315
G1 X65.845 Y63.313 E26.75773
G1 X67.265 Y61.212 E26.84208
G1 X68.632 Y59.063 E26.92679
G1 X69.934 Y56.881 E27.0113
G1 X71.144 Y54.713 E27.09388
G1 X72.325 Y52.453 E27.17869
G1 X73.326 Y50.411 E27.25433
G1 X73.777 Y49.589 E27.28551
G0 F6000 X74.11 Y49.811
G1 F1200 X74.611 Y49.059 E27.31557
G1 X75.177 Y48.355 E27.34561
G1 X75.803 Y47.704 E27.37565
G1 X76.484 Y47.111 E27.40569
G1 X77.215 Y46.58 E27.43574
G1 X77.99 Y46.116 E27.46578
G1 X78.802 Y45.723 E27.49578
G1 X79.647 Y45.403 E27.52584
G1 X80.516 Y45.159 E27.55586
G1 X81.404 Y44.992 E27.58591
G1 X82.521 Y44.896 E27.6232
G1 X83.16 Y44.881 E27.64446
G1 X104.295 Y44.882 E28.34741
G1 X105.005 Y44.894 E28.37103
G1 X105.907 Y44.95 E28.40109
G1 X106.8 Y45.084 E28.43112
G1 X107.677 Y45.298 E28.46115
G1 X108.902 Y45.74 E28.50446
G1 X110.067 Y46.247 E28.54672
G1 X112.531 Y47.278 E28.63556
G1 X114.902 Y48.191 E28.72006
G1 X117.271 Y49.028 E28.80363
G1 X119.709 Y49.811 E28.8888
G1 X122.144 Y50.52 E28.97315
G1 X124.613 Y51.163 E29.05801
G1 X127.044 Y51.723 E29.14098
G1 X129.605 Y52.237 E29.22786
G1 X132.04 Y52.655 E29.31003
G1 X134.589 Y53.019 E29.39567
G1 X137.104 Y53.304 E29.47985
G1 X139.625 Y53.52 E29.56401
G1 X142.174 Y53.664 E29.64893
G1 X144.794 Y53.739 E29.7361
G1 X146.744 Y53.759 E29.80096
G1 X147.646 Y53.808 E29.83101
G1 X148.54 Y53.936 E29.86105
G1 X149.419 Y54.143 E29.89108
G1 X150.276 Y54.428 E29.92112
G1 X151.105 Y54.787 E29.95117
G1 X151.898 Y55.217 E29.98117
G1 X152.651 Y55.717 E30.01123
G1 X153.356 Y56.28 E30.04124
G1 X154.009 Y56.905 E30.07131
G1 X154.604 Y57.584 E30.10133
G1 X155.137 Y58.313 E30.13137
G1 X155.603 Y59.087 E30.16142
G1 X155.998 Y59.899 E30.19145
G1 X156.321 Y60.742 E30.22148
G1 X156.567 Y61.611 E30.25152
G1 X156.736 Y62.498 E30.28155
G1 X156.837 Y63.67 E30.32067
G1 X156.85 Y64.277 E30.34087
G1 X156.849 Y69.397 E30.51116
G1 X156.838 Y70.111 E30.53491
G1 X156.756 Y71.251 E30.57292
G1 X156.674 Y71.888 E30.59429
G1 X156.367 Y74.581 E30.68444
G1 X156.154 Y77.094 E30.76832
G1 X156.01 Y79.602 E30.85187
G1 X155.937 Y82.166 E30.93719
G1 X155.937 Y84.7 E31.02147
G1 X156.008 Y87.234 E31.10578
G1 X156.15 Y89.764 E31.19006
G1 X156.367 Y92.321 E31.27541
G1 X156.657 Y94.873 E31.36084
G1 X157.085 Y98.179 E31.47172
G1 X157.48 Y100.692 E31.55632
G1 X157.95 Y103.208 E31.64145
G1 X158.468 Y105.616 E31.72338
G1 X159.087 Y108.125 E31.80933
G1 X159.772 Y110.606 E31.89493
G1 X160.538 Y113.1 E31.98171
G1 X160.838 Y114.032 E32.01427
G1 X161.077 Y114.903 E32.04432
G1 X161.238 Y115.792 E32.07436
G1 X161.325 Y116.849 E32.10964
G1 X161.34 Y117.488 E32.1309
G1 X161.339 Y154.548 E33.36352
G1 X161.33 Y155.275 E33.3877
G1 X161.279 Y156.177 E33.41775
G1 X161.148 Y157.071 E33.4478
G1 X160.939 Y157.949 E33.47782
G1 X160.653 Y158.806 E33.50787
G1 X160.292 Y159.634 E33.53791
G1 X159.86 Y160.426 E33.56792
G1 X159.359 Y161.178 E33.59797
G1 X158.793 Y161.882 E33.62802
G1 X158.168 Y162.533 E33.65803
G1 X157.487 Y163.127 E33.68809
G1 X156.756 Y163.658 E33.71814
G1 X155.982 Y164.122 E33.74815
G1 X155.169 Y164.516 E33.7782
G1 X154.325 Y164.836 E33.80822
G1 X153.455 Y165.081 E33.83829
G1 X152.568 Y165.247 E33.8683
G1 X151.417 Y165.345 E33.90672
G1 X150.81 Y165.358 E33.92691
G1 X131.676 Y165.357 E34.56331
G1 X130.96 Y165.345 E34.58713
G1 X130.059 Y165.289 E34.61716
G1 X129.166 Y165.155 E34.64719
G1 X128.295 Y164.944 E34.677
G1 X125.947 Y164.264 E34.7583
G1 X123.518 Y163.632 E34.84178
G1 X121.022 Y163.058 E34.92696
G1 X118.528 Y162.557 E35.01157
G1 X116.034 Y162.131 E35.09572
G1 X113.533 Y161.774 E35.17975
G1 X110.976 Y161.483 E35.26535
G1 X108.484 Y161.271 E35.34853
G1 X105.922 Y161.126 E35.43388
G1 X103.364 Y161.053 E35.51899
G1 X102.045 Y161.044 E35.56286
G1 X93.61 Y161.044 E35.84341
G1 X92.764 Y161.033 E35.87155
G1 X91.862 Y160.98 E35.90161
G1 X90.969 Y160.848 E35.93163
G1 X90.09 Y160.637 E35.9617
G1 X89.234 Y160.349 E35.99173
G1 X88.407 Y159.987 E36.02176
G1 X87.615 Y159.553 E36.0518
G1 X86.865 Y159.05 E36.08183
G1 X85.973 Y158.313 E36.12032
G1 X85.518 Y157.891 E36.14096
G1 X84.283 Y156.71 E36.19779
G1 X82.371 Y154.983 E36.28349
G1 X80.452 Y153.345 E36.3674
G1 X78.476 Y151.753 E36.4518
G1 X76.461 Y150.221 E36.53599
G1 X74.374 Y148.726 E36.62138
G1 X72.29 Y147.319 E36.70501
G1 X70.113 Y145.939 E36.79074
G1 X67.974 Y144.666 E36.87353
G1 X65.723 Y143.412 E36.95923
G1 X63.502 Y142.254 E37.04254
G1 X61.197 Y141.135 E37.12776
G1 X58.885 Y140.093 E37.21211
G1 X56.525 Y139.107 E37.29718
G1 X54.112 Y138.179 E37.38316
G1 X52.08 Y137.457 E37.45489
G1 X51.243 Y137.118 E37.48492
G1 X50.44 Y136.705 E37.51496
G1 X49.676 Y136.223 E37.545
G1 X48.958 Y135.675 E37.57504
G1 X48.291 Y135.066 E37.60508
G1 X47.681 Y134.4 E37.63512
G1 X47.132 Y133.683 E37.66516
G1 X46.648 Y132.92 E37.69521
G1 X46.234 Y132.118 E37.72523
G1 X45.893 Y131.282 E37.75526
G1 X45.627 Y130.419 E37.7853
G1 X45.438 Y129.536 E37.81533
G1 X45.328 Y128.639 E37.84539
G1 X45.302 Y128.163 E37.86124
G1 X45.287 Y127.524 E37.8825
G1 X45.288 Y90.416 E39.11672
G1 X45.298 Y89.714 E39.14007
