;FLAVOR:Marlin
;TIME:4427
;Filament used: 0.855037m
;Layer height: 0.1
;MINX:91.27
;MINY:99.355
;MINZ:0.3
;MAXX:138.732
;MAXY:132.654
;MAXZ:19
;TARGET_MACHINE.NAME:Creality Ender-3 Pro
;Generated with Cura_SteamEngine 5.5.0
M82 ;absolute extrusion mode
START_PRINT BED_TEMP=40.0 EXTRUDER_TEMP=230
G92 E0
G92 E0
G1 F1500 E-6.5
;LAYER_COUNT:188
;LAYER:0
M107
G0 F6000 X96.046 Y105.978 Z0.3
;TYPE:SKIRT
G1 F1500 E0
G1 F1200 X97.145 Y105.024 E0.07261
G1 X97.524 Y104.738 E0.09629
G1 X98.283 Y104.213 E0.14234
G1 X98.744 Y103.923 E0.16951
G1 X99.848 Y103.314 E0.23241
G1 X101.405 Y102.568 E0.31855
G1 X103.766 Y101.406 E0.44983
G1 X105.402 Y100.563 E0.54165
G1 X106.304 Y100.151 E0.59112
G1 X107.222 Y99.827 E0.63969
G1 X108.166 Y99.584 E0.68832
G1 X109.126 Y99.427 E0.73685
G1 X110.027 Y99.358 E0.78194
G1 X110.811 Y99.356 E0.82105
G1 X111.847 Y99.393 E0.87277
G1 X114.437 Y99.448 E1.00201
G1 X116.974 Y99.429 E1.12859
G1 X119.221 Y99.355 E1.24075
G1 X120.194 Y99.369 E1.2893
G1 X121.164 Y99.468 E1.33795
G1 X122.12 Y99.653 E1.38653
G1 X123.056 Y99.922 E1.43511
G1 X123.899 Y100.244 E1.48013
G1 X124.509 Y100.53 E1.51375
G1 X126.337 Y101.452 E1.61589
G1 X127.398 Y101.999 E1.67544
G1 X130.116 Y103.3 E1.82578
G1 X131.119 Y103.836 E1.88252
G1 X131.587 Y104.121 E1.90985
G1 X132.629 Y104.843 E1.9731
G1 X133.065 Y105.185 E2.00074
G1 X133.773 Y105.792 E2.04727
G1 X134.243 Y106.259 E2.08033
G1 X134.627 Y106.663 E2.10813
G1 X135.134 Y107.239 E2.14642
G1 X135.708 Y107.972 E2.19286
G1 X135.937 Y108.29 E2.21242
G1 X136.498 Y109.153 E2.26377
G1 X136.719 Y109.531 E2.28561
G1 X137.169 Y110.388 E2.3339
G1 X137.377 Y110.831 E2.35832
G1 X137.724 Y111.656 E2.40297
G1 X138.049 Y112.616 E2.45354
G1 X138.197 Y113.131 E2.48027
G1 X138.461 Y114.297 E2.53992
G1 X138.566 Y114.918 E2.57134
G1 X138.704 Y116.081 E2.62977
G1 X138.732 Y117.176 E2.68441
G1 X138.72 Y117.743 E2.71271
G1 X138.663 Y118.665 E2.75879
G1 X138.617 Y119.089 E2.78007
G1 X138.505 Y119.865 E2.81919
G1 X138.304 Y120.823 E2.86802
G1 X138.223 Y121.138 E2.88425
G1 X137.998 Y121.897 E2.92375
G1 X137.824 Y122.411 E2.95082
G1 X137.36 Y123.561 E3.01269
G1 X136.987 Y124.315 E3.05466
G1 X136.759 Y124.735 E3.0785
G1 X136.211 Y125.638 E3.1312
G1 X135.927 Y126.058 E3.15649
G1 X135.335 Y126.851 E3.20586
G1 X135.059 Y127.186 E3.22752
G1 X134.355 Y127.96 E3.27972
G1 X134.037 Y128.277 E3.30212
G1 X133.295 Y128.951 E3.35213
G1 X132.902 Y129.275 E3.37754
G1 X132.078 Y129.891 E3.42887
G1 X131.69 Y130.152 E3.4522
G1 X130.841 Y130.667 E3.50174
G1 X130.482 Y130.862 E3.52212
G1 X129.549 Y131.313 E3.57382
G1 X129.065 Y131.518 E3.60004
G1 X128.119 Y131.867 E3.65035
G1 X127.557 Y132.044 E3.67974
G1 X126.296 Y132.358 E3.74458
G1 X125.883 Y132.435 E3.76554
G1 X125.018 Y132.565 E3.80918
G1 X123.875 Y132.643 E3.86633
G1 X123.297 Y132.654 E3.89517
G1 X122.402 Y132.633 E3.93984
G1 X119.309 Y132.435 E4.09446
G1 X116.798 Y132.349 E4.21981
G1 X114.273 Y132.336 E4.34579
G1 X111.777 Y132.392 E4.47034
G1 X109.235 Y132.52 E4.59733
G1 X107.977 Y132.616 E4.66027
G1 X107.414 Y132.642 E4.68839
G1 X106.81 Y132.654 E4.71853
G1 X105.756 Y132.623 E4.77113
G1 X105.298 Y132.586 E4.79406
G1 X104.336 Y132.464 E4.84244
G1 X103.878 Y132.385 E4.86562
G1 X102.853 Y132.157 E4.91801
G1 X102.295 Y132.002 E4.9469
G1 X101.219 Y131.645 E5.00346
G1 X100.217 Y131.208 E5.058
G1 X99.642 Y130.924 E5.09
G1 X98.684 Y130.39 E5.14472
G1 X98.273 Y130.132 E5.16893
G1 X97.4 Y129.529 E5.22186
G1 X96.483 Y128.762 E5.2815
G1 X96.035 Y128.345 E5.31204
G1 X95.335 Y127.632 E5.36189
G1 X95.03 Y127.288 E5.38482
G1 X94.374 Y126.476 E5.4369
G1 X94.121 Y126.13 E5.45829
G1 X93.587 Y125.322 E5.50661
G1 X93.319 Y124.867 E5.53295
G1 X92.831 Y123.945 E5.585
G1 X92.579 Y123.406 E5.61468
G1 X92.146 Y122.331 E5.6725
G1 X92.05 Y122.049 E5.68736
G1 X91.816 Y121.259 E5.72847
G1 X91.666 Y120.671 E5.75874
G1 X91.438 Y119.498 E5.81836
G1 X91.385 Y119.102 E5.83829
G1 X91.309 Y118.304 E5.87828
G1 X91.279 Y117.783 E5.90432
G1 X91.27 Y116.76 E5.95536
G1 X91.288 Y116.295 E5.97858
G1 X91.414 Y115.01 E6.04299
G1 X91.491 Y114.521 E6.06769
G1 X91.689 Y113.564 E6.11644
G1 X91.802 Y113.127 E6.13896
G1 X92.05 Y112.305 E6.1818
G1 X92.212 Y111.839 E6.20641
G1 X92.61 Y110.855 E6.25937
G1 X92.791 Y110.467 E6.28073
G1 X93.192 Y109.698 E6.324
G1 X93.469 Y109.216 E6.35173
G1 X94.132 Y108.197 E6.41238
G1 X94.413 Y107.815 E6.43604
G1 X94.9 Y107.201 E6.47514
G1 X95.112 Y106.954 E6.49138
G1 X95.717 Y106.304 E6.53568
G1 X96.046 Y105.978 E6.55879
G0 F6000 X96.328 Y106.262
G1 F1200 X97.386 Y105.343 E6.62871
G1 X97.751 Y105.067 E6.65154
G1 X98.496 Y104.552 E6.69672
G1 X98.957 Y104.262 E6.72389
G1 X100.021 Y103.675 E6.78452
G1 X101.578 Y102.929 E6.87065
G1 X103.943 Y101.765 E7.00216
G1 X105.569 Y100.927 E7.09342
G1 X106.438 Y100.528 E7.14113
G1 X107.322 Y100.214 E7.18793
G1 X108.231 Y99.979 E7.23477
G1 X109.157 Y99.826 E7.2816
G1 X110.058 Y99.757 E7.32668
G1 X110.797 Y99.756 E7.36355
G1 X111.833 Y99.793 E7.41527
G1 X114.432 Y99.848 E7.54496
G1 X116.987 Y99.829 E7.67243
G1 X119.216 Y99.755 E7.7837
G1 X120.154 Y99.767 E7.8305
G1 X121.089 Y99.861 E7.87738
G1 X122.01 Y100.038 E7.92417
G1 X122.913 Y100.296 E7.97103
G1 X123.756 Y100.618 E8.01605
G1 X124.329 Y100.887 E8.04763
G1 X126.154 Y101.808 E8.14961
G1 X127.215 Y102.355 E8.20917
G1 X129.314 Y103.366 E8.3254
G1 X129.928 Y103.653 E8.35922
G1 X130.911 Y104.178 E8.41481
G1 X131.359 Y104.45 E8.44096
G1 X132.382 Y105.158 E8.50303
G1 X132.805 Y105.489 E8.52983
G1 X133.513 Y106.096 E8.57635
G1 X133.953 Y106.534 E8.60733
G1 X134.327 Y106.928 E8.63443
G1 X134.819 Y107.486 E8.67155
G1 X135.383 Y108.206 E8.71718
G1 X135.612 Y108.524 E8.73673
G1 X136.153 Y109.355 E8.7862
G1 X136.365 Y109.717 E8.80713
G1 X136.807 Y110.558 E8.85453
G1 X137.008 Y110.986 E8.87812
G1 X137.355 Y111.811 E8.92277
G1 X137.665 Y112.727 E8.97101
G1 X137.807 Y113.22 E8.99661
G1 X138.067 Y114.364 E9.05514
G1 X138.169 Y114.966 E9.0856
G1 X138.304 Y116.091 E9.14213
G1 X138.332 Y117.168 E9.19588
G1 X138.321 Y117.718 E9.22332
G1 X138.265 Y118.622 E9.26851
G1 X138.221 Y119.032 E9.28908
G1 X138.113 Y119.783 E9.32694
G1 X137.916 Y120.724 E9.3749
G1 X137.839 Y121.025 E9.3904
G1 X137.619 Y121.769 E9.42911
G1 X137.453 Y122.262 E9.45506
G1 X137.002 Y123.383 E9.51535
G1 X136.635 Y124.124 E9.5566
G1 X136.407 Y124.544 E9.58044
G1 X135.88 Y125.414 E9.63119
G1 X135.606 Y125.819 E9.65558
G1 X135.026 Y126.597 E9.704
G1 X134.763 Y126.917 E9.72466
G1 X134.073 Y127.677 E9.77588
G1 X133.768 Y127.981 E9.79736
G1 X133.04 Y128.643 E9.84645
G1 X132.662 Y128.955 E9.8709
G1 X131.855 Y129.559 E9.92119
G1 X131.482 Y129.81 E9.94362
G1 X130.649 Y130.316 E9.99225
G1 X130.308 Y130.502 E10.01163
G1 X129.393 Y130.945 E10.06234
G1 X128.926 Y131.143 E10.08765
G1 X127.998 Y131.486 E10.13701
G1 X127.46 Y131.656 E10.16516
G1 X126.223 Y131.965 E10.22877
G1 X125.824 Y132.039 E10.24902
G1 X124.959 Y132.169 E10.29266
G1 X123.867 Y132.243 E10.34726
G1 X123.306 Y132.254 E10.37525
G1 X122.428 Y132.234 E10.41907
G1 X119.323 Y132.035 E10.5743
G1 X116.812 Y131.949 E10.69964
G1 X114.266 Y131.936 E10.82667
G1 X111.768 Y131.992 E10.95132
G1 X109.205 Y132.122 E11.07936
G1 X107.958 Y132.216 E11.14175
G1 X107.406 Y132.242 E11.16932
G1 X106.822 Y132.254 E11.19846
G1 X105.788 Y132.224 E11.25007
G1 X105.348 Y132.189 E11.27209
G1 X104.404 Y132.07 E11.31956
G1 X103.965 Y131.994 E11.34178
G1 X102.96 Y131.771 E11.39314
G1 X102.421 Y131.622 E11.42104
G1 X101.345 Y131.265 E11.4776
G1 X100.394 Y130.849 E11.52939
G1 X99.837 Y130.575 E11.56036
G1 X98.897 Y130.051 E11.61405
G1 X98.5 Y129.802 E11.63743
G1 X97.657 Y129.222 E11.68848
G1 X96.756 Y128.469 E11.74706
G1 X96.308 Y128.052 E11.7776
G1 X95.634 Y127.366 E11.82557
G1 X95.341 Y127.037 E11.84755
G1 X94.697 Y126.24 E11.89868
G1 X94.455 Y125.909 E11.91913
G1 X93.921 Y125.101 E11.96745
G1 X93.672 Y124.68 E11.99185
G1 X93.193 Y123.776 E12.04289
G1 X92.95 Y123.256 E12.07153
G1 X92.525 Y122.202 E12.12823
G1 X92.434 Y121.935 E12.1423
G1 X92.2 Y121.145 E12.18341
G1 X92.059 Y120.595 E12.21173
G1 X91.831 Y119.422 E12.27135
G1 X91.783 Y119.064 E12.28937
G1 X91.708 Y118.281 E12.32861
G1 X91.679 Y117.779 E12.3537
G1 X91.67 Y116.775 E12.40379
G1 X91.688 Y116.31 E12.42701
G1 X91.809 Y115.072 E12.48907
G1 X91.883 Y114.602 E12.5128
G1 X92.081 Y113.645 E12.56156
G1 X92.185 Y113.242 E12.58233
G1 X92.428 Y112.436 E12.62432
G1 X92.583 Y111.989 E12.64793
G1 X92.981 Y111.005 E12.70088
G1 X93.146 Y110.652 E12.72032
G1 X93.539 Y109.897 E12.76279
G1 X93.804 Y109.434 E12.7894
G1 X94.454 Y108.434 E12.84891
G1 X94.726 Y108.064 E12.87182
G1 X95.204 Y107.462 E12.91017
G1 X95.416 Y107.215 E12.92641
G1 X95.999 Y106.588 E12.96912
G1 X96.328 Y106.262 E12.99223
G0 F6000 X96.61 Y106.546
G1 F1200 X97.628 Y105.662 E13.05949
G1 X97.979 Y105.396 E13.08146
G1 X98.709 Y104.891 E13.12575
G1 X99.17 Y104.601 E13.15292
G1 X100.194 Y104.036 E13.21127
G1 X101.751 Y103.29 E13.2974
G1 X104.12 Y102.124 E13.42913
G1 X105.752 Y101.283 E13.52073
G1 X106.573 Y100.905 E13.56582
G1 X107.423 Y100.601 E13.61086
G1 X108.297 Y100.374 E13.65591
G1 X109.188 Y100.225 E13.70098
G1 X110.089 Y100.156 E13.74606
G1 X110.783 Y100.156 E13.78069
G1 X111.819 Y100.193 E13.83241
G1 X114.427 Y100.248 E13.96255
G1 X117 Y100.229 E14.09092
G1 X119.212 Y100.155 E14.20134
G1 X120.115 Y100.165 E14.24639
G1 X121.014 Y100.254 E14.29146
G1 X121.901 Y100.423 E14.33651
G1 X122.77 Y100.67 E14.38158
G1 X123.613 Y100.992 E14.4266
G1 X124.149 Y101.244 E14.45615
G1 X125.971 Y102.164 E14.55798
G1 X127.032 Y102.711 E14.61754
G1 X129.14 Y103.726 E14.73426
G1 X129.74 Y104.006 E14.7673
G1 X130.704 Y104.52 E14.8218
G1 X131.132 Y104.779 E14.84676
G1 X132.136 Y105.473 E14.90765
G1 X132.545 Y105.793 E14.93356
G1 X133.231 Y106.38 E14.9786
G1 X133.663 Y106.809 E15.00898
G1 X134.027 Y107.193 E15.03537
G1 X134.504 Y107.733 E15.07132
G1 X135.058 Y108.44 E15.11613
G1 X135.287 Y108.758 E15.13568
G1 X135.808 Y109.557 E15.18327
G1 X136.011 Y109.903 E15.20328
G1 X136.445 Y110.728 E15.24979
G1 X136.639 Y111.141 E15.27256
G1 X136.986 Y111.966 E15.31721
G1 X137.281 Y112.838 E15.36313
G1 X137.417 Y113.309 E15.38759
G1 X137.673 Y114.431 E15.44501
G1 X137.772 Y115.014 E15.47451
G1 X137.904 Y116.102 E15.52919
G1 X137.932 Y117.16 E15.58199
G1 X137.922 Y117.693 E15.60859
G1 X137.867 Y118.58 E15.65293
G1 X137.825 Y118.975 E15.67274
G1 X137.717 Y119.726 E15.7106
G1 X137.528 Y120.625 E15.75643
G1 X137.455 Y120.912 E15.7712
G1 X137.24 Y121.642 E15.80917
G1 X137.082 Y122.113 E15.83395
G1 X136.644 Y123.205 E15.89265
G1 X136.283 Y123.933 E15.93319
G1 X136.055 Y124.353 E15.95704
G1 X135.548 Y125.19 E16.00586
G1 X135.285 Y125.58 E16.02933
G1 X134.717 Y126.343 E16.07678
G1 X134.467 Y126.648 E16.09646
G1 X133.79 Y127.394 E16.14672
G1 X133.499 Y127.685 E16.16725
G1 X132.785 Y128.335 E16.21542
G1 X132.422 Y128.635 E16.23891
G1 X131.631 Y129.227 E16.2882
G1 X131.274 Y129.468 E16.30969
G1 X130.457 Y129.965 E16.3574
G1 X130.133 Y130.142 E16.37582
G1 X129.236 Y130.577 E16.42556
G1 X128.787 Y130.768 E16.4499
G1 X127.877 Y131.105 E16.49832
G1 X127.363 Y131.268 E16.52522
G1 X126.15 Y131.572 E16.58761
G1 X125.764 Y131.644 E16.6072
G1 X124.932 Y131.77 E16.64918
G1 X123.859 Y131.843 E16.70283
G1 X123.315 Y131.854 E16.72998
G1 X122.454 Y131.835 E16.77295
G1 X119.337 Y131.635 E16.92877
G1 X116.826 Y131.549 E17.05412
G1 X114.259 Y131.536 E17.18219
G1 X111.759 Y131.592 E17.30695
G1 X109.175 Y131.724 E17.43603
G1 X107.939 Y131.816 E17.49787
G1 X107.398 Y131.842 E17.52489
G1 X106.833 Y131.854 E17.55308
G1 X105.819 Y131.825 E17.60369
G1 X105.398 Y131.792 E17.62476
G1 X104.472 Y131.676 E17.67132
G1 X104.052 Y131.604 E17.69258
G1 X103.066 Y131.385 E17.74297
G1 X102.547 Y131.242 E17.76983
G1 X101.471 Y130.885 E17.82639
G1 X100.57 Y130.49 E17.87547
G1 X100.032 Y130.226 E17.90537
G1 X99.109 Y129.712 E17.95807
G1 X98.726 Y129.472 E17.98062
G1 X97.914 Y128.915 E18.02975
G1 X97.013 Y128.162 E18.08833
G1 X96.593 Y127.772 E18.11693
G1 X95.932 Y127.099 E18.16399
G1 X95.652 Y126.786 E18.18494
G1 X95.02 Y126.004 E18.2351
G1 X94.789 Y125.688 E18.25463
G1 X94.255 Y124.88 E18.30295
G1 X94.025 Y124.493 E18.32541
G1 X93.555 Y123.606 E18.37549
G1 X93.321 Y123.106 E18.40303
G1 X92.904 Y122.073 E18.45861
G1 X92.813 Y121.806 E18.47268
G1 X92.587 Y121.046 E18.51224
G1 X92.452 Y120.519 E18.53938
G1 X92.224 Y119.346 E18.599
G1 X92.181 Y119.026 E18.61511
G1 X92.107 Y118.258 E18.6536
G1 X92.079 Y117.775 E18.67774
G1 X92.07 Y116.79 E18.72688
G1 X92.088 Y116.325 E18.7501
G1 X92.204 Y115.134 E18.8098
G1 X92.275 Y114.683 E18.83258
G1 X92.473 Y113.726 E18.88133
G1 X92.568 Y113.357 E18.90034
G1 X92.806 Y112.567 E18.94151
G1 X92.954 Y112.139 E18.9641
G1 X93.352 Y111.155 E19.01705
G1 X93.501 Y110.836 E19.03462
G1 X93.886 Y110.095 E19.07628
G1 X94.139 Y109.652 E19.10173
G1 X94.776 Y108.671 E19.16009
G1 X95.039 Y108.313 E19.18225
G1 X95.508 Y107.722 E19.21989
G1 X95.709 Y107.487 E19.23532
G1 X96.281 Y106.872 E19.27722
G1 X96.61 Y106.546 E19.30033
G1 F1500 E12.80033
G0 F6000 X108.622 Y111.625
G1 F1500 E19.30033
G1 F1200 X109.105 Y111.266 E19.33035
G1 X110.314 Y110.624 E19.39865
G1 X110.377 Y110.703 E19.40369
G1 X110.462 Y110.734 E19.4082
G1 X111.328 Y110.838 E19.45172
G1 X111.336 Y110.838 E19.45212
G1 X112.031 Y110.894 E19.4869
G1 X112.041 Y110.895 E19.4874
G1 X113.175 Y110.927 E19.544
G1 X113.184 Y110.927 E19.54445
G1 X118.267 Y110.858 E19.79807
G1 X118.278 Y110.858 E19.79861
G1 X118.838 Y110.82 E19.82662
G1 X118.847 Y110.819 E19.82707
G1 X119.536 Y110.739 E19.86167
G1 X119.649 Y110.686 E19.8679
G1 X119.69 Y110.623 E19.87165
G1 X120.896 Y111.265 E19.93981
G1 X121.378 Y111.625 E19.96983
G1 X121.654 Y111.901 E19.9893
G1 X121.08 Y112.119 E20.01993
G1 X121.063 Y112.126 E20.02085
G1 X120.635 Y112.336 E20.04463
G1 X120.62 Y112.345 E20.04551
G1 X120.092 Y112.662 E20.07623
G1 X120.068 Y112.678 E20.07767
G1 X119.557 Y113.096 E20.11061
G1 X119.543 Y113.109 E20.11156
G1 X119.225 Y113.426 E20.13396
G1 X119.215 Y113.436 E20.13467
G1 X119.002 Y113.68 E20.15083
G1 X118.992 Y113.693 E20.15165
G1 X118.659 Y114.143 E20.17957
G1 X118.648 Y114.16 E20.18058
G1 X118.401 Y114.578 E20.20481
G1 X118.392 Y114.594 E20.20572
G1 X118.169 Y115.062 E20.23159
G1 X118.162 Y115.081 E20.2326
G1 X117.996 Y115.544 E20.25714
G1 X117.99 Y115.561 E20.25804
G1 X117.861 Y116.063 E20.28389
G1 X117.857 Y116.083 E20.28491
G1 X117.781 Y116.586 E20.31029
G1 X117.779 Y116.604 E20.3112
G1 X117.749 Y117.1 E20.33599
G1 X117.749 Y117.12 E20.33698
G1 X117.769 Y117.642 E20.36305
G1 X117.771 Y117.66 E20.36395
G1 X117.839 Y118.169 E20.38957
G1 X117.842 Y118.188 E20.39053
G1 X117.85 Y118.223 E20.39232
G1 X117.757 Y118.223 E20.39696
G1 X117.696 Y118.232 E20.40004
G1 X117.442 Y118.313 E20.41334
G1 X117.424 Y118.32 E20.4143
G1 X116.892 Y118.548 E20.44318
G1 X116.873 Y118.558 E20.44425
G1 X116.133 Y118.976 E20.48665
G1 X115.424 Y119.268 E20.5249
G1 X115.102 Y119.303 E20.54106
G1 X114.327 Y119.224 E20.57993
G1 X113.985 Y119.097 E20.59813
G1 X113.312 Y118.651 E20.63841
G1 X113.304 Y118.647 E20.63886
G1 X112.941 Y118.428 E20.66001
G1 X112.921 Y118.417 E20.66114
G1 X112.557 Y118.251 E20.6811
G1 X112.474 Y118.233 E20.68534
G1 X112.396 Y118.233 E20.68923
G1 X112.391 Y118.225 E20.6897
G1 X112.263 Y118.178 E20.69651
G1 X112.161 Y118.178 E20.70159
G1 X112.227 Y117.67 E20.72715
G1 X112.229 Y117.652 E20.72806
G1 X112.251 Y117.127 E20.75427
G1 X112.251 Y117.107 E20.75527
G1 X112.221 Y116.609 E20.78016
G1 X112.219 Y116.591 E20.78106
G1 X112.142 Y116.086 E20.80655
G1 X112.138 Y116.067 E20.80752
G1 X112.014 Y115.576 E20.83278
G1 X112.008 Y115.557 E20.83378
G1 X111.84 Y115.09 E20.85854
G1 X111.833 Y115.073 E20.85945
G1 X111.616 Y114.613 E20.88483
G1 X111.607 Y114.597 E20.88574
G1 X111.344 Y114.15 E20.91162
G1 X111.333 Y114.133 E20.91263
G1 X110.986 Y113.658 E20.94198
G1 X110.971 Y113.64 E20.94315
G1 X110.642 Y113.287 E20.96722
G1 X110.63 Y113.275 E20.96807
G1 X110.251 Y112.933 E20.99354
G1 X110.236 Y112.92 E20.99453
G1 X109.816 Y112.608 E21.02063
G1 X109.801 Y112.598 E21.02153
G1 X109.389 Y112.348 E21.04557
G1 X109.373 Y112.339 E21.04649
G1 X108.941 Y112.127 E21.0705
G1 X108.924 Y112.12 E21.07141
G1 X108.345 Y111.902 E21.10228
G1 X108.622 Y111.625 E21.12182
