; generated by PrusaSlicer 2.7.0+win64 on 2023-12-04 at 23:18:26 UTC

; 

; external perimeters extrusion width = 0.45mm
; perimeters extrusion width = 0.45mm
; infill extrusion width = 0.45mm
; solid infill extrusion width = 0.45mm
; top infill extrusion width = 0.40mm
; support material extrusion width = 0.35mm
; first layer extrusion width = 0.42mm

M73 P0 R107
M190 S40 ; set bed temperature and wait for it to be reached
M104 S240 ; set temperature
;TYPE:Custom
START_PRINT EXTRUDER_TEMP=240 BED_TEMP=40 Z_OFFSET=0.2
M109 S240 ; set temperature and wait for it to be reached
G21 ; set units to millimeters
G90 ; use absolute coordinates
M83 ; use relative distances for extrusion
; Filament gcode
M107
;LAYER_CHANGE
;Z:0.3
;HEIGHT:0.3
;BEFORE_LAYER_CHANGE
G92 E0
;0.3


G10 ; retract
G1 Z.3 F7800
;AFTER_LAYER_CHANGE
;0.3
G1 X96.977 Y94.932
G11 ; unretract
;TYPE:Skirt/Brim
;WIDTH:0.42
G1 F1800
G1 X97.888 Y94.042 E.05649
G1 X99.103 Y93.086 E.06857
G1 X100.076 Y92.474 E.05098
G1 X102.133 Y91.515 E.10067
G1 X103.199 Y91.171 E.04968
G1 X104.389 Y90.899 E.05414
G1 X106.49 Y90.674 E.09372
G1 X122.975 Y90.676 E.73119
G1 X124.362 Y90.72 E.06155
G1 X125.594 Y90.872 E.05506
G1 X126.719 Y91.113 E.05103
G1 X127.911 Y91.48 E.05532
G1 X128.987 Y91.919 E.05155
G1 X130.121 Y92.507 E.05666
G1 X131.138 Y93.156 E.05351
G1 X132.277 Y94.061 E.06453
G1 X133.133 Y94.9 E.05316
G1 X133.957 Y95.866 E.05632
G1 X134.628 Y96.813 E.05148
G1 X135.263 Y97.905 E.05603
G1 X135.754 Y98.956 E.05145
G1 X136.183 Y100.138 E.05577
G1 X136.48 Y101.258 E.05139
G1 X136.692 Y102.493 E.05558
G1 X136.786 Y103.646 E.05131
G1 X136.777 Y104.898 E.05553
G1 X136.664 Y106.064 E.05196
G1 X134.174 Y129.595 E1.04954
G1 X133.971 Y131.04 E.06472
G1 X133.404 Y132.969 E.08918
G1 X132.907 Y134.056 E.05301
G1 X131.82 Y135.748 E.0892
G1 X131.038 Y136.65 E.05295
G1 X129.518 Y137.967 E.08921
G1 X128.514 Y138.612 E.05293
G1 X126.685 Y139.448 E.0892
G1 X125.539 Y139.784 E.05297
G1 X123.997 Y140.056 E.06945
G1 X107.034 Y141.122 E.75387
G1 X105.823 Y141.121 E.05371
G1 X103.827 Y140.832 E.08946
G1 X102.666 Y140.49 E.05368
G1 X100.833 Y139.649 E.08945
G1 X99.817 Y138.993 E.05364
G1 X98.297 Y137.669 E.08941
G1 X97.508 Y136.753 E.05362
G1 X96.424 Y135.055 E.08935
G1 X95.925 Y133.955 E.05358
G1 X95.364 Y132.022 E.08928
G1 X95.145 Y130.341 E.07519
G1 X93.362 Y104.837 E1.13399
G1 X93.354 Y103.682 E.05123
G1 X93.457 Y102.434 E.05554
G1 X93.653 Y101.294 E.05131
G1 X93.976 Y100.08 E.05572
G1 X94.372 Y98.992 E.05136
G1 X94.906 Y97.85 E.05592
G1 X95.49 Y96.848 E.05144
G1 X96.223 Y95.815 E.05618
G1 X96.938 Y94.978 E.04883
G1 X97.209 Y95.209 F7800
G1 F1800
G1 X97.248 Y95.163 E.00267
G1 X98.113 Y94.318 E.05364
G1 X99.317 Y93.371 E.06794
G1 X100.241 Y92.789 E.04844
G1 X102.242 Y91.853 E.09798
G1 X103.308 Y91.51 E.04967
G1 X104.438 Y91.251 E.05142
G1 X106.49 Y91.029 E.09155
G1 X122.975 Y91.032 E.73119
G1 X124.349 Y91.075 E.06097
G1 X125.52 Y91.22 E.05234
G1 X126.645 Y91.461 E.05103
G1 X127.776 Y91.809 E.05249
G1 X128.852 Y92.249 E.05156
G1 X129.93 Y92.807 E.05384
G1 X130.946 Y93.456 E.05347
G1 X132.028 Y94.316 E.0613
G1 X132.884 Y95.154 E.05313
G1 X133.667 Y96.071 E.05348
G1 X134.338 Y97.019 E.05152
G1 X134.941 Y98.056 E.05321
G1 X135.432 Y99.107 E.05145
G1 X135.839 Y100.229 E.05294
G1 X136.136 Y101.349 E.05139
G1 X136.338 Y102.522 E.05279
G1 X136.431 Y103.675 E.05131
G1 X136.423 Y104.864 E.05274
G1 X136.31 Y106.03 E.05196
G1 X133.82 Y129.557 E1.04936
G1 X133.619 Y130.989 E.06414
G1 X133.081 Y132.822 E.08473
G1 X132.584 Y133.909 E.05301
G1 X131.551 Y135.515 E.0847
G1 X130.769 Y136.417 E.05295
G1 X129.326 Y137.668 E.08471
G1 X128.321 Y138.313 E.05297
G1 X126.584 Y139.106 E.08469
G1 X125.438 Y139.443 E.05298
G1 X123.974 Y139.701 E.06594
G1 X107.034 Y140.766 E.75285
G1 X105.824 Y140.766 E.05367
G1 X103.927 Y140.491 E.08502
G1 X102.767 Y140.149 E.05364
G1 X101.026 Y139.35 E.08497
G1 X100.01 Y138.694 E.05364
G1 X98.566 Y137.437 E.08492
G1 X97.777 Y136.521 E.05362
G1 X96.748 Y134.909 E.08483
G1 X96.249 Y133.808 E.05362
G1 X95.716 Y131.972 E.0848
G1 X95.5 Y130.316 E.07407
G1 X93.717 Y104.835 E1.13297
G1 X93.71 Y103.68 E.05123
G1 X93.807 Y102.494 E.05278
G1 X94.004 Y101.355 E.05127
G1 X94.31 Y100.202 E.05291
G1 X94.706 Y99.114 E.05136
G1 X95.214 Y98.029 E.05314
G1 X95.797 Y97.027 E.05142
G1 X96.494 Y96.046 E.05338
G1 X97.17 Y95.254 E.04619
G1 X97.44 Y95.485 F7800
G1 F1800
G1 X97.518 Y95.394 E.00532
G1 X98.338 Y94.594 E.05081
G1 X99.53 Y93.655 E.06731
G1 X100.405 Y93.104 E.04586
G1 X102.351 Y92.192 E.09532
G1 X103.418 Y91.848 E.04973
G1 X104.487 Y91.603 E.04864
G1 X106.49 Y91.385 E.08937
G1 X122.975 Y91.387 E.73119
G1 X124.337 Y91.431 E.06044
G1 X126.57 Y91.808 E.10045
G1 X127.642 Y92.139 E.04976
G1 X128.718 Y92.578 E.05155
G1 X129.738 Y93.106 E.05094
G1 X130.755 Y93.756 E.05354
G1 X131.779 Y94.57 E.05802
G1 X132.635 Y95.408 E.05313
G1 X133.377 Y96.277 E.05068
G1 X134.048 Y97.224 E.05148
G1 X134.619 Y98.207 E.05042
G1 X135.11 Y99.257 E.05141
G1 X135.496 Y100.32 E.05016
G1 X135.792 Y101.44 E.05138
G1 X135.983 Y102.551 E.05
G1 X136.077 Y103.704 E.05131
G1 X136.069 Y104.83 E.04994
G1 X135.956 Y105.996 E.05196
G1 X133.467 Y129.52 E1.04923
G1 X133.267 Y130.939 E.06356
G1 X132.757 Y132.674 E.08021
G1 X132.261 Y133.761 E.053
G1 X131.283 Y135.282 E.08021
G1 X130.501 Y136.184 E.05295
G1 X129.134 Y137.368 E.08021
G1 X128.129 Y138.014 E.05299
G1 X126.484 Y138.765 E.08021
G1 X125.338 Y139.102 E.05298
G1 X123.951 Y139.346 E.06246
G1 X107.034 Y140.411 E.75184
G1 X105.824 Y140.41 E.05367
G1 X104.028 Y140.15 E.08049
G1 X102.867 Y139.808 E.05368
G1 X101.219 Y139.051 E.08044
G1 X100.203 Y138.395 E.05364
G1 X98.836 Y137.205 E.08039
G1 X98.046 Y136.289 E.05365
G1 X97.071 Y134.762 E.08036
G1 X96.573 Y133.662 E.05356
G1 X96.069 Y131.923 E.08031
G1 X95.855 Y130.291 E.07301
G1 X94.073 Y104.833 E1.13195
G1 X94.065 Y103.678 E.05123
G1 X94.158 Y102.555 E.04998
G1 X94.354 Y101.415 E.05131
G1 X94.644 Y100.324 E.05007
G1 X95.04 Y99.235 E.0514
G1 X95.521 Y98.208 E.0503
G1 X96.105 Y97.206 E.05144
G1 X96.764 Y96.277 E.05052
G1 X97.401 Y95.531 E.04351
G10 ; retract
G1 X97.401 Y95.531 F7800
G1 X105.096 Y127.344
G11 ; unretract
;TYPE:Support material
G1 F1800
G1 X105.403 Y127.652 E.01929
G1 X108.097 Y127.652 E.11949
G1 X108.404 Y127.344 E.01929
G1 X108.404 Y126.137 E.05354
G1 X109.203 Y126.648 E.04207
G1 X109.994 Y127.556 E.05341
G1 X110.498 Y128.652 E.05351
G1 X110.674 Y129.846 E.05353
G1 X110.505 Y131.042 E.05358
G1 X110.006 Y132.143 E.05362
G1 X109.215 Y133.058 E.05365
G1 X108.198 Y133.714 E.05368
G1 X107.037 Y134.055 E.05367
G1 X105.827 Y134.054 E.05367
G1 X104.666 Y133.712 E.05368
G1 X103.65 Y133.056 E.05364
G1 X102.861 Y132.14 E.05362
G1 X102.363 Y131.039 E.0536
G1 X102.195 Y129.844 E.05353
G1 X102.37 Y128.651 E.05348
G1 X102.874 Y127.556 E.05347
G1 X103.665 Y126.649 E.05338
G1 X104.678 Y126 E.05336
G1 X105.096 Y125.878 E.01931
G1 X105.096 Y127.291 E.06267
G1 X110.258 Y131.198 F7800
G1 F1800
G1 X110.258 Y129.221 E.08769
G1 X110.188 Y128.744 E.02138
G1 X109.863 Y128.038 E.03447
G1 X109.863 Y131.682 E.16163
G1 X109.733 Y131.968 E.01393
G1 X109.468 Y132.276 E.01802
G1 X109.468 Y127.44 E.2145
G1 X109.073 Y126.986 E.02669
G1 X109.073 Y132.733 E.25491
G1 X108.678 Y133.024 E.02176
G1 X108.678 Y127.523 E.244
G1 X108.283 Y127.918 E.02478
G1 X108.283 Y133.278 E.23774
G1 X107.888 Y133.471 E.0195
G1 X107.888 Y127.972 E.24391
G1 X107.492 Y127.972 E.01756
G1 X107.492 Y133.587 E.24905
G1 X107.097 Y133.704 E.01827
G1 X107.097 Y127.972 E.25424
G1 X106.702 Y127.972 E.01752
G1 X106.702 Y133.735 E.25562
G1 X106.307 Y133.735 E.01752
G1 X106.307 Y127.972 E.25562
G1 X105.912 Y127.972 E.01752
G1 X105.912 Y133.734 E.25557
G1 X105.517 Y133.629 E.01813
G1 X105.517 Y127.972 E.25092
G1 X105.271 Y127.972 E.01091
G1 X105.122 Y127.823 E.00935
G1 X105.122 Y133.512 E.25233
G1 X104.727 Y133.37 E.01862
G1 X104.727 Y126.349 E.31142
G1 X104.331 Y126.602 E.02084
G1 X104.331 Y133.115 E.28888
G1 X103.936 Y132.859 E.02088
G1 X103.936 Y126.855 E.26631
G1 X103.541 Y127.278 E.02567
G1 X103.541 Y132.439 E.22892
G1 X103.146 Y131.98 E.02686
G1 X103.146 Y127.732 E.18842
G1 X102.751 Y128.59 E.0419
G1 X102.751 Y131.509 E.12947
G10 ; retract
G1 X115.523 Y107.939 F7800
G11 ; unretract
G1 F1800
G1 X115.993 Y107.96 E.02087
G1 X117.116 Y108.216 E.05109
G1 X118.176 Y108.669 E.05113
G1 X119.138 Y109.304 E.05113
G1 X119.97 Y110.1 E.05107
G1 X120.648 Y111.032 E.05112
G1 X121.148 Y112.071 E.05114
G1 X121.454 Y113.181 E.05107
G1 X121.557 Y114.329 E.05112
G1 X121.454 Y115.476 E.05108
G1 X121.148 Y116.587 E.05111
G1 X120.739 Y117.435 E.04176
G1 X121.268 Y118.051 E.03601
G1 X121.596 Y118.642 E.02998
G1 X121.596 Y123.921 E.23415
G1 X121.178 Y124.674 E.0382
G1 X121.417 Y124.898 E.01453
G1 X121.596 Y124.783 E.00944
G1 X121.596 Y127.344 E.11359
G1 X121.903 Y127.652 E.01929
G1 X124.597 Y127.652 E.11949
G1 X124.904 Y127.344 E.01929
G1 X124.904 Y124.762 E.11452
G1 X126.481 Y126.582 E.10681
G1 X126.977 Y127.669 E.053
G1 X127.146 Y128.851 E.05296
G1 X126.976 Y130.033 E.05297
G1 X126.722 Y130.589 E.02711
G1 X126.48 Y131.119 E.02584
G1 X125.698 Y132.022 E.05298
G1 X124.693 Y132.667 E.05297
G1 X123.548 Y133.004 E.05294
G1 X122.353 Y133.004 E.053
G1 X121.208 Y132.667 E.05294
G1 X120.203 Y132.022 E.05297
G1 X119.42 Y131.119 E.05301
G1 X118.924 Y130.033 E.05296
G1 X118.754 Y128.851 E.05297
G1 X118.924 Y127.669 E.05297
G1 X119.657 Y126.062 E.07834
G1 X118.59 Y126.585 E.05271
G1 X117.482 Y126.872 E.05077
G1 X116.339 Y126.93 E.05076
G1 X115.145 Y126.733 E.05368
G1 X114.693 Y126.87 E.02095
G1 X113.558 Y126.982 E.05059
G1 X112.422 Y126.87 E.05063
G1 X111.33 Y126.539 E.05061
G1 X110.323 Y126.001 E.05064
G1 X109.441 Y125.277 E.05061
G1 X108.717 Y124.395 E.05061
G1 X108.404 Y123.811 E.02939
G1 X108.404 Y118.51 E.23512
G1 X108.717 Y117.926 E.02939
G1 X109.352 Y117.151 E.04444
G1 X108.935 Y116.039 E.05268
G1 X108.729 Y114.905 E.05112
G1 X108.729 Y113.753 E.0511
G1 X108.935 Y112.619 E.05112
G1 X109.34 Y111.54 E.05112
G1 X109.931 Y110.551 E.0511
G1 X110.689 Y109.683 E.05111
G1 X111.59 Y108.965 E.0511
G1 X112.604 Y108.419 E.05108
G1 X113.7 Y108.063 E.05111
G1 X114.842 Y107.908 E.05112
G1 X115.469 Y107.936 E.02784
G10 ; retract
G1 X115.469 Y107.936 F7800
G1 X126.459 Y130.78
G11 ; unretract
G1 F1800
G1 X126.459 Y127.305 E.15413
G1 X126.064 Y126.589 E.03627
G1 X126.064 Y131.111 E.20057
G1 X125.669 Y131.567 E.02676
G1 X125.669 Y126.133 E.24102
G1 X125.273 Y125.677 E.02679
G1 X125.273 Y131.914 E.27664
G1 X124.878 Y132.168 E.02083
G1 X124.878 Y127.823 E.19272
G1 X124.729 Y127.972 E.00935
G1 X124.483 Y127.972 E.01091
G1 X124.483 Y132.395 E.19618
G1 X124.088 Y132.511 E.01826
G1 X124.088 Y127.972 E.20133
G1 X123.693 Y127.972 E.01752
G1 X123.693 Y132.627 E.20647
G1 X123.298 Y132.684 E.0177
G1 X123.298 Y127.972 E.209
G1 X122.903 Y127.972 E.01752
G1 X122.903 Y132.684 E.209
G1 X122.508 Y132.684 E.01752
G1 X122.508 Y127.972 E.209
G1 X122.112 Y127.972 E.01756
G1 X122.112 Y132.599 E.20523
G1 X121.717 Y132.483 E.01826
G1 X121.717 Y127.918 E.20248
G1 X121.322 Y127.523 E.02478
G1 X121.322 Y132.361 E.21459
G1 X120.927 Y132.107 E.02083
G1 X120.927 Y117.9 E.63015
G1 X120.927 Y116.676 F7800
G1 F1800
G1 X120.927 Y112.474 E.18638
G1 X120.532 Y111.53 E.04539
G1 X120.532 Y131.853 E.90142
G1 X120.137 Y131.457 E.02481
G1 X120.137 Y110.874 E.91296
G1 X119.742 Y110.33 E.02982
G1 X119.742 Y125.664 E.68014
G1 X119.346 Y125.858 E.01956
G1 X119.346 Y109.946 E.70577
G1 X118.951 Y109.569 E.02422
G1 X118.951 Y126.051 E.73106
G1 X118.556 Y126.245 E.01952
G1 X118.556 Y109.304 E.75141
G1 X118.161 Y109.043 E.021
G1 X118.161 Y126.366 E.76836
G1 X117.766 Y126.468 E.01809
G1 X117.766 Y108.842 E.7818
G1 X117.371 Y108.673 E.01906
G1 X117.371 Y126.557 E.79324
G1 X116.976 Y126.577 E.01754
G1 X116.976 Y108.512 E.80127
G1 X116.581 Y108.422 E.01797
M73 P0 R106
G1 X116.581 Y126.597 E.80615
G1 X116.185 Y126.583 E.01758
G1 X116.185 Y108.332 E.80952
G1 X115.79 Y108.271 E.01773
G1 X115.79 Y126.522 E.80952
G1 X115.395 Y126.462 E.01772
G1 X115.395 Y108.253 E.80766
G1 X115 Y108.236 E.01754
G1 X115 Y126.443 E.80757
G1 X114.605 Y126.557 E.01824
G1 X114.605 Y108.263 E.81143
G1 X114.21 Y108.317 E.01768
G1 X114.21 Y126.596 E.81076
G1 X113.815 Y126.635 E.01761
G1 X113.815 Y108.37 E.81014
G1 X113.419 Y108.491 E.01837
G1 X113.419 Y126.647 E.80531
G1 X113.024 Y126.608 E.01761
G1 X113.024 Y108.619 E.7979
G1 X112.629 Y108.769 E.01874
G1 X112.629 Y126.569 E.78952
G1 X112.234 Y126.479 E.01797
G1 X112.234 Y108.982 E.77608
G1 X111.839 Y109.194 E.01988
G1 X111.839 Y126.359 E.76135
G1 X111.444 Y126.237 E.01834
G1 X111.444 Y109.491 E.74277
G1 X111.049 Y109.806 E.02241
G1 X111.049 Y126.026 E.71944
G1 X110.654 Y125.815 E.01986
G1 X110.654 Y110.21 E.69216
G1 X110.258 Y110.662 E.02665
G1 X110.258 Y125.534 E.65964
G1 X109.863 Y125.21 E.02266
G1 X109.863 Y111.288 E.61751
G1 X109.468 Y112.109 E.04041
G1 X109.468 Y116.549 E.19694
G1 X109.245 Y115.953 E.02823
G1 X109.073 Y115.007 E.04265
G1 X109.073 Y112.754 E.09993
G10 ; retract
G1 X119.742 Y131.246 F7800
G11 ; unretract
G1 F1800
G1 X119.742 Y126.647 E.20399
G1 X119.346 Y127.513 E.04224
G1 X119.346 Y130.572 E.13568
G10 ; retract
G1 X119.346 Y130.572 F7800
G1 X109.468 Y125.058
G11 ; unretract
G1 F1800
G1 X109.468 Y117.515 E.33457
G1 X109.073 Y117.996 E.02761
G1 X109.073 Y124.577 E.2919
G10 ; retract
G1 X109.073 Y124.577 F7800
G1 X107.631 Y97.781
G11 ; unretract
G1 F1800
G1 X108.756 Y98.023 E.05104
G1 X109.835 Y98.464 E.0517
G1 X110.846 Y99.115 E.05334
G1 X111.699 Y99.949 E.05291
G1 X112.37 Y100.896 E.05148
G1 X112.861 Y101.946 E.05141
G1 X113.158 Y103.064 E.05131
G1 X113.253 Y104.217 E.05131
G1 X113.142 Y105.366 E.0512
G1 X112.668 Y107.06 E.07802
G1 X111.896 Y107.708 E.04471
G1 X111.574 Y108.16 E.02462
G1 X110.722 Y109.055 E.05481
G1 X109.572 Y109.784 E.06039
G1 X108.405 Y110.241 E.05559
G1 X108.404 Y107.909 E.10344
G1 X108.096 Y107.602 E.01929
G1 X105.404 Y107.602 E.1194
G1 X105.096 Y107.909 E.01929
G1 X105.095 Y110.206 E.10188
G1 X104.089 Y109.777 E.04851
G1 X102.921 Y109.008 E.06203
G1 X101.082 Y107.096 E.11767
G1 X100.639 Y105.925 E.05553
G1 X100.428 Y104.791 E.05116
G1 X100.421 Y103.635 E.05128
G1 X100.617 Y102.496 E.05126
G1 X101.013 Y101.407 E.0514
G1 X101.597 Y100.405 E.05144
G1 X102.351 Y99.522 E.0515
G1 X103.343 Y98.74 E.05603
G1 X104.3 Y98.241 E.04787
G1 X105.367 Y97.897 E.04973
G1 X106.489 Y97.741 E.05024
G1 X107.578 Y97.779 E.04833
G1 X112.629 Y106.604 F7800
G1 F1800
G1 X112.629 Y102.319 E.19006
G1 X112.234 Y101.361 E.04596
G1 X112.234 Y107.006 E.25038
G1 X111.839 Y107.339 E.02292
G1 X111.839 Y100.7 E.29447
G1 X111.444 Y100.147 E.03014
G1 X111.444 Y107.791 E.33905
G1 X111.049 Y108.247 E.02676
G1 X111.049 Y99.761 E.37639
G1 X110.654 Y99.375 E.0245
G1 X110.654 Y108.663 E.41197
G1 X110.258 Y108.97 E.02222
G1 X110.258 Y99.118 E.43698
G1 X109.863 Y98.863 E.02085
G1 X109.863 Y109.221 E.45943
G1 X109.468 Y109.471 E.02073
G1 X109.468 Y98.66 E.47952
G1 X109.073 Y98.498 E.01894
G1 X109.073 Y109.636 E.49402
G1 X108.724 Y109.772 E.01661
G1 X108.661 Y98.33 E.50752
G1 X108.283 Y98.249 E.01715
G1 X108.283 Y107.335 E.40301
G1 X107.888 Y107.281 E.01768
G1 X107.888 Y98.164 E.40438
G1 X107.492 Y98.097 E.01781
G1 X107.492 Y107.281 E.40735
G1 X107.097 Y107.281 E.01752
G1 X107.097 Y98.083 E.40798
G1 X106.702 Y98.068 E.01753
G1 X106.702 Y107.281 E.40864
G1 X106.307 Y107.281 E.01752
G1 X106.307 Y98.089 E.40771
G1 X105.912 Y98.144 E.01769
G1 X105.912 Y107.281 E.40527
G1 X105.517 Y107.281 E.01752
G1 X105.517 Y98.2 E.40279
G1 X105.122 Y98.313 E.01822
G1 X105.122 Y107.431 E.40443
G1 X104.776 Y107.776 E.02167
G1 X104.776 Y109.722 E.08631
G1 X104.727 Y98.44 E.50042
G1 X104.331 Y98.586 E.01872
G1 X104.331 Y109.533 E.48555
G1 X103.936 Y109.318 E.01995
G1 X103.936 Y98.792 E.46688
G1 X103.541 Y98.998 E.01976
G1 X103.541 Y109.074 E.44692
G1 X103.146 Y108.777 E.02192
G1 X103.146 Y99.288 E.42088
G1 X102.751 Y99.609 E.02258
G1 X102.751 Y108.403 E.39006
G1 X102.356 Y107.978 E.02574
G1 X102.356 Y100.009 E.35346
G1 X101.961 Y100.472 E.02699
G1 X101.961 Y107.536 E.31332
G1 X101.566 Y107.132 E.02506
G1 X101.566 Y101.095 E.26777
G1 X101.17 Y101.911 E.04023
M73 P1 R106
