; generated by PrusaSlicer 2.7.0+win64 on 2023-12-07 at 02:16:46 UTC

; 

; external perimeters extrusion width = 0.45mm
; perimeters extrusion width = 0.45mm
; infill extrusion width = 0.45mm
; solid infill extrusion width = 0.45mm
; top infill extrusion width = 0.40mm
; support material extrusion width = 0.35mm
; first layer extrusion width = 0.42mm

M73 P0 R71
M190 S50 ; set bed temperature and wait for it to be reached
M104 S205 ; set temperature
;TYPE:Custom
START_PRINT EXTRUDER_TEMP=205 BED_TEMP=50 Z_OFFSET=0.1
M109 S205 ; set temperature and wait for it to be reached
G21 ; set units to millimeters
G90 ; use absolute coordinates
M83 ; use relative distances for extrusion
; Filament gcode
M107
;LAYER_CHANGE
;Z:0.3
;HEIGHT:0.3
;BEFORE_LAYER_CHANGE
G92 E0
;0.3


G10 ; retract
G1 Z.3 F7800
;AFTER_LAYER_CHANGE
;0.3
G1 X99.155 Y98.85
G11 ; unretract
;TYPE:Skirt/Brim
;WIDTH:0.42
G1 F1800
G1 X99.321 Y98.684 E.01041
G1 X100.002 Y98.123 E.03913
G1 X101.152 Y97.351 E.06144
G1 X101.93 Y96.934 E.03915
G1 X103.209 Y96.402 E.06144
G1 X104.052 Y96.145 E.03909
G1 X105.411 Y95.873 E.06147
G1 X106.992 Y95.75 E.07034
G1 X123.694 Y95.783 E.74082
G1 X124.565 Y95.869 E.03882
G1 X125.913 Y96.136 E.06095
G1 X126.764 Y96.393 E.03943
G1 X128.055 Y96.926 E.06195
G1 X128.833 Y97.342 E.03913
G1 X129.984 Y98.112 E.06142
G1 X130.666 Y98.671 E.03911
G1 X131.646 Y99.651 E.06147
G1 X132.206 Y100.333 E.03914
G1 X132.975 Y101.485 E.06144
G1 X133.388 Y102.256 E.03879
G1 X133.915 Y103.526 E.06099
G1 X134.172 Y104.37 E.03913
G1 X134.444 Y105.728 E.06143
G1 X134.533 Y106.613 E.03945
G1 X134.534 Y108.009 E.06192
G1 X134.448 Y108.887 E.03913
G1 X134.18 Y110.237 E.06105
G1 X129.604 Y125.385 E.70187
G1 X128.612 Y127.634 E.10903
G1 X126 Y132.67 E.25163
G1 X125.444 Y133.57 E.04692
G1 X124.767 Y134.501 E.05106
G1 X123.933 Y135.455 E.0562
G1 X123.101 Y136.25 E.05104
G1 X122.111 Y137.04 E.05618
G1 X121.15 Y137.674 E.05107
G1 X120.034 Y138.274 E.0562
G1 X118.976 Y138.727 E.05105
G1 X117.771 Y139.118 E.05619
G1 X116.649 Y139.374 E.05105
G1 X115.394 Y139.544 E.05617
G1 X114.244 Y139.596 E.05106
G1 X112.978 Y139.539 E.05621
G1 X111.837 Y139.385 E.05107
G1 X110.602 Y139.103 E.05619
G1 X109.507 Y138.747 E.05107
G1 X108.343 Y138.249 E.05616
G1 X107.329 Y137.704 E.05106
G1 X106.271 Y137.006 E.05622
G1 X105.371 Y136.288 E.05107
G1 X104.456 Y135.413 E.05615
G1 X103.698 Y134.546 E.05108
G1 X102.953 Y133.521 E.0562
G1 X102.363 Y132.533 E.05104
G1 X101.813 Y131.392 E.05618
G1 X101.253 Y129.852 E.07268
G1 X99.491 Y123.954 E.27303
G1 X95.759 Y110.021 E.63978
G1 X95.466 Y108.009 E.09018
G1 X95.466 Y106.623 E.06148
G1 X95.552 Y105.752 E.03882
G1 X95.819 Y104.404 E.06095
G1 X96.074 Y103.56 E.03911
G1 X96.602 Y102.279 E.06146
G1 X97.016 Y101.5 E.03913
G1 X97.784 Y100.347 E.06145
G1 X98.343 Y99.665 E.03911
G1 X99.113 Y98.892 E.04839
G1 X99.363 Y99.142 F7800
G1 F1800
G1 X99.547 Y98.958 E.01154
G1 X100.228 Y98.397 E.03913
G1 X101.321 Y97.665 E.05835
G1 X102.098 Y97.248 E.03911
G1 X103.313 Y96.743 E.05836
G1 X104.156 Y96.485 E.0391
G1 X105.446 Y96.227 E.05835
G1 X106.992 Y96.105 E.06879
G1 X123.659 Y96.137 E.73926
G1 X124.53 Y96.223 E.03882
G1 X125.811 Y96.476 E.05792
G1 X126.662 Y96.733 E.03943
G1 X127.887 Y97.24 E.0588
G1 X128.665 Y97.656 E.03913
G1 X129.759 Y98.386 E.05834
G1 X130.441 Y98.946 E.03914
G1 X131.371 Y99.876 E.05834
G1 X131.931 Y100.558 E.03914
G1 X132.662 Y101.652 E.05836
G1 X133.074 Y102.424 E.03881
G1 X133.575 Y103.63 E.05792
G1 X133.832 Y104.473 E.03909
G1 X134.091 Y105.763 E.05836
G1 X134.179 Y106.648 E.03945
G1 X134.18 Y107.974 E.05881
G1 X134.094 Y108.852 E.03913
G1 X133.839 Y110.134 E.05798
G1 X129.264 Y125.282 E.70186
G1 X128.297 Y127.47 E.1061
G1 X125.684 Y132.506 E.25165
G1 X125.156 Y133.361 E.04457
G1 X124.479 Y134.292 E.05106
G1 X123.688 Y135.198 E.05335
G1 X122.855 Y135.993 E.05107
G1 X121.915 Y136.743 E.05334
G1 X120.954 Y137.377 E.05107
G1 X119.895 Y137.947 E.05334
G1 X118.836 Y138.4 E.05109
G1 X117.692 Y138.771 E.05334
G1 X116.57 Y139.028 E.05105
G1 X115.378 Y139.189 E.05335
G1 X114.228 Y139.241 E.05106
G1 X113.026 Y139.187 E.05337
G1 X111.885 Y139.032 E.05107
G1 X110.712 Y138.765 E.05336
G1 X109.617 Y138.409 E.05107
G1 X108.511 Y137.936 E.05335
G1 X107.497 Y137.391 E.05106
G1 X106.493 Y136.728 E.05337
G1 X105.593 Y136.01 E.05107
G1 X104.723 Y135.179 E.05336
G1 X103.966 Y134.312 E.05105
G1 X103.259 Y133.339 E.05335
G1 X102.668 Y132.351 E.05106
G1 X102.146 Y131.267 E.05336
G1 X101.594 Y129.751 E.07156
G1 X99.832 Y123.852 E.27307
G1 X96.102 Y109.929 E.63933
G1 X95.82 Y107.974 E.08761
G1 X95.82 Y106.658 E.05837
G1 X95.906 Y105.787 E.03882
G1 X96.159 Y104.507 E.05787
G1 X96.414 Y103.662 E.03915
G1 X96.916 Y102.446 E.05835
G1 X97.33 Y101.667 E.03913
G1 X98.059 Y100.572 E.05835
G1 X98.618 Y99.89 E.03911
G1 X99.321 Y99.185 E.04416
G1 X99.572 Y99.435 F7800
G1 F1800
G1 X99.773 Y99.233 E.01264
G1 X100.454 Y98.672 E.03913
G1 X101.489 Y97.978 E.05527
G1 X102.266 Y97.561 E.03911
G1 X103.416 Y97.083 E.05524
G1 X104.26 Y96.825 E.03915
G1 X105.481 Y96.58 E.05524
G1 X106.992 Y96.461 E.06723
G1 X123.624 Y96.491 E.73771
G1 X125.708 Y96.817 E.09356
G1 X126.559 Y97.074 E.03943
G1 X127.719 Y97.553 E.05567
G1 X128.497 Y97.969 E.03913
G1 X129.533 Y98.661 E.05526
G1 X130.215 Y99.221 E.03914
G1 X131.096 Y100.102 E.05526
G1 X131.656 Y100.784 E.03914
G1 X132.348 Y101.82 E.05526
G1 X133.234 Y103.733 E.09351
G1 X133.492 Y104.577 E.03915
G1 X133.737 Y105.799 E.05528
G1 X133.825 Y106.683 E.0394
G1 X133.826 Y107.939 E.05571
G1 X133.74 Y108.817 E.03913
G1 X133.499 Y110.032 E.05494
G1 X128.923 Y125.18 E.70187
G1 X127.981 Y127.306 E.10314
G1 X125.368 Y132.342 E.25165
G1 X124.868 Y133.151 E.04218
G1 X124.191 Y134.083 E.05109
G1 X123.442 Y134.941 E.05052
G1 X122.61 Y135.736 E.05104
G1 X121.719 Y136.446 E.05053
G1 X120.758 Y137.08 E.05107
G1 X119.755 Y137.62 E.05053
G1 X118.696 Y138.073 E.05109
G1 X117.613 Y138.425 E.05051
G1 X116.491 Y138.681 E.05105
G1 X115.362 Y138.834 E.05053
G1 X114.212 Y138.885 E.05106
G1 X113.073 Y138.834 E.05057
G1 X111.933 Y138.68 E.05102
G1 X110.822 Y138.426 E.05055
G1 X109.727 Y138.071 E.05106
G1 X108.68 Y137.623 E.05051
G1 X107.666 Y137.078 E.05106
G1 X106.715 Y136.45 E.05055
G1 X105.815 Y135.732 E.05107
G1 X104.991 Y134.945 E.05054
G1 X104.234 Y134.078 E.05105
G1 X103.564 Y133.157 E.05052
G1 X102.973 Y132.168 E.0511
G1 X102.479 Y131.142 E.05051
G1 X101.934 Y129.649 E.0705
G1 X100.173 Y123.751 E.27302
G1 X96.446 Y109.837 E.63891
G1 X96.174 Y107.939 E.08505
G1 X96.174 Y106.693 E.05527
G1 X96.5 Y104.609 E.09356
G1 X96.755 Y103.765 E.03911
G1 X97.23 Y102.613 E.05527
G1 X97.644 Y101.835 E.03909
G1 X98.335 Y100.798 E.05527
G1 X98.893 Y100.115 E.03912
G1 X99.529 Y99.477 E.03996
G10 ; retract
G1 X99.529 Y99.477 F7800
G1 X115.97 Y103.055
G11 ; unretract
;TYPE:Support material
G1 F1800
G1 X116.491 Y103.14 E.02341
G1 X117.553 Y103.564 E.05072
G1 X118.499 Y104.205 E.05068
G1 X118.814 Y104.538 E.02033
G1 X118.369 Y105.369 E.04181
G1 X118.078 Y106.31 E.04369
G1 X117.976 Y107.342 E.046
G1 X118.068 Y108.271 E.04141
G1 X118.349 Y109.215 E.04369
G1 X118.809 Y110.086 E.04369
G1 X119.43 Y110.851 E.0437
G1 X120.231 Y111.508 E.04595
G1 X121.102 Y111.968 E.04369
G1 X121.996 Y112.239 E.04144
G1 X123.027 Y112.341 E.04595
G1 X123.956 Y112.249 E.04141
G1 X124.745 Y112.015 E.0365
G1 X124.9 Y113.096 E.04844
G1 X124.729 Y114.278 E.05297
G1 X124.232 Y115.364 E.05297
G1 X123.449 Y116.266 E.05298
G1 X123.026 Y116.537 E.02228
G1 X122.934 Y117.559 E.04551
G1 X122.677 Y118.49 E.04284
G1 X122.84 Y118.829 E.01668
G1 X123.146 Y119.939 E.05107
G1 X123.249 Y121.086 E.05108
G1 X123.146 Y122.232 E.05104
G1 X122.839 Y123.342 E.05108
G1 X122.34 Y124.379 E.05104
G1 X121.663 Y125.31 E.05106
G1 X120.625 Y126.241 E.06185
G1 X120.533 Y127.268 E.04573
G1 X120.226 Y128.378 E.05108
G1 X119.727 Y129.415 E.05104
G1 X119.05 Y130.346 E.05106
G1 X118.218 Y131.142 E.05107
G1 X117.257 Y131.776 E.05107
G1 X116.199 Y132.228 E.05103
G1 X115.076 Y132.485 E.0511
G1 X113.926 Y132.536 E.05106
G1 X112.786 Y132.382 E.05102
G1 X111.691 Y132.026 E.05107
G1 X110.677 Y131.481 E.05106
G1 X109.777 Y130.763 E.05107
G1 X109.019 Y129.896 E.05108
G1 X108.429 Y128.908 E.05104
G1 X108.024 Y127.83 E.05108
G1 X107.819 Y126.697 E.05107
G1 X107.818 Y125.546 E.05105
G1 X107.955 Y124.795 E.03386
G1 X107.258 Y123.998 E.04696
G1 X106.667 Y123.01 E.05106
G1 X106.263 Y121.932 E.05106
G1 X106.057 Y120.799 E.05108
G1 X106.126 Y119.25 E.06877
G1 X105.923 Y118.71 E.02559
G1 X105.718 Y117.577 E.05107
G1 X105.765 Y116.163 E.06275
G1 X105.215 Y115.529 E.03723
G1 X104.718 Y114.443 E.05297
G1 X104.546 Y113.263 E.05289
G1 X104.713 Y112.081 E.05295
G1 X104.828 Y111.829 E.01229
G1 X106.044 Y112.249 E.05706
G1 X106.973 Y112.341 E.04141
G1 X107.954 Y112.249 E.0437
G1 X108.946 Y111.949 E.04597
G1 X109.769 Y111.508 E.04141
G1 X110.534 Y110.887 E.0437
G1 X111.163 Y110.129 E.04369
G1 X111.631 Y109.263 E.04366
G1 X111.932 Y108.271 E.04598
G1 X112.024 Y107.29 E.0437
G1 X111.932 Y106.361 E.04141
G1 X111.651 Y105.417 E.04369
G1 X111.227 Y104.612 E.04036
G1 X112.108 Y103.859 E.05141
G1 X113.119 Y103.323 E.05076
G1 X114.22 Y103.017 E.05069
G1 X115.362 Y102.955 E.05073
G1 X115.917 Y103.046 E.02495
G10 ; retract
G1 X115.917 Y103.046 F7800
G1 X124.483 Y114.43
G11 ; unretract
G1 F1800
G1 X124.481 Y112.43 E.08871
G1 X124.088 Y112.549 E.01821
G1 X124.088 Y114.909 E.10468
G1 X123.693 Y115.496 E.03138
G1 X123.693 Y112.597 E.12858
G1 X123.298 Y112.636 E.01761
G1 X123.298 Y115.952 E.14708
G1 X122.903 Y116.236 E.02158
G1 X122.903 Y112.655 E.15883
G1 X122.508 Y112.616 E.01761
G1 X122.508 Y117.9 E.23437
G1 X122.336 Y118.521 E.02858
G1 X122.508 Y118.876 E.0175
G1 X122.508 Y123.293 E.19592
G1 X122.112 Y124.113 E.04039
G1 X122.112 Y112.578 E.51163
G1 X121.717 Y112.489 E.01796
G1 X121.717 Y124.691 E.54122
G1 X121.322 Y125.193 E.02833
G1 X121.322 Y112.37 E.56876
G1 X120.927 Y112.242 E.01842
G1 X120.927 Y125.571 E.59121
G1 X120.532 Y125.92 E.02338
G1 X120.532 Y112.032 E.616
G1 X120.137 Y111.821 E.01986
G1 X120.137 Y127.5 E.69544
G1 X119.742 Y128.647 E.05381
G1 X119.742 Y111.527 E.75935
G1 X119.346 Y111.203 E.02269
G1 X119.346 Y129.394 E.80686
G1 X118.951 Y129.938 E.02982
G1 X118.951 Y110.772 E.8501
G1 X118.556 Y110.284 E.02785
G1 X118.556 Y130.376 E.89118
G1 X118.161 Y130.754 E.02425
G1 X118.161 Y109.147 E.95837
G1 X122.903 Y122.511 F7800
G1 F1800
G1 X122.903 Y119.658 E.12654
G10 ; retract
G1 X122.903 Y119.658 F7800
G1 X118.161 Y105.485
G11 ; unretract
G1 F1800
G1 X118.161 Y104.363 E.04977
G1 X117.766 Y104.095 E.02117
G1 X117.766 Y131.057 E1.19589
G1 X117.371 Y131.318 E.021
G1 X117.371 Y103.836 E1.21896
G1 X116.976 Y103.678 E.01887
G1 X116.976 Y131.548 E1.23617
G1 X116.581 Y131.717 E.01906
G1 X116.581 Y103.521 E1.25063
G1 X116.404 Y103.45 E.00846
G1 X116.185 Y103.415 E.00984
G1 X116.185 Y131.886 E1.26283
G1 X115.79 Y131.993 E.01815
G1 X115.79 Y103.35 E1.27045
G1 X115.395 Y103.285 E.01776
G1 X115.395 Y132.084 E1.27737
G1 X115 Y132.168 E.01791
G1 X115 Y103.295 E1.28066
G1 X114.605 Y103.317 E.01755
G1 X114.605 Y132.185 E1.28043
G1 X114.21 Y132.203 E.01754
G1 X114.21 Y103.352 E1.27968
G1 X113.815 Y103.462 E.01819
G1 X113.815 Y132.198 E1.27458
G1 X113.419 Y132.145 E.01772
G1 X113.419 Y103.572 E1.26735
G1 X113.024 Y103.735 E.01895
G1 X113.024 Y132.091 E1.25773
G1 X112.629 Y131.994 E.01804
G1 X112.629 Y103.945 E1.24411
G1 X112.234 Y104.172 E.02021
G1 X112.234 Y131.866 E1.22836
G1 X111.839 Y131.738 E.01842
G1 X111.839 Y109.553 E.98401
G1 X111.444 Y110.284 E.03685
G1 X111.444 Y131.53 E.94236
G1 X111.049 Y131.317 E.01991
M73 P1 R71
G1 X111.049 Y110.772 E.91127
G1 X110.654 Y111.203 E.02593
G1 X110.654 Y131.053 E.88044
G1 X110.258 Y130.738 E.02244
G1 X110.258 Y111.527 E.8521
G1 X109.863 Y111.821 E.02184
G1 X109.863 Y130.375 E.82296
G1 X109.468 Y129.923 E.02663
G1 X109.468 Y112.032 E.79355
G1 X109.073 Y112.242 E.01984
G1 X109.073 Y129.362 E.75935
G1 X108.678 Y128.661 E.03569
G1 X108.678 Y112.37 E.72258
G1 X108.283 Y112.489 E.0183
G1 X108.283 Y128.063 E.69078
G10 ; retract
G1 X108.283 Y128.063 F7800
G1 X111.839 Y105.485
G11 ; unretract
G1 F1800
G1 X111.839 Y104.298 E.05265
G10 ; retract
G1 X111.839 Y104.298 F7800
G1 X107.888 Y124.475
G11 ; unretract
G1 F1800
G1 X107.888 Y112.578 E.52769
G1 X107.492 Y112.616 E.01765
G1 X107.492 Y123.767 E.4946
G1 X107.097 Y123.106 E.03415
G1 X107.097 Y112.655 E.46355
G1 X106.702 Y112.636 E.01754
G1 X106.702 Y122.192 E.42385
G1 X106.377 Y120.77 E.0647
G1 X106.377 Y119.7 E.04746
G1 X106.456 Y119.217 E.02171
G1 X106.307 Y118.822 E.01873
G1 X106.307 Y112.597 E.27611
G1 X105.912 Y112.549 E.01765
G1 X105.912 Y115.844 E.14615
G1 X105.517 Y115.388 E.02676
G1 X105.517 Y112.429 E.13125
G1 X105.122 Y112.309 E.01831
M73 P1 R70
G1 X105.122 Y114.941 E.11674
G10 ; retract
G1 X105.122 Y114.941 F7800
G1 X120.397 Y110.432
G11 ; unretract
;TYPE:External perimeter
;WIDTH:0.42
G1 F1800
G1 X120.057 Y110.142 E.01982
G1 X119.563 Y109.513 E.03547
G1 X119.2 Y108.8 E.03549
G1 X118.984 Y108.03 E.03547
G1 X118.921 Y107.233 E.03546
G1 X119.016 Y106.438 E.03551
G1 X119.264 Y105.678 E.03546
G1 X119.655 Y104.98 E.03549
G1 X120.175 Y104.372 E.03549
G1 X120.804 Y103.877 E.0355
G1 X121.517 Y103.515 E.03547
G1 X122.287 Y103.298 E.03548
G1 X123.085 Y103.236 E.0355
G1 X123.879 Y103.331 E.03547
G1 X124.64 Y103.579 E.0355
G1 X125.337 Y103.97 E.03545
G1 X125.945 Y104.49 E.03549
G1 X126.44 Y105.119 E.0355
G1 X126.802 Y105.832 E.03547
G1 X127.019 Y106.602 E.03548
G1 X127.086 Y107.349 E.03327
G1 X126.986 Y108.194 E.03774
G1 X126.739 Y108.954 E.03545
G1 X126.347 Y109.652 E.03551
G1 X125.827 Y110.26 E.03549
G1 X125.199 Y110.754 E.03544
G1 X124.485 Y111.117 E.03553
G1 X123.715 Y111.334 E.03548
G1 X122.918 Y111.396 E.03546
G1 X122.124 Y111.301 E.03547
G1 X121.363 Y111.053 E.0355
G1 X120.665 Y110.662 E.03549
G1 X120.442 Y110.471 E.01302
G1 X120.138 Y110.211 F7800
G1 X121.029 Y110.086
G1 F1800
G1 X120.602 Y109.74 E.02438
G1 X120.175 Y109.225 E.02967
G1 X119.857 Y108.637 E.02965
G1 X119.66 Y107.998 E.02966
G1 X119.591 Y107.333 E.02965
G1 X119.653 Y106.668 E.02962
G1 X119.844 Y106.027 E.02967
G1 X120.156 Y105.436 E.02964
G1 X120.577 Y104.917 E.02964
G1 X121.092 Y104.49 E.02967
G1 X121.68 Y104.172 E.02965
G1 X122.319 Y103.975 E.02966
G1 X122.984 Y103.906 E.02965
G1 X123.649 Y103.968 E.02962
G1 X124.29 Y104.159 E.02967
G1 X124.881 Y104.471 E.02964
G1 X125.4 Y104.892 E.02964
G1 X125.827 Y105.407 E.02967
G1 X126.145 Y105.995 E.02965
G1 X126.343 Y106.634 E.02967
G1 X126.411 Y107.299 E.02965
G1 X126.349 Y107.964 E.02962
G1 X126.159 Y108.605 E.02965
G1 X125.846 Y109.196 E.02966
G1 X125.425 Y109.715 E.02964
G1 X124.91 Y110.142 E.02967
G1 X124.322 Y110.46 E.02965
G1 X123.684 Y110.657 E.02962
G1 X123.019 Y110.726 E.02965
G1 X122.353 Y110.664 E.02967
G1 X121.712 Y110.473 E.02967
G1 X121.121 Y110.161 E.02964
G1 X121.076 Y110.124 E.00258
G1 X120.765 Y109.872 F7800
G1 X120.611 Y110.176
;TYPE:Perimeter
;WIDTH:0.381539
G1 F1800
G1 X120.317 Y109.928 E.01522
G1 X119.859 Y109.355 E.02902
G1 X119.522 Y108.703 E.02903
G1 X119.318 Y107.997 E.02907
G1 X119.256 Y107.266 E.02902
G1 X119.338 Y106.536 E.02906
G1 X119.561 Y105.836 E.02906
G1 X119.915 Y105.193 E.02904
G1 X120.389 Y104.632 E.02905
G1 X120.962 Y104.174 E.02902
G1 X121.615 Y103.837 E.02907
G1 X122.32 Y103.633 E.02903
G1 X123.052 Y103.571 E.02906
G1 X123.781 Y103.653 E.02902
G1 X124.481 Y103.875 E.02905
G1 X125.124 Y104.23 E.02905
G1 X125.685 Y104.703 E.02903
G1 X126.143 Y105.277 E.02905
G1 X126.48 Y105.929 E.02903
G1 X126.684 Y106.635 E.02907
;WIDTH:0.384019
G1 X126.75 Y107.316 E.02728
G1 X126.746 Y107.366 E.002
;WIDTH:0.381539
G1 X126.664 Y108.096 E.02906
G1 X126.442 Y108.796 E.02905
G1 X126.087 Y109.438 E.02902
G1 X125.614 Y110 E.02906
G1 X125.04 Y110.458 E.02905
G1 X124.388 Y110.795 E.02903
G1 X123.682 Y110.999 E.02907
G1 X122.951 Y111.061 E.02902
G1 X122.221 Y110.979 E.02906
G1 X121.521 Y110.757 E.02905
G1 X120.879 Y110.402 E.02902
G1 X120.657 Y110.215 E.01148
G10 ; retract
G1 X120.657 Y110.215 F7800
G1 X108.468 Y111.121
G11 ; unretract
;TYPE:External perimeter
;WIDTH:0.42
G1 F1800
G1 X107.713 Y111.334 E.0348
G1 X106.915 Y111.396 E.0355
