; generated by PrusaSlicer 2.7.1+win64 on 2024-01-22 at 08:33:55 UTC

; 

; external perimeters extrusion width = 0.45mm
; perimeters extrusion width = 0.45mm
; infill extrusion width = 0.45mm
; solid infill extrusion width = 0.45mm
; top infill extrusion width = 0.40mm
; support material extrusion width = 0.35mm
; first layer extrusion width = 0.42mm

; external perimeters extrusion width = 0.45mm
; perimeters extrusion width = 0.45mm
; infill extrusion width = 0.45mm
; solid infill extrusion width = 0.45mm
; top infill extrusion width = 0.40mm
; support material extrusion width = 0.35mm
; first layer extrusion width = 0.42mm

; external perimeters extrusion width = 0.45mm
; perimeters extrusion width = 0.45mm
; infill extrusion width = 0.45mm
; solid infill extrusion width = 0.45mm
; top infill extrusion width = 0.40mm
; support material extrusion width = 0.35mm
; first layer extrusion width = 0.42mm

M73 P0 R170
M190 S50 ; set bed temperature and wait for it to be reached
M104 S230 ; set temperature
;TYPE:Custom
START_PRINT EXTRUDER_TEMP=230 BED_TEMP=50 Z_OFFSET=0.1
M109 S230 ; set temperature and wait for it to be reached
G21 ; set units to millimeters
G90 ; use absolute coordinates
M83 ; use relative distances for extrusion
; Filament gcode
M107
;LAYER_CHANGE
;Z:0.3
;HEIGHT:0.3
;BEFORE_LAYER_CHANGE
G92 E0
;0.3


G10 ; retract
G1 Z.3 F7800
;AFTER_LAYER_CHANGE
;0.3
G1 X92.754 Y72.56
G11 ; unretract
;TYPE:Skirt/Brim
;WIDTH:0.42
G1 F1800
G1 X100.748 Y64.897 E.49117
G1 X101.878 Y64.022 E.06339
G1 X102.841 Y63.422 E.05033
G1 X104.124 Y62.793 E.06338
G1 X105.188 Y62.399 E.05033
G1 X106.572 Y62.041 E.06341
G1 X107.693 Y61.869 E.0503
G1 X127.582 Y59.99 E.8861
G1 X129.71 Y60.018 E.0944
G1 X130.965 Y60.188 E.05617
G1 X132.087 Y60.444 E.05105
G1 X133.291 Y60.835 E.05615
G1 X134.35 Y61.288 E.05109
G1 X135.464 Y61.887 E.0561
G1 X136.425 Y62.521 E.05107
G1 X137.416 Y63.31 E.05619
G1 X138.248 Y64.105 E.05104
G1 X139.082 Y65.058 E.05617
G1 X139.759 Y65.989 E.05106
G1 X140.409 Y67.076 E.05618
G1 X140.91 Y68.113 E.05108
G1 X141.355 Y69.298 E.05614
G1 X141.663 Y70.408 E.05109
G1 X141.89 Y71.654 E.05618
G1 X142.009 Y72.995 E.05971
G1 X144.781 Y116.875 E1.95017
G1 X144.66 Y119.113 E.09941
G1 X144.432 Y120.358 E.05614
G1 X143.97 Y121.952 E.07361
G1 X134.828 Y147.561 E1.20609
G1 X134.218 Y148.844 E.06301
G1 X133.389 Y150.211 E.07091
G1 X132.595 Y151.278 E.05899
G1 X131.834 Y152.121 E.05037
G1 X130.777 Y153.078 E.06324
G1 X129.847 Y153.763 E.05123
G1 X128.58 Y154.505 E.06513
G1 X127.523 Y154.986 E.05151
G1 X126.11 Y155.455 E.06604
G1 X124.975 Y155.704 E.05154
G1 X123.491 Y155.867 E.06622
G1 X106.101 Y155.838 E.77133
G1 X104.678 Y155.69 E.06346
G1 X103.565 Y155.459 E.05042
G1 X102.191 Y155.023 E.06394
G1 X101.151 Y154.573 E.05026
G1 X99.905 Y153.875 E.06335
G1 X98.97 Y153.219 E.05066
G1 X97.854 Y152.247 E.06564
G1 X97.111 Y151.449 E.04836
G1 X96.344 Y150.461 E.05548
G1 X95.101 Y148.389 E.10717
G1 X94.585 Y147.24 E.05587
G1 X85.434 Y120.788 E1.2415
G1 X85.162 Y119.751 E.04755
G1 X84.841 Y117.515 E.10019
G1 X84.516 Y102.657 E.65918
G1 X84.616 Y101.481 E.05235
G1 X87.469 Y84.795 E.75084
G1 X87.805 Y83.574 E.05617
G1 X91.052 Y75.118 E.40176
G1 X92.714 Y72.619 E.13312
G1 X93 Y72.816 F7800
G1 F1800
G1 X100.993 Y65.155 E.49108
G1 X102.067 Y64.324 E.06023
G1 X103.029 Y63.724 E.05029
G1 X104.248 Y63.126 E.06022
G1 X105.311 Y62.732 E.05028
G1 X106.626 Y62.392 E.06024
G1 X107.746 Y62.22 E.05026
G1 X127.615 Y60.344 E.88521
G1 X129.694 Y60.373 E.09222
G1 X130.886 Y60.535 E.05336
G1 X132.008 Y60.791 E.05105
G1 X133.151 Y61.162 E.0533
G1 X134.21 Y61.615 E.05109
G1 X135.269 Y62.184 E.05332
G1 X136.23 Y62.818 E.05107
G1 X137.17 Y63.567 E.05331
G1 X138.002 Y64.362 E.05104
G1 X138.794 Y65.267 E.05334
G1 X139.471 Y66.199 E.05109
G1 X140.089 Y67.23 E.05332
G1 X140.589 Y68.268 E.0511
G1 X141.013 Y69.393 E.05333
G1 X141.32 Y70.503 E.05108
G1 X141.536 Y71.686 E.05334
G1 X141.654 Y73.018 E.05931
G1 X144.426 Y116.898 E1.95017
G1 X144.306 Y119.081 E.09697
G1 X144.09 Y120.263 E.0533
G1 X143.636 Y121.833 E.07249
G1 X134.493 Y147.442 E1.2061
G1 X133.914 Y148.66 E.05982
G1 X133.085 Y150.027 E.07091
G1 X132.331 Y151.04 E.05601
G1 X131.57 Y151.883 E.05037
G1 X130.566 Y152.791 E.06004
G1 X129.636 Y153.476 E.05123
G1 X128.433 Y154.182 E.06187
G1 X127.375 Y154.662 E.05153
G1 X126.034 Y155.108 E.06268
G1 X124.899 Y155.357 E.05154
G1 X123.489 Y155.512 E.06292
G1 X106.102 Y155.482 E.7712
G1 X104.75 Y155.342 E.06029
G1 X103.637 Y155.111 E.05042
G1 X102.333 Y154.697 E.06068
G1 X101.293 Y154.246 E.05028
G1 X100.109 Y153.584 E.06017
G1 X99.174 Y152.928 E.05066
G1 X98.114 Y152.005 E.06234
G1 X97.372 Y151.206 E.04836
G1 X96.643 Y150.269 E.05266
G1 X95.411 Y148.215 E.10624
G1 X94.921 Y147.124 E.05305
G1 X85.77 Y120.672 E1.2415
G1 X85.512 Y119.687 E.04516
G1 X85.196 Y117.506 E.09775
G1 X84.871 Y102.657 E.65878
G1 X84.967 Y101.54 E.04973
G1 X87.819 Y84.859 E.75062
G1 X88.138 Y83.698 E.0534
G1 X91.384 Y75.245 E.40162
G1 X92.96 Y72.876 E.1262
G1 X93.246 Y73.073 F7800
G1 F1800
G1 X101.238 Y65.412 E.49104
G1 X102.255 Y64.625 E.05704
G1 X103.217 Y64.026 E.05026
G1 X104.371 Y63.459 E.05703
G1 X105.435 Y63.066 E.05031
G1 X106.68 Y62.744 E.05704
G1 X107.8 Y62.572 E.05026
G1 X127.648 Y60.698 E.88427
G1 X129.678 Y60.729 E.09005
G1 X130.806 Y60.882 E.05049
G1 X131.929 Y61.138 E.05109
G1 X133.012 Y61.489 E.0505
G1 X134.07 Y61.942 E.05105
G1 X135.073 Y62.481 E.0505
G1 X136.034 Y63.115 E.05107
G1 X136.924 Y63.824 E.05047
G1 X137.757 Y64.62 E.0511
G1 X138.506 Y65.477 E.05048
G1 X139.184 Y66.408 E.05108
G1 X139.769 Y67.385 E.05051
G1 X140.269 Y68.422 E.05106
G1 X140.67 Y69.488 E.05052
G1 X140.977 Y70.598 E.05108
G1 X141.182 Y71.719 E.05055
G1 X141.299 Y73.04 E.05882
G1 X144.071 Y116.92 E1.95017
G1 X143.952 Y119.048 E.09453
G1 X143.747 Y120.168 E.0505
G1 X143.301 Y121.713 E.07133
G1 X134.158 Y147.322 E1.2061
G1 X133.61 Y148.476 E.05666
G1 X132.781 Y149.842 E.07087
G1 X132.067 Y150.802 E.05307
G1 X131.306 Y151.645 E.05037
G1 X130.355 Y152.505 E.05687
G1 X129.425 Y153.19 E.05123
G1 X128.286 Y153.858 E.05857
G1 X127.228 Y154.338 E.05153
G1 X125.958 Y154.761 E.05937
G1 X124.823 Y155.009 E.05153
G1 X123.488 Y155.156 E.05957
G1 X106.102 Y155.127 E.77115
G1 X104.823 Y154.994 E.05704
G1 X103.71 Y154.763 E.05042
G1 X102.474 Y154.371 E.05751
G1 X101.434 Y153.92 E.05028
G1 X100.314 Y153.293 E.05693
G1 X99.378 Y152.637 E.0507
G1 X98.375 Y151.762 E.05904
G1 X97.632 Y150.964 E.04836
G1 X96.942 Y150.076 E.04988
G1 X95.721 Y148.041 E.10526
G1 X95.257 Y147.008 E.05023
G1 X86.107 Y120.555 E1.24153
G1 X85.861 Y119.623 E.04275
G1 X85.552 Y117.498 E.09525
G1 X85.227 Y102.658 E.65838
G1 X85.317 Y101.6 E.0471
G1 X87.953 Y86.12 E.6965
G1 X88.169 Y84.922 E.05399
G1 X88.471 Y83.823 E.05055
G1 X91.716 Y75.373 E.40148
G1 X93.206 Y73.133 E.11933
G10 ; retract
G1 X93.206 Y73.133 F7800
G1 X130.12 Y81.503
G11 ; unretract
;TYPE:Support material
G1 F1800
G1 X131.243 Y81.76 E.0511
G1 X132.303 Y82.213 E.05113
G1 X133.264 Y82.847 E.05107
G1 X134.097 Y83.644 E.05114
G1 X134.774 Y84.576 E.05109
G1 X135.274 Y85.614 E.0511
G1 X135.581 Y86.725 E.05112
G1 X135.684 Y87.872 E.05108
G1 X135.581 Y89.02 E.05112
G1 X135.274 Y90.131 E.05112
G1 X134.774 Y91.169 E.0511
G1 X134.097 Y92.101 E.05109
G1 X133.264 Y92.897 E.0511
G1 X132.303 Y93.532 E.05109
G1 X131.243 Y93.985 E.05113
G1 X130.12 Y94.241 E.05109
G1 X128.969 Y94.293 E.0511
G1 X127.827 Y94.138 E.05112
G1 X126.731 Y93.782 E.05111
G1 X125.716 Y93.236 E.05112
G1 X124.816 Y92.518 E.05107
G1 X124.057 Y91.65 E.05114
G1 X123.467 Y90.661 E.05108
G1 X123.062 Y89.582 E.05112
G1 X122.856 Y88.448 E.05112
G1 X122.856 Y87.296 E.0511
G1 X123.062 Y86.163 E.05108
G1 X123.467 Y85.084 E.05112
G1 X124.058 Y84.095 E.0511
G1 X124.816 Y83.227 E.05111
G1 X128.344 Y83.338 E.15656
G1 X128.882 Y83.268 E.02406
G1 X129.353 Y83.064 E.02277
G1 X129.718 Y82.67 E.02382
G1 X129.87 Y82.164 E.02343
G1 X129.872 Y81.492 E.02981
G1 X130.066 Y81.501 E.00861
G1 X135.152 Y89.974 F7800
G1 F1800
G1 X135.152 Y86.373 E.15972
G1 X134.974 Y85.727 E.02972
G1 X134.757 Y85.276 E.0222
G1 X134.757 Y90.468 E.23029
G1 X134.361 Y91.193 E.03664
G1 X134.361 Y84.552 E.29456
G1 X133.966 Y84.008 E.02982
G1 X133.966 Y91.737 E.34282
G1 X133.571 Y92.161 E.0257
G1 X133.571 Y83.584 E.38043
G1 X133.176 Y83.206 E.02425
G1 X133.176 Y92.539 E.41396
G1 X132.781 Y92.833 E.02184
G1 X132.781 Y82.912 E.44004
G1 X132.386 Y82.651 E.021
G1 X132.386 Y93.094 E.4632
G1 X131.991 Y93.317 E.02012
G1 X131.991 Y82.427 E.48302
G1 X131.596 Y82.259 E.01904
G1 X131.596 Y93.486 E.49797
G1 X131.2 Y93.655 E.0191
G1 X131.2 Y82.09 E.51296
G1 X131.144 Y82.065 E.00272
G1 X130.805 Y81.988 E.01542
G1 X130.805 Y93.757 E.52201
G1 X130.41 Y93.847 E.01797
G1 X130.41 Y81.898 E.53
G1 X130.191 Y81.848 E.00996
G1 X130.175 Y82.301 E.02011
G1 X130.015 Y82.791 E.02286
G1 X130.015 Y93.926 E.49389
G1 X129.62 Y93.943 E.01754
G1 X129.62 Y83.266 E.47358
G1 X129.225 Y83.472 E.01976
G1 X129.225 Y93.961 E.46524
G1 X128.83 Y93.951 E.01753
G1 X128.83 Y83.608 E.45876
G1 X128.434 Y83.653 E.01768
G1 X128.434 Y93.898 E.45442
G1 X128.039 Y93.844 E.01768
G1 X128.039 Y83.646 E.45233
G1 X127.644 Y83.631 E.01753
G1 X127.644 Y93.742 E.44847
G1 X127.249 Y93.614 E.01842
G1 X127.249 Y83.616 E.44346
G1 X126.854 Y83.602 E.01753
G1 X126.854 Y93.485 E.43836
G1 X126.459 Y93.272 E.01991
G1 X126.459 Y83.587 E.42958
G1 X126.064 Y83.572 E.01753
G1 X126.064 Y93.06 E.42084
G1 X125.669 Y92.789 E.02125
G1 X125.669 Y83.557 E.40948
G1 X125.273 Y83.542 E.01758
G1 X125.273 Y92.474 E.39618
G1 X124.878 Y92.103 E.02404
G1 X124.878 Y83.642 E.37529
G1 X124.483 Y84.094 E.02663
G1 X124.483 Y91.651 E.33519
G1 X124.088 Y91.077 E.03091
G1 X124.088 Y84.668 E.28427
G1 X123.693 Y85.392 E.03658
G1 X123.693 Y90.353 E.22004
G1 X123.371 Y89.497 E.04057
G1 X123.298 Y89.091 E.0183
G1 X123.298 Y85.989 E.13759
G10 ; retract
G1 X123.298 Y85.989 F7800
G1 X128.994 Y67.06
G11 ; unretract
G1 F1800
G1 X129.392 Y67.078 E.01767
G1 X130.515 Y67.334 E.05109
G1 X131.573 Y67.786 E.05103
G1 X132.534 Y68.42 E.05107
G1 X133.367 Y69.215 E.05107
G1 X134.044 Y70.147 E.05109
G1 X134.545 Y71.184 E.05108
G1 X134.852 Y72.294 E.05108
G1 X134.956 Y73.441 E.05108
G1 X134.854 Y74.589 E.05112
G1 X134.548 Y75.7 E.05111
G1 X134.049 Y76.738 E.05108
G1 X133.373 Y77.671 E.0511
G1 X132.54 Y78.469 E.05117
G1 X131.578 Y79.104 E.05113
G1 X130.518 Y79.558 E.05115
G1 X129.879 Y79.704 E.02907
G1 X129.781 Y79.16 E.02452
G1 X129.479 Y78.752 E.02251
G1 X128.802 Y78.429 E.03327
G1 X128.344 Y78.38 E.02043
G1 X124.623 Y78.519 E.16516
G1 X124.086 Y78.091 E.03046
G1 X123.328 Y77.222 E.05115
G1 X122.737 Y76.232 E.05114
G1 X122.56 Y75.758 E.02244
G1 X122.261 Y75.765 E.01327
G1 X121.951 Y76.723 E.04466
G1 X121.385 Y77.707 E.05035
G1 X120.625 Y78.553 E.05044
G1 X120.341 Y78.76 E.01559
G1 X119.706 Y78.803 E.02823
G1 X118.296 Y79.084 E.06377
G1 X118.035 Y79.426 E.01908
G1 X118.062 Y79.817 E.01738
G1 X117.557 Y79.925 E.02291
G1 X116.419 Y79.927 E.05048
G1 X115.305 Y79.692 E.0505
G1 X114.264 Y79.231 E.0505
G1 X113.342 Y78.562 E.05053
G1 X113.098 Y78.292 E.01614
G1 X112.011 Y79.208 E.06305
G1 X110.993 Y79.707 E.05029
G1 X109.895 Y79.991 E.0503
G1 X108.762 Y80.049 E.05032
G1 X107.641 Y79.877 E.0503
G1 X106.578 Y79.483 E.05028
G1 X105.615 Y78.883 E.05033
G1 X104.793 Y78.102 E.05029
G1 X104.146 Y77.171 E.05029
G1 X103.698 Y76.129 E.05031
G1 X103.47 Y75.018 E.05031
G1 X103.47 Y73.884 E.0503
G1 X103.699 Y72.773 E.05031
G1 X104.146 Y71.731 E.05029
G1 X104.794 Y70.8 E.05031
G1 X105.616 Y70.019 E.05029
G1 X106.578 Y69.42 E.05026
G1 X107.642 Y69.026 E.05033
G1 X108.762 Y68.854 E.05026
G1 X109.895 Y68.912 E.05032
G1 X110.992 Y69.196 E.05026
G1 X112.01 Y69.695 E.05029
G1 X112.907 Y70.389 E.0503
G1 X113.153 Y70.676 E.01677
G1 X114.264 Y69.799 E.06278
G1 X115.305 Y69.337 E.05052
G1 X116.419 Y69.102 E.0505
G1 X117.555 Y69.104 E.05039
G1 X118.667 Y69.342 E.05044
G1 X119.705 Y69.806 E.05043
G1 X120.623 Y70.475 E.05038
G1 X121.382 Y71.32 E.05038
G1 X122.163 Y72.674 E.06933
G1 X122.335 Y71.732 E.04247
G1 X122.741 Y70.654 E.05109
G1 X123.332 Y69.665 E.0511
G1 X124.091 Y68.798 E.05111
G1 X124.992 Y68.081 E.05107
G1 X126.006 Y67.536 E.05106
G1 X127.101 Y67.18 E.05107
G1 X128.242 Y67.026 E.05107
G1 X128.941 Y67.058 E.03104
G1 X134.361 Y75.719 F7800
G1 F1800
G1 X134.361 Y71.721 E.17733
G1 X133.966 Y70.722 E.04765
G1 X133.966 Y76.172 E.24173
G1 X133.571 Y76.852 E.03488
G1 X133.571 Y70.04 E.30214
G1 X133.176 Y69.497 E.02978
G1 X133.176 Y77.397 E.3504
G1 X132.781 Y77.795 E.02487
G1 X132.781 Y69.098 E.38575
G1 X132.386 Y68.721 E.02422
G1 X132.386 Y78.173 E.41924
G1 X131.991 Y78.448 E.02135
G1 X131.991 Y68.445 E.44368
G1 X131.596 Y68.184 E.021
G1 X131.596 Y78.709 E.46683
G1 X131.2 Y78.918 E.01986
G1 X131.2 Y67.975 E.48537
G1 X130.805 Y67.806 E.01906
G1 X130.805 Y79.087 E.50037
G1 X130.41 Y79.255 E.01904
G1 X130.41 Y67.638 E.51527
G1 X130.015 Y67.548 E.01797
M73 P0 R169
G1 X130.015 Y78.914 E.50414
G1 X129.62 Y78.447 E.02713
G1 X129.62 Y67.458 E.48742
G1 X129.225 Y67.391 E.01777
G1 X129.225 Y78.245 E.48143
G1 X128.83 Y78.11 E.01852
G1 X128.83 Y67.373 E.47624
G1 X128.434 Y67.355 E.01758
G1 X128.434 Y78.065 E.47504
G1 X128.039 Y78.071 E.01752
G1 X128.039 Y67.376 E.47437
G1 X127.644 Y67.43 E.01768
G1 X127.644 Y78.086 E.47264
G1 X127.249 Y78.101 E.01753
G1 X127.249 Y67.483 E.47096
G1 X126.854 Y67.597 E.01824
G1 X126.854 Y78.116 E.46657
G1 X126.459 Y78.13 E.01753
G1 X126.459 Y67.725 E.46151
G1 X126.064 Y67.868 E.01863
G1 X126.064 Y78.145 E.45583
G1 X125.669 Y78.16 E.01753
G1 X125.669 Y68.08 E.4471
G1 X125.273 Y68.293 E.01994
G1 X125.273 Y78.175 E.43831
G1 X124.878 Y78.189 E.01753
G1 X124.878 Y68.58 E.42621
G1 X124.483 Y68.895 E.02241
G1 X124.483 Y77.998 E.40376
G1 X124.088 Y77.606 E.02468
G1 X124.088 Y69.287 E.36899
G1 X123.693 Y69.739 E.02663
G1 X123.693 Y77.153 E.32885
G1 X123.298 Y76.547 E.03208
G1 X123.298 Y70.346 E.27504
G1 X122.903 Y71.132 E.03902
G1 X122.903 Y75.762 E.20536
G1 X122.78 Y75.433 E.01558
G1 X122.508 Y75.439 E.01207
G1 X122.508 Y72.571 E.12721
G1 X122.322 Y73.59 E.04594
G1 X122.112 Y73.227 E.0186
G1 X122.112 Y75.448 E.09851
G1 X122.027 Y75.45 E.00377
G1 X121.717 Y76.406 E.04458
G1 X121.717 Y72.541 E.17143
G1 X121.322 Y71.856 E.03507
G1 X121.322 Y77.174 E.23588
G1 X120.927 Y77.738 E.03054
G1 X120.927 Y71.292 E.28591
G1 X120.532 Y70.852 E.02623
G1 X120.532 Y78.178 E.32494
G1 X120.137 Y78.453 E.02135
G1 X120.137 Y70.517 E.352
G1 X119.742 Y70.229 E.02168
G1 X119.742 Y78.478 E.36588
G1 X119.346 Y78.549 E.01784
G1 X119.346 Y69.997 E.37932
G1 X118.951 Y69.82 E.0192
G1 X118.951 Y78.627 E.39063
G1 X118.556 Y78.706 E.01787
G1 X118.556 Y69.646 E.40185
G1 X118.161 Y69.561 E.01792
G1 X118.161 Y78.784 E.40908
G1 X117.766 Y79.251 E.02713
G1 X117.766 Y69.477 E.43352
G1 X117.371 Y69.424 E.01768
G1 X117.371 Y79.606 E.45162
G1 X116.976 Y79.606 E.01752
G1 X116.976 Y69.423 E.45167
G1 X116.581 Y69.423 E.01752
G1 X116.581 Y79.607 E.45171
G1 X116.185 Y79.551 E.01774
G1 X116.185 Y69.479 E.44674
G1 X115.79 Y69.562 E.0179
G1 X115.79 Y79.468 E.43938
G1 X115.395 Y79.382 E.01793
G1 X115.395 Y69.647 E.43179
G1 X115 Y69.823 E.01918
G1 X115 Y79.207 E.41623
G1 X114.605 Y79.032 E.01916
G1 X114.605 Y69.998 E.4007
G1 X114.21 Y70.233 E.02039
G1 X114.21 Y78.796 E.37981
G1 X113.815 Y78.51 E.02163
G1 X113.815 Y70.52 E.35439
G1 X113.419 Y70.859 E.02312
G1 X113.419 Y78.171 E.32432
G1 X113.092 Y77.808 E.02167
G1 X113.024 Y77.886 E.00459
G1 X113.024 Y71.017 E.30467
G1 X112.629 Y70.579 E.02616
G1 X112.629 Y78.324 E.34353
G1 X112.234 Y78.63 E.02216
G1 X112.234 Y70.273 E.37067
G1 X111.839 Y69.968 E.02214
G1 X111.839 Y78.936 E.39777
G1 X111.444 Y79.129 E.0195
G1 X111.444 Y69.774 E.41494
G1 X111.049 Y69.58 E.01952
G1 X111.049 Y79.323 E.43215
G1 X110.654 Y79.464 E.0186
G1 X110.654 Y69.439 E.44466
G1 X110.258 Y69.336 E.01815
G1 X110.258 Y79.567 E.45379
G1 X109.863 Y79.669 E.01809
G1 X109.846 Y69.23 E.46302
G1 X109.468 Y69.211 E.01679
G1 X109.468 Y79.693 E.46493
G1 X109.073 Y79.713 E.01754
G1 X109.073 Y69.19 E.46675
G1 X108.678 Y69.191 E.01752
G1 X108.678 Y79.712 E.46666
G1 X108.283 Y79.652 E.01772
G1 X108.283 Y69.252 E.46129
G1 X107.888 Y69.312 E.01772
