; generated by PrusaSlicer 2.7.1+win64 on 2024-01-23 at 03:15:30 UTC

; 

; external perimeters extrusion width = 0.45mm
; perimeters extrusion width = 0.45mm
; infill extrusion width = 0.45mm
; solid infill extrusion width = 0.45mm
; top infill extrusion width = 0.40mm
; first layer extrusion width = 0.42mm

; external perimeters extrusion width = 0.45mm
; perimeters extrusion width = 0.45mm
; infill extrusion width = 0.45mm
; solid infill extrusion width = 0.45mm
; top infill extrusion width = 0.40mm
; first layer extrusion width = 0.42mm

M73 P0 R102
M190 S50 ; set bed temperature and wait for it to be reached
M104 S230 ; set temperature
;TYPE:Custom
START_PRINT EXTRUDER_TEMP=230 BED_TEMP=50 Z_OFFSET=0.1
M109 S230 ; set temperature and wait for it to be reached
G21 ; set units to millimeters
G90 ; use absolute coordinates
M83 ; use relative distances for extrusion
; Filament gcode
M107
;LAYER_CHANGE
;Z:0.3
;HEIGHT:0.3
;BEFORE_LAYER_CHANGE
G92 E0
;0.3


G10 ; retract
G1 Z.3 F7800
;AFTER_LAYER_CHANGE
;0.3
G1 X120.364 Y95.479
G11 ; unretract
;TYPE:Skirt/Brim
;WIDTH:0.42
G1 F1800
G1 X121.281 Y94.56 E.05758
G1 X122.856 Y93.355 E.08796
G1 X123.972 Y92.74 E.05652
G1 X125.158 Y92.247 E.05697
G1 X127.492 Y91.825 E.1052
G1 X129.111 Y91.81 E.07181
G1 X131.178 Y91.966 E.09194
G1 X132.645 Y92.324 E.06698
G1 X134.263 Y93.009 E.07793
G1 X135.845 Y93.982 E.08238
G1 X137.019 Y94.995 E.06878
G1 X138.172 Y96.278 E.07651
G1 X140.452 Y99.551 E.17692
G1 X141.361 Y101.384 E.09075
G1 X141.71 Y103.1 E.07767
G1 X143.797 Y130.478 E1.21787
G1 X143.99 Y138.586 E.35973
G1 X143.884 Y139.841 E.05586
G1 X143.508 Y141.405 E.07135
G1 X142.992 Y142.661 E.06023
G1 X142.305 Y143.831 E.06018
G1 X136.782 Y150.579 E.38678
G1 X135.592 Y151.781 E.07502
G1 X134.59 Y152.526 E.05538
G1 X133.499 Y153.133 E.05538
G1 X131.653 Y153.782 E.08679
G1 X129.959 Y154.034 E.07596
G1 X127.015 Y154.059 E.13059
G1 X124.679 Y153.665 E.10508
G1 X122.604 Y152.521 E.1051
G1 X121.024 Y150.755 E.1051
G1 X120.116 Y148.567 E.10507
G1 X119.944 Y147.282 E.0575
G1 X118.077 Y101.797 E2.01918
G1 X118.482 Y99.135 E.11943
G1 X119.136 Y97.405 E.08203
G1 X120.325 Y95.54 E.0981
G1 X120.621 Y95.728 F7800
G1 F1800
G1 X120.63 Y95.716 E.00067
G1 X121.516 Y94.827 E.05567
G1 X123.048 Y93.654 E.08558
G1 X124.122 Y93.062 E.05439
G1 X125.267 Y92.586 E.055
G1 X127.497 Y92.181 E.10053
G1 X129.108 Y92.166 E.07146
G1 X131.105 Y92.314 E.08882
G1 X132.533 Y92.661 E.06518
G1 X134.098 Y93.324 E.07539
G1 X135.636 Y94.27 E.08009
G1 X136.769 Y95.247 E.06636
G1 X137.886 Y96.488 E.07406
G1 X140.159 Y99.753 E.17646
G1 X141.024 Y101.497 E.08635
G1 X141.355 Y103.127 E.07377
G1 X143.442 Y130.505 E1.21787
G1 X143.634 Y138.574 E.358
G1 X143.532 Y139.786 E.05395
G1 X143.172 Y141.289 E.06855
G1 X142.676 Y142.498 E.05796
G1 X142.015 Y143.624 E.05791
G1 X136.508 Y150.352 E.38564
G1 X135.365 Y151.507 E.07207
G1 X134.399 Y152.226 E.05341
G1 X133.348 Y152.811 E.05335
G1 X131.576 Y153.435 E.08333
G1 X129.829 Y153.686 E.07828
G1 X127.014 Y153.703 E.12486
G1 X124.74 Y153.309 E.10237
G1 X122.733 Y152.168 E.1024
G1 X121.232 Y150.414 E.1024
G1 X120.3 Y147.267 E.14558
G1 X118.433 Y101.783 E2.01913
G1 X118.816 Y99.254 E.11345
G1 X119.457 Y97.557 E.08046
G1 X120.583 Y95.789 E.09297
G1 X120.879 Y95.977 F7800
G1 F1800
G1 X120.895 Y95.952 E.00132
G1 X121.75 Y95.095 E.05369
G1 X123.24 Y93.953 E.08327
G1 X124.273 Y93.384 E.05231
G1 X125.376 Y92.925 E.05299
G1 X127.501 Y92.536 E.09582
G1 X129.105 Y92.521 E.07115
G1 X131.032 Y92.662 E.0857
G1 X132.421 Y92.999 E.0634
G1 X133.932 Y93.638 E.07277
G1 X135.428 Y94.559 E.07792
G1 X136.519 Y95.5 E.0639
G1 X137.599 Y96.699 E.07157
G1 X139.867 Y99.956 E.17604
G1 X140.687 Y101.61 E.08188
G1 X141.001 Y103.154 E.06989
G1 X143.088 Y130.532 E1.21787
G1 X143.279 Y138.561 E.35623
G1 X143.181 Y139.732 E.05212
G1 X142.836 Y141.172 E.06568
G1 X142.36 Y142.335 E.05574
G1 X141.726 Y143.418 E.05566
G1 X136.234 Y150.126 E.38453
G1 X135.138 Y151.233 E.06909
G1 X134.209 Y151.925 E.05138
G1 X133.196 Y152.489 E.05143
G1 X131.498 Y153.088 E.07986
G1 X129.807 Y153.332 E.07578
G1 X127.014 Y153.348 E.12389
G1 X124.803 Y152.954 E.09961
G1 X122.867 Y151.815 E.09963
G1 X121.447 Y150.075 E.09962
G1 X120.655 Y147.253 E.13001
G1 X118.788 Y101.768 E2.01918
G1 X119.151 Y99.374 E.1074
G1 X119.778 Y97.709 E.07891
G1 X120.84 Y96.038 E.08782
G10 ; retract
G1 X120.84 Y96.038 F7800
G1 X134.086 Y140.988
G11 ; unretract
;TYPE:Perimeter
;WIDTH:0.42
G1 F1800
G1 X134.231 Y140.515 E.02194
G1 X134.322 Y139.97 E.02451
G1 X134.342 Y139.419 E.02446
G1 X134.29 Y138.869 E.0245
G1 X134.166 Y138.331 E.02449
G1 X133.976 Y137.819 E.02422
G1 X133.742 Y137.373 E.02234
G1 X135.701 Y133.907 E.17659
G1 X135.797 Y138.364 E.19774
G1 X135.719 Y138.863 E.0224
G1 X135.44 Y139.35 E.02489
G1 X134.132 Y140.932 E.09105
G10 ; retract
G1 X134.132 Y140.932 F7800
G1 X130.124 Y143.761
G11 ; unretract
G1 F1800
G1 X130.682 Y143.726 E.0248
G1 X131.223 Y143.617 E.02448
G1 X131.746 Y143.439 E.0245
G1 X132.268 Y143.181 E.02583
G1 X130.487 Y145.334 E.12393
G1 X130.052 Y145.696 E.0251
G1 X129.532 Y145.855 E.02412
G1 X128.93 Y145.868 E.02671
G1 X130.088 Y143.824 E.1042
G1 X129.925 Y143.391 F7800
G1 F1800
G1 X130.134 Y143.407 E.0093
G1 X130.653 Y143.371 E.02308
G1 X131.148 Y143.27 E.02241
G1 X131.626 Y143.104 E.02244
G1 X132.102 Y142.862 E.02368
;WIDTH:0.467577
G1 X132.343 Y142.724 E.01397
;WIDTH:0.515154
G1 X132.583 Y142.586 E.01557
G1 X132.946 Y142.227 E.0287
;WIDTH:0.479538
G1 X133.272 Y141.836 E.02636
;WIDTH:0.49698
G1 X133.553 Y141.409 E.02758
G1 X133.641 Y141.171 E.01369
;WIDTH:0.45849
G1 X133.73 Y140.934 E.01244
;WIDTH:0.42
G1 X133.881 Y140.451 E.02245
G1 X133.967 Y139.953 E.02242
G1 X133.988 Y139.448 E.02242
G1 X133.942 Y138.944 E.02245
G1 X133.831 Y138.451 E.02241
G1 X133.657 Y137.976 E.02244
G1 X133.323 Y137.391 E.02988
G1 X135.841 Y132.937 E.22694
G1 X136.036 Y132.553 E.0191
G1 X136.159 Y138.231 E.25191
G1 X136.113 Y138.729 E.02218
G1 X136.015 Y139.095 E.01681
G1 X135.729 Y139.558 E.02414
G1 X134.324 Y141.259 E.09786
;WIDTH:0.45849
G1 X134.134 Y141.458 E.01352
;WIDTH:0.49698
G1 X133.944 Y141.658 E.01488
G1 X133.606 Y142.08 E.02917
;WIDTH:0.479538
G1 X133.264 Y142.494 E.02781
;WIDTH:0.515154
G1 X132.908 Y142.897 E.03023
G1 X132.762 Y143.111 E.01457
;WIDTH:0.467577
G1 X132.615 Y143.326 E.0131
;WIDTH:0.42
G1 X130.816 Y145.503 E.12526
G1 X130.427 Y145.868 E.02366
G1 X130.226 Y146.006 E.01081
G1 X129.704 Y146.183 E.02445
G1 X129.373 Y146.223 E.01479
G1 X128.32 Y146.225 E.04671
G1 X129.89 Y143.453 E.1413
G1 X129.727 Y143.019 F7800
;TYPE:External perimeter
G1 F1800
G1 X130.388 Y143.036 E.02933
G1 X131.073 Y142.922 E.0308
G1 X131.507 Y142.769 E.02041
G1 X131.937 Y142.546 E.02148
G1 X132.295 Y142.301 E.01924
G1 X132.636 Y141.994 E.02035
G1 X132.935 Y141.645 E.02038
G1 X133.185 Y141.261 E.02032
G1 X133.383 Y140.846 E.02039
G1 X133.525 Y140.41 E.02034
G1 X133.609 Y139.958 E.02039
G1 X133.634 Y139.5 E.02034
G1 X133.602 Y139.095 E.01802
G1 X133.503 Y138.593 E.02269
G1 X133.349 Y138.16 E.02038
G1 X133.141 Y137.75 E.02039
G1 X132.901 Y137.415 E.01828
G1 X135.646 Y132.556 E.24753
G1 X136.044 Y131.658 E.04357
G1 X136.193 Y131.204 E.02119
G1 X136.454 Y130.759 E.02288
G1 X136.486 Y130.799 E.00227
G1 X136.539 Y131.032 E.0106
G1 X136.513 Y131.484 E.02008
G1 X136.394 Y132.461 E.04365
G1 X136.39 Y132.977 E.02289
G1 X136.515 Y138.222 E.23271
G1 X136.467 Y138.77 E.0244
G1 X136.338 Y139.248 E.02196
G1 X136.019 Y139.765 E.02695
G1 X131.09 Y145.73 E.34322
G1 X130.666 Y146.132 E.02592
G1 X130.4 Y146.316 E.01435
G1 X129.805 Y146.524 E.02796
G1 X129.387 Y146.579 E.0187
G1 X127.709 Y146.581 E.07443
G1 X129.692 Y143.081 E.17843
G1 X130.169 Y143.035 F7800
G1 X130.737 Y143.82
;TYPE:Solid infill
;WIDTH:0.458625
G1 F1800
G1 X131.1 Y144.183 E.02524
G1 X130.848 Y144.488 E.01945
G1 X130.374 Y144.014 E.03296
G1 X130.282 Y144.023 E.00455
G1 X130.117 Y144.315 E.01649
G1 X130.595 Y144.793 E.03324
G1 X130.343 Y145.099 E.01949
G1 X129.915 Y144.671 E.02976
G1 X129.714 Y145.027 E.0201
G1 X130.054 Y145.367 E.02364
G1 X129.9 Y145.475 E.00925
G1 X129.672 Y145.543 E.0117
G1 X129.395 Y145.265 E.0193
G10 ; retract
G1 X129.395 Y145.265 F7800
G1 X135.143 Y135.111
G11 ; unretract
;WIDTH:0.445717
G1 F1800
G1 X135.47 Y135.438 E.022
G1 X135.483 Y135.991 E.02631
G1 X135.066 Y135.573 E.02808
G1 X134.871 Y135.917 E.01881
G1 X135.496 Y136.543 E.04207
G1 X135.51 Y137.095 E.02626
G1 X134.676 Y136.262 E.05606
G1 X134.481 Y136.606 E.01881
G1 X135.523 Y137.648 E.07009
G1 X135.536 Y138.2 E.02626
G1 X134.287 Y136.951 E.08401
G1 X134.092 Y137.295 E.01881
G1 X135.491 Y138.695 E.09413
G1 X135.489 Y138.713 E.00086
G1 X135.45 Y138.826 E.00569
G1 X135.31 Y139.053 E.01268
G1 X134.369 Y138.112 E.06329
G1 X134.419 Y138.245 E.00676
G1 X134.553 Y138.835 E.02878
G1 X135.082 Y139.364 E.03558
G1 X134.838 Y139.66 E.01825
G1 X134.426 Y139.248 E.02771
G10 ; retract
G1 X134.426 Y139.248 F7800
G1 X133.361 Y103.389
G11 ; unretract
;TYPE:Perimeter
;WIDTH:0.489814
G1 F1800
G1 X132.937 Y103.575 E.02457
G1 X132.819 Y103.561 E.00631
G1 X132.734 Y102.91 E.03484
G1 X132.639 Y102.4 E.02753
;WIDTH:0.484034
G1 X132.704 Y102.492 E.0059
;WIDTH:0.489814
G1 X133.024 Y103.025 E.03299
G1 X133.312 Y103.336 E.02249
G1 X133.906 Y103.598 F7800
;TYPE:External perimeter
;WIDTH:0.72939
G1 F1800
G1 X133.984 Y103.701 E.01072
;WIDTH:0.759385
G1 X134.062 Y103.805 E.01127
G1 X133.906 Y103.598 F7800
;WIDTH:0.699395
G1 F1800
G1 X133.853 Y103.613 E.00436
;WIDTH:0.65092
G1 X133.799 Y103.628 E.0041
;WIDTH:0.602446
G1 X133.746 Y103.643 E.0037
;WIDTH:0.553971
G1 X133.692 Y103.658 E.00342
;WIDTH:0.505497
G1 X133.639 Y103.673 E.00303
;WIDTH:0.457023
G1 X132.929 Y104.005 E.03838
;WIDTH:0.42
G1 X132.467 Y103.86 E.02148
G1 X132.37 Y103.187 E.03016
G1 X132.318 Y102.679 E.02265
G1 X132.07 Y101.977 E.03302
G1 X131.736 Y101.362 E.03104
G1 X131.023 Y100.656 E.04451
G1 X130.533 Y100.344 E.02577
G1 X130.144 Y100.161 E.01907
G1 X129.247 Y99.975 E.04063
G1 X128.851 Y99.964 E.01757
G1 X128.351 Y100.042 E.02245
G1 X127.787 Y100.164 E.02559
G1 X127.324 Y100.39 E.02285
G1 X126.806 Y100.75 E.02798
G1 X126.39 Y101.183 E.02663
G1 X126.087 Y101.431 E.01737
G1 X125.977 Y101.576 E.00807
G1 X125.848 Y101.471 E.00738
G1 X125.55 Y101.332 E.01458
G1 X125.809 Y100.897 E.02246
G1 X125.979 Y100.42 E.02246
G1 X126.606 Y99.839 E.03791
G1 X127.472 Y99.358 E.04394
G1 X127.735 Y99.306 E.01189
G1 X128.308 Y99.316 E.02542
G1 X129.679 Y99.293 E.06082
G1 X130.319 Y99.431 E.02904
G1 X130.795 Y99.633 E.02294
G1 X131.416 Y100.012 E.03227
G1 X131.569 Y100.148 E.00908
G1 X132.181 Y100.759 E.03836
G1 X132.481 Y101.24 E.02514
G1 X133.026 Y102.276 E.05192
G1 X133.363 Y102.824 E.02853
;WIDTH:0.457023
G1 X133.727 Y103.233 E.02681
;WIDTH:0.505497
G1 X133.763 Y103.306 E.00448
;WIDTH:0.553971
G1 X133.799 Y103.379 E.00497
;WIDTH:0.602446
G1 X133.834 Y103.452 E.00543
;WIDTH:0.65092
G1 X133.87 Y103.525 E.00595
;WIDTH:0.699395
G1 X133.874 Y103.533 E.00071
G1 X133.452 Y103.761 F7800
G10 ; retract
G1 X126.314 Y100.67
G11 ; unretract
;TYPE:Perimeter
;WIDTH:0.566573
G1 F1800
G1 X126.859 Y100.188 E.04557
G1 X127.6 Y99.778 E.05304
;WIDTH:0.566473
G1 X127.839 Y99.737 E.01519
;WIDTH:0.522617
G1 X128.077 Y99.697 E.01379
;WIDTH:0.478761
G1 X128.318 Y99.676 E.0125
;WIDTH:0.444334
G1 X128.559 Y99.656 E.01146
;WIDTH:0.409907
G1 X128.799 Y99.635 E.01038
;WIDTH:0.399553
G1 X129.307 Y99.634 E.02124
;WIDTH:0.429599
G1 X129.756 Y99.712 E.02076
;WIDTH:0.459645
G1 X130.205 Y99.79 E.02247
G1 X130.676 Y99.998 E.02538
;WIDTH:0.463327
G1 X131.22 Y100.334 E.03182
G1 X131.867 Y100.955 E.04462
;WIDTH:0.448961
G1 X132.164 Y101.412 E.02614
;WIDTH:0.428603
G1 X132.422 Y101.884 E.02444
;WIDTH:0.454646
G1 X132.521 Y102.123 E.01259
;WIDTH:0.481275
G1 X132.621 Y102.362 E.01347
;LAYER_CHANGE
;Z:0.4
;HEIGHT:0.1
;BEFORE_LAYER_CHANGE
G92 E0
;0.4


G10 ; retract
G1 Z.4 F7800
;AFTER_LAYER_CHANGE
;0.4
G1 X129.48 Y143.665
G11 ; unretract
;WIDTH:0.449999
G1 F900
G1 X129.736 Y143.707 E.00462
G1 X130.334 Y143.716 E.01066
G1 X131.341 Y143.547 E.01819
G1 X131.853 Y143.355 E.00974
G1 X132.335 Y143.097 E.00974
G1 X132.79 Y142.788 E.0098
G1 X130.655 Y145.37 E.05969
G1 X130.265 Y145.726 E.00941
G1 X129.837 Y145.941 E.00853
G1 X129.333 Y146.011 E.00907
G1 X127.284 Y146.014 E.03651
;TYPE:Overhang perimeter
;WIDTH:0.48
;HEIGHT:0.48
G1 X121.681 Y146.021 E.42153
G1 X124.873 Y140.385 E.48729
G1 X125.056 Y140.337 E.01423
G1 X125.23 Y140.24 E.01499
G1 X125.606 Y139.96 E.03527
G1 X125.814 Y139.648 E.02821
G1 X125.971 Y139.265 E.03114
G1 X125.95 Y139.68 E.03126
G1 X126.002 Y140.225 E.04119
G1 X126.132 Y140.773 E.04237
G1 X126.319 Y141.269 E.03988
G1 X126.577 Y141.752 E.0412
G1 X126.895 Y142.196 E.04109
G1 X127.269 Y142.595 E.04114
G1 X127.692 Y142.943 E.04121
G1 X128.156 Y143.232 E.04113
G1 X128.72 Y143.477 E.04626
;TYPE:Perimeter
;WIDTH:0.449999
;HEIGHT:0.1
G1 X129.178 Y143.616 E.00853
G1 X129.409 Y143.654 E.00417
G10 ; retract
G1 X129.409 Y143.654 F7800
G1 X135.812 Y139.013
G11 ; unretract
G1 F900
G1 X135.562 Y139.433 E.00871
G1 X133.779 Y141.589 E.04985
G1 X134.041 Y141.02 E.01116
G1 X134.2 Y140.497 E.00974
G1 X134.29 Y139.957 E.00975
G1 X134.307 Y139.411 E.00973
G1 X134.254 Y138.866 E.00976
G1 X134.13 Y138.334 E.00973
G1 X133.937 Y137.822 E.00975
G1 X133.679 Y137.339 E.00976
G1 X133.361 Y136.895 E.00973
G1 X132.987 Y136.495 E.00976
G1 X132.774 Y136.32 E.00491
;TYPE:Overhang perimeter
;WIDTH:0.48
;HEIGHT:0.48
G1 X132.564 Y136.148 E.02042
G1 X132.1 Y135.859 E.04113
G1 X131.602 Y135.633 E.04114
G1 X131.079 Y135.474 E.04112
G1 X130.531 Y135.385 E.04177
G1 X129.832 Y135.38 E.05259
G1 X129.904 Y135.269 E.00995
G1 X130.014 Y134.972 E.02383
G1 X130.127 Y134.303 E.05104
G1 X130.093 Y132.193 E.15876
G1 X129.98 Y131.662 E.04084
G1 X129.895 Y131.52 E.01245
G1 X130.832 Y129.864 E.14315
G1 X134.608 Y129.806 E.28411
G1 X135.712 Y130.854 E.11452
G1 X135.769 Y131.032 E.01406
;TYPE:Perimeter
;WIDTH:0.449999
;HEIGHT:0.1
G1 X135.951 Y138.358 E.13056
G1 X135.943 Y138.546 E.00335
G1 X135.831 Y138.944 E.00737
G1 X136.184 Y139.234 F7800
G1 F1200
G1 X135.906 Y139.689 E.0095
G1 X134.11 Y141.863 E.05024
;WIDTH:0.492103
G1 X134.086 Y141.859 E.00048
;WIDTH:0.534207
G1 X134.062 Y141.854 E.00052
;WIDTH:0.576311
G1 X134.038 Y141.85 E.00056
;WIDTH:0.618415
G1 X134.014 Y141.846 E.0006
;WIDTH:0.660519
G1 X133.991 Y141.842 E.00062
G1 X133.655 Y142.27 E.01446
;WIDTH:0.64135
G1 X133.305 Y142.686 E.01401
G1 X133.259 Y142.78 E.0027
;WIDTH:0.593512
G1 X133.213 Y142.873 E.00247
;WIDTH:0.545675
G1 X133.166 Y142.967 E.00229
;WIDTH:0.497837
G1 X133.12 Y143.061 E.00207
;WIDTH:0.449999
G1 X131.112 Y145.491 E.05616
G1 X130.747 Y145.888 E.00961
G1 X130.42 Y146.137 E.00732
G1 X129.946 Y146.358 E.00932
G1 X129.363 Y146.439 E.01049
G1 X127.041 Y146.443 E.04137
;TYPE:Overhang perimeter
;WIDTH:0.48
;HEIGHT:0.48
G1 F2400
G1 X120.945 Y146.451 E.45862
G1 X124.573 Y140.047 E.55373
G1 X124.867 Y139.952 E.02324
G1 X125.125 Y139.806 E.0223
G1 X125.355 Y139.582 E.02415
G1 X125.564 Y139.173 E.03455
G1 X125.581 Y138.666 E.03816
G1 X125.491 Y138.425 E.01935
G1 X127.045 Y135.681 E.23724
G1 X127.712 Y135.954 E.05422
G1 X128.021 Y135.966 E.02326
G1 X128.529 Y136.03 E.03852
G1 X127.631 Y136.75 E.08659
G1 X127.14 Y137.273 E.05397
G1 X126.849 Y137.715 E.03981
G1 X126.629 Y138.184 E.03897
G1 X126.477 Y138.671 E.03838
G1 X126.388 Y139.286 E.04675
G1 X126.391 Y139.827 E.0407
G1 X126.481 Y140.411 E.04445
G1 X126.667 Y140.996 E.04618
G1 X126.929 Y141.508 E.04327
G1 X127.367 Y142.079 E.05414
G1 X127.857 Y142.532 E.0502
G1 X128.266 Y142.803 E.03691
G1 X128.708 Y143.019 E.03701
G1 X128.938 Y143.093 E.01818
;TYPE:Perimeter
;WIDTH:0.449999
;HEIGHT:0.1
G1 F1200
G1 X129.255 Y143.195 E.00593
G1 X129.757 Y143.279 E.00907
G1 X130.271 Y143.292 E.00916
G1 X131.075 Y143.174 E.01448
G1 X131.58 Y143.007 E.00948
G1 X132.02 Y142.788 E.00876
G1 X132.427 Y142.513 E.00875
;WIDTH:0.497837
G1 X132.535 Y142.45 E.00248
;WIDTH:0.545675
G1 X132.643 Y142.386 E.00274
;WIDTH:0.593512
G1 X132.751 Y142.322 E.00299
;WIDTH:0.64135
G1 X132.859 Y142.259 E.00322
G1 X133.186 Y141.877 E.01296
;WIDTH:0.660519
G1 X133.476 Y141.465 E.01339
G1 X133.462 Y141.448 E.00059
;WIDTH:0.618415
