; generated by PrusaSlicer 2.7.0+win64 on 2023-12-07 at 02:01:09 UTC

; 

; external perimeters extrusion width = 0.45mm
; perimeters extrusion width = 0.45mm
; infill extrusion width = 0.45mm
; solid infill extrusion width = 0.45mm
; top infill extrusion width = 0.40mm
; support material extrusion width = 0.35mm
; first layer extrusion width = 0.42mm

M73 P0 R115
M190 S50 ; set bed temperature and wait for it to be reached
M104 S205 ; set temperature
;TYPE:Custom
START_PRINT EXTRUDER_TEMP=205 BED_TEMP=50 Z_OFFSET=0.1
M109 S205 ; set temperature and wait for it to be reached
G21 ; set units to millimeters
G90 ; use absolute coordinates
M83 ; use relative distances for extrusion
; Filament gcode
M107
;LAYER_CHANGE
;Z:0.3
;HEIGHT:0.3
;BEFORE_LAYER_CHANGE
G92 E0
;0.3


G10 ; retract
G1 Z.3 F7800
;AFTER_LAYER_CHANGE
;0.3
G1 X97.751 Y96.017
G11 ; unretract
;TYPE:Skirt/Brim
;WIDTH:0.42
G1 F1800
G1 X98.666 Y95.141 E.05619
G1 X99.566 Y94.423 E.05107
G1 X100.624 Y93.725 E.05622
G1 X101.638 Y93.18 E.05106
G1 X102.803 Y92.682 E.0562
G1 X103.898 Y92.326 E.05107
G1 X105.133 Y92.044 E.05619
G1 X106.274 Y91.89 E.05107
G1 X107.495 Y91.831 E.05422
G1 X117.518 Y92.218 E.4449
G1 X118.713 Y92.272 E.05306
G1 X119.969 Y92.442 E.05622
G1 X121.091 Y92.699 E.05105
G1 X122.296 Y93.09 E.05619
G1 X123.355 Y93.543 E.05109
G1 X124.47 Y94.143 E.05616
G1 X125.431 Y94.778 E.05109
G1 X126.421 Y95.568 E.05618
G1 X127.253 Y96.364 E.05107
G1 X128.087 Y97.318 E.0562
G1 X128.763 Y98.249 E.05103
G1 X129.413 Y99.337 E.05621
G1 X130.126 Y100.864 E.07475
G1 X137.734 Y120.306 E.92602
G1 X138.272 Y122.114 E.08367
G1 X138.498 Y123.36 E.05617
G1 X138.6 Y124.506 E.05103
G1 X138.6 Y125.773 E.0562
G1 X138.497 Y126.919 E.05104
G1 X138.27 Y128.165 E.05618
G1 X137.964 Y129.274 E.05103
G1 X137.519 Y130.46 E.05619
G1 X137.019 Y131.496 E.05102
G1 X136.37 Y132.583 E.05615
G1 X135.693 Y133.515 E.05109
G1 X134.86 Y134.468 E.05614
G1 X134.028 Y135.264 E.05107
G1 X133.038 Y136.053 E.05615
G1 X132.078 Y136.687 E.05103
G1 X130.963 Y137.288 E.05618
G1 X129.905 Y137.74 E.05103
G1 X128.7 Y138.132 E.0562
G1 X127.578 Y138.388 E.05105
G1 X126.323 Y138.559 E.05618
G1 X124.783 Y138.617 E.06835
G1 X104.378 Y138.412 E.90511
G1 X102.357 Y138.193 E.09017
G1 X101.123 Y137.911 E.05614
G1 X100.028 Y137.555 E.05107
G1 X98.864 Y137.057 E.05616
G1 X97.851 Y136.511 E.05104
G1 X96.794 Y135.814 E.05616
G1 X95.894 Y135.096 E.05107
G1 X94.979 Y134.221 E.05615
G1 X94.222 Y133.354 E.05105
G1 X93.109 Y131.713 E.08795
G1 X92.338 Y130.201 E.07528
G1 X91.933 Y129.123 E.05108
G1 X91.596 Y127.903 E.05614
G1 X91.39 Y126.77 E.05108
G1 X91.277 Y125.509 E.05616
G1 X91.346 Y123.368 E.09501
G1 X94.117 Y103.744 E.87905
G1 X94.367 Y102.338 E.06334
G1 X94.704 Y101.116 E.05622
G1 X95.108 Y100.038 E.05106
G1 X95.658 Y98.897 E.05618
G1 X96.248 Y97.909 E.05104
G1 X96.993 Y96.884 E.0562
G1 X97.711 Y96.062 E.04841
G1 X97.979 Y96.296 F7800
G1 F1800
G1 X98.018 Y96.251 E.00264
G1 X98.888 Y95.419 E.05339
G1 X99.788 Y94.701 E.05107
G1 X100.792 Y94.038 E.05337
G1 X101.806 Y93.493 E.05106
G1 X102.913 Y93.02 E.0534
G1 X104.007 Y92.664 E.05103
G1 X105.18 Y92.397 E.05336
G1 X106.321 Y92.242 E.05107
G1 X107.481 Y92.186 E.05151
G1 X117.504 Y92.574 E.4449
G1 X118.697 Y92.627 E.05297
G1 X119.89 Y92.789 E.0534
G1 X121.012 Y93.045 E.05105
G1 X122.156 Y93.417 E.05336
G1 X123.215 Y93.87 E.05109
G1 X124.274 Y94.44 E.05334
G1 X125.235 Y95.075 E.05109
G1 X126.175 Y95.825 E.05334
G1 X127.007 Y96.621 E.05107
G1 X127.799 Y97.527 E.05338
G1 X128.475 Y98.458 E.05103
G1 X129.092 Y99.491 E.05337
G1 X129.794 Y100.994 E.07358
G1 X137.403 Y120.436 E.92604
G1 X137.929 Y122.208 E.08199
G1 X138.143 Y123.392 E.05337
G1 X138.246 Y124.538 E.05104
G1 X138.246 Y125.741 E.05336
G1 X138.142 Y126.887 E.05104
G1 X137.927 Y128.07 E.05333
G1 X137.621 Y129.18 E.05107
G1 X137.198 Y130.305 E.05331
G1 X136.699 Y131.342 E.05104
G1 X136.082 Y132.374 E.05333
G1 X135.406 Y133.306 E.05107
G1 X134.614 Y134.211 E.05334
G1 X133.783 Y135.006 E.05101
G1 X132.842 Y135.756 E.05337
G1 X131.882 Y136.391 E.05105
G1 X130.823 Y136.961 E.05334
G1 X129.765 Y137.413 E.05103
G1 X128.621 Y137.785 E.05336
G1 X127.499 Y138.042 E.05105
G1 X126.307 Y138.203 E.05335
G1 X124.787 Y138.262 E.06747
G1 X104.381 Y138.056 E.90515
G1 X102.405 Y137.841 E.08816
G1 X101.233 Y137.573 E.05333
G1 X100.138 Y137.217 E.05107
G1 X99.032 Y136.744 E.05335
G1 X98.019 Y136.198 E.05104
G1 X97.015 Y135.536 E.05334
G1 X96.116 Y134.818 E.05103
G1 X95.247 Y133.987 E.05333
G1 X94.49 Y133.12 E.05105
G1 X93.414 Y131.53 E.08516
G1 X92.671 Y130.076 E.07242
G1 X92.266 Y128.998 E.05108
G1 X91.946 Y127.839 E.05333
G1 X91.74 Y126.707 E.05103
G1 X91.632 Y125.509 E.05335
G1 X91.698 Y123.418 E.09279
G1 X94.469 Y103.794 E.87905
G1 X94.717 Y102.401 E.06276
G1 X95.037 Y101.241 E.05337
G1 X95.441 Y100.163 E.05106
G1 X95.963 Y99.079 E.05336
G1 X96.554 Y98.091 E.05106
G1 X97.261 Y97.118 E.05335
G1 X97.939 Y96.341 E.04574
G1 X98.207 Y96.575 F7800
G1 F1800
G1 X98.286 Y96.485 E.00531
G1 X99.11 Y95.697 E.05057
G1 X100.01 Y94.979 E.05107
G1 X100.961 Y94.352 E.05052
G1 X101.975 Y93.806 E.05108
G1 X103.022 Y93.358 E.05051
G1 X104.117 Y93.003 E.05106
G1 X105.228 Y92.749 E.05055
G1 X107.468 Y92.542 E.09978
G1 X117.491 Y92.929 E.4449
G1 X118.681 Y92.982 E.05283
G1 X119.81 Y93.136 E.05054
G1 X120.933 Y93.392 E.05109
G1 X122.016 Y93.744 E.05051
G1 X123.075 Y94.197 E.05109
G1 X124.078 Y94.737 E.05053
G1 X125.039 Y95.371 E.05107
G1 X125.93 Y96.082 E.05056
G1 X126.762 Y96.878 E.05107
G1 X127.511 Y97.736 E.05052
G1 X128.188 Y98.667 E.05106
G1 X128.772 Y99.645 E.05052
G1 X129.463 Y101.123 E.07237
G1 X137.072 Y120.565 E.92604
G1 X137.586 Y122.303 E.08039
G1 X137.789 Y123.424 E.05053
G1 X137.892 Y124.57 E.05104
G1 X137.892 Y125.709 E.05052
G1 X137.788 Y126.855 E.05104
G1 X137.585 Y127.976 E.05053
G1 X137.278 Y129.085 E.05104
G1 X136.878 Y130.151 E.0505
G1 X136.379 Y131.188 E.05104
G1 X135.794 Y132.165 E.05051
G1 X135.118 Y133.097 E.05107
G1 X134.369 Y133.954 E.05048
G1 X133.537 Y134.749 E.05104
G1 X132.647 Y135.46 E.05053
G1 X131.686 Y136.094 E.05107
G1 X130.683 Y136.634 E.05053
G1 X129.625 Y137.086 E.05103
G1 X128.542 Y137.438 E.05051
G1 X127.42 Y137.695 E.05105
G1 X126.291 Y137.848 E.05053
G1 X124.79 Y137.906 E.06663
G1 X104.385 Y137.701 E.90511
G1 X102.453 Y137.488 E.08621
G1 X101.343 Y137.235 E.0505
G1 X100.248 Y136.879 E.05107
G1 X99.201 Y136.431 E.05051
G1 X98.188 Y135.885 E.05104
G1 X97.237 Y135.258 E.05052
G1 X96.338 Y134.54 E.05103
G1 X95.514 Y133.753 E.05054
G1 X94.757 Y132.886 E.05105
G1 X93.719 Y131.348 E.0823
G1 X93.004 Y129.951 E.06961
G1 X92.599 Y128.873 E.05108
G1 X92.296 Y127.776 E.05048
G1 X92.09 Y126.643 E.05108
G1 X91.988 Y125.509 E.0505
G1 X92.05 Y123.468 E.09057
G1 X94.821 Y103.843 E.8791
G1 X95.066 Y102.465 E.06208
G1 X95.37 Y101.366 E.05058
G1 X95.774 Y100.288 E.05106
G1 X96.269 Y99.262 E.05053
G1 X96.859 Y98.273 E.05108
G1 X97.529 Y97.352 E.05052
G1 X98.168 Y96.62 E.0431
G10 ; retract
G1 X98.168 Y96.62 F7800
G1 X125.517 Y118.75
G11 ; unretract
;TYPE:Support material
G1 F1800
G1 X126.005 Y118.772 E.02167
G1 X127.127 Y119.029 E.05105
G1 X128.186 Y119.482 E.05109
G1 X129.146 Y120.117 E.05105
G1 X129.978 Y120.913 E.05107
G1 X130.654 Y121.844 E.05103
G1 X131.153 Y122.882 E.05108
G1 X131.459 Y123.991 E.05103
G1 X131.562 Y125.138 E.05108
G1 X131.458 Y126.284 E.05104
G1 X131.152 Y127.393 E.05103
G1 X130.653 Y128.43 E.05104
G1 X130.398 Y128.779 E.01917
G1 X129.976 Y129.361 E.03189
G1 X129.144 Y130.156 E.05104
G1 X128.184 Y130.79 E.05103
G1 X127.126 Y131.243 E.05105
G1 X126.004 Y131.499 E.05105
G1 X124.854 Y131.551 E.05106
G1 X123.714 Y131.397 E.05102
G1 X122.619 Y131.042 E.05106
G1 X121.605 Y130.496 E.05108
G1 X120.704 Y129.779 E.05107
G1 X119.946 Y128.912 E.05108
G1 X119.355 Y127.924 E.05106
G1 X118.95 Y126.846 E.05108
G1 X118.837 Y126.222 E.02813
G1 X119.292 Y125.988 E.02269
G1 X120.404 Y125.161 E.06147
G1 X121.332 Y124.193 E.05948
G1 X122.111 Y123.047 E.06146
G1 X122.7 Y121.744 E.06342
G1 X123.046 Y120.402 E.06147
G1 X123.159 Y119.054 E.06
G1 X123.713 Y118.874 E.02584
G1 X124.855 Y118.72 E.05111
G1 X125.464 Y118.748 E.02704
G1 X131.2 Y126.617 F7800
G1 F1800
G1 X131.143 Y124.048 E.11398
G1 X130.805 Y122.897 E.05321
G1 X130.805 Y127.375 E.19862
G1 X130.41 Y128.196 E.04041
G1 X130.41 Y122.075 E.2715
G1 X130.015 Y121.508 E.03065
G1 X130.015 Y128.763 E.32179
G1 X129.62 Y129.259 E.02812
G1 X129.62 Y121.013 E.36575
G1 X129.225 Y120.635 E.02425
G1 X129.225 Y129.636 E.39924
G1 X128.83 Y129.98 E.02323
G1 X128.83 Y120.291 E.42975
G1 X128.434 Y120.03 E.02104
G1 X128.434 Y130.241 E.45291
G1 X128.039 Y130.502 E.021
G1 X128.039 Y119.769 E.47606
G1 X127.644 Y119.598 E.01909
G1 X127.644 Y130.673 E.49123
G1 X127.249 Y130.842 E.01906
G1 X127.249 Y119.429 E.50622
G1 X126.854 Y119.295 E.0185
G1 X126.854 Y130.976 E.51811
G1 X126.459 Y131.067 E.01798
G1 X126.459 Y119.205 E.52614
G1 X126.064 Y119.114 E.01798
G1 X126.064 Y131.157 E.53417
G1 X125.669 Y131.194 E.0176
G1 X125.669 Y119.078 E.5374
G1 X125.273 Y119.06 E.01758
G1 X125.273 Y131.212 E.539
G1 X124.878 Y131.23 E.01754
G1 X124.869 Y119.041 E.54064
G1 X124.483 Y119.093 E.01728
G1 X124.483 Y131.178 E.53603
G1 X124.088 Y131.125 E.01768
G1 X124.088 Y119.147 E.53128
G1 X123.693 Y119.218 E.0178
G1 X123.693 Y131.054 E.52498
G1 X123.298 Y130.926 E.01842
G1 X123.298 Y120.719 E.45273
G1 X122.903 Y122.082 E.06294
G1 X122.903 Y130.797 E.38655
G1 X122.508 Y130.619 E.01922
G1 X122.508 Y122.956 E.33989
G1 X122.112 Y123.616 E.03414
G1 X122.112 Y130.406 E.30117
G1 X121.717 Y130.177 E.02025
G1 X121.717 Y124.201 E.26506
G1 X121.322 Y124.666 E.02706
G1 X121.322 Y129.862 E.23047
G1 X120.927 Y129.547 E.02241
G1 X120.927 Y125.078 E.19822
G1 X120.532 Y125.469 E.02465
G1 X120.532 Y129.096 E.16087
G1 X120.137 Y128.607 E.02788
G1 X120.137 Y125.761 E.12623
G1 X119.742 Y126.054 E.02181
G1 X119.742 Y127.946 E.08392
G1 X119.346 Y126.99 E.0459
G1 X119.346 Y126.142 E.03761
G10 ; retract
G1 X119.346 Y126.142 F7800
G1 X104.937 Y118.537
G11 ; unretract
G1 F1800
G1 X105.599 Y118.566 E.02939
G1 X106.849 Y118.877 E.05713
G1 X106.853 Y119.758 E.03908
G1 X107.091 Y121.123 E.06146
G1 X107.538 Y122.388 E.05951
G1 X108.21 Y123.599 E.06143
G1 X109.108 Y124.712 E.06343
G1 X110.115 Y125.598 E.05949
G1 X111.033 Y126.167 E.0479
G1 X110.751 Y127.189 E.04702
G1 X110.251 Y128.226 E.05106
G1 X109.574 Y129.157 E.05106
G1 X108.741 Y129.953 E.0511
G1 X107.78 Y130.587 E.05107
G1 X106.721 Y131.039 E.05107
G1 X105.599 Y131.294 E.05104
G1 X104.449 Y131.345 E.05106
G1 X103.308 Y131.191 E.05107
G1 X102.214 Y130.835 E.05103
G1 X101.201 Y130.289 E.05104
G1 X100.301 Y129.571 E.05107
G1 X99.544 Y128.705 E.05102
G1 X99.175 Y128.088 E.03189
G1 X98.954 Y127.717 E.01915
G1 X98.549 Y126.64 E.05104
G1 X98.344 Y125.507 E.05107
G1 X98.343 Y124.357 E.05101
G1 X98.548 Y123.224 E.05107
G1 X98.952 Y122.146 E.05106
G1 X99.542 Y121.158 E.05104
G1 X100.299 Y120.291 E.05105
G1 X101.199 Y119.573 E.05107
G1 X102.213 Y119.027 E.05108
G1 X103.307 Y118.67 E.05104
G1 X104.449 Y118.515 E.05112
G1 X104.884 Y118.535 E.01931
G1 X110.654 Y126.94 F7800
G1 F1800
G1 X110.654 Y126.31 E.02794
G1 X110.258 Y126.066 E.02063
G1 X110.258 Y127.473 E.06241
G1 X109.863 Y128.215 E.03728
G1 X109.863 Y125.803 E.10698
G1 X109.468 Y125.455 E.02335
G1 X109.468 Y128.758 E.1465
G1 X109.073 Y129.193 E.02606
G1 X109.073 Y125.107 E.18123
G1 X108.678 Y124.694 E.02535
G1 X108.678 Y129.57 E.21627
G1 X108.283 Y129.872 E.02205
G1 X108.283 Y124.205 E.25136
G1 X107.888 Y123.678 E.02921
G1 X107.888 Y130.132 E.28627
G1 X107.492 Y130.361 E.02029
G1 X107.492 Y122.971 E.32778
G1 X107.097 Y122.102 E.04234
G1 X107.097 Y130.53 E.37382
G1 X106.702 Y130.699 E.01906
G1 X106.702 Y120.772 E.44031
G1 X106.535 Y119.799 E.04379
M73 P0 R114
G1 X106.529 Y119.107 E.03069
G1 X106.307 Y119.056 E.0101
G1 X106.307 Y130.805 E.52112
G1 X105.912 Y130.895 E.01797
G1 X105.912 Y118.966 E.52911
G1 X105.517 Y118.883 E.0179
G1 X105.517 Y130.978 E.53647
G1 X105.122 Y130.995 E.01754
G1 X105.122 Y118.866 E.53798
G1 X104.727 Y118.848 E.01754
G1 X104.727 Y131.013 E.53958
G1 X104.331 Y131.007 E.01757
G1 X104.331 Y118.854 E.53904
G1 X103.936 Y118.908 E.01768
G1 X103.936 Y130.953 E.53425
G1 X103.541 Y130.899 E.01768
G1 X103.541 Y118.961 E.52951
G1 X103.146 Y119.059 E.01805
G1 X103.146 Y130.801 E.52081
G1 X102.751 Y130.673 E.01842
G1 X102.751 Y119.188 E.50942
G1 X102.356 Y119.316 E.01842
G1 X102.356 Y130.544 E.49802
G1 X101.961 Y130.335 E.01982
G1 X101.961 Y119.526 E.47943
G1 X101.566 Y119.739 E.01991
G1 X101.566 Y130.122 E.46054
G1 X101.17 Y129.856 E.02116
G1 X101.17 Y120.005 E.43694
G1 X100.775 Y120.32 E.02241
G1 X100.775 Y129.54 E.40895
G1 X100.38 Y129.175 E.02385
G1 X100.38 Y120.685 E.37657
G1 X99.985 Y121.138 E.02666
G1 X99.985 Y128.723 E.33643
G1 X99.59 Y128.158 E.03058
G1 X99.59 Y121.703 E.28631
G1 X99.195 Y122.412 E.036
G1 X99.195 Y127.448 E.22337
G1 X98.8 Y126.227 E.05692
G1 X98.8 Y123.01 E.14269
G10 ; retract
G1 X98.8 Y123.01 F7800
G1 X107.693 Y98.914
G11 ; unretract
G1 F1800
G1 X108.372 Y98.944 E.03015
G1 X109.495 Y99.2 E.05109
G1 X110.553 Y99.653 E.05105
G1 X111.514 Y100.287 E.05107
G1 X112.346 Y101.083 E.05107
G1 X112.674 Y101.534 E.02473
G1 X113.095 Y101.053 E.02835
G1 X113.995 Y100.335 E.05107
G1 X115.009 Y99.79 E.05106
G1 X116.104 Y99.434 E.05107
G1 X117.245 Y99.28 E.05107
G1 X118.395 Y99.332 E.05106
G1 X119.518 Y99.588 E.05109
G1 X120.576 Y100.041 E.05105
G1 X121.537 Y100.675 E.05107
G1 X122.369 Y101.471 E.05107
G1 X123.045 Y102.402 E.05103
G1 X123.545 Y103.439 E.05106
G1 X123.851 Y104.549 E.05107
G1 X123.954 Y105.695 E.05104
G1 X123.851 Y106.842 E.05108
G1 X123.545 Y107.952 E.05107
G1 X123.045 Y108.989 E.05106
G1 X122.369 Y109.92 E.05103
G1 X121.537 Y110.716 E.05107
G1 X120.576 Y111.35 E.05107
G1 X119.517 Y111.802 E.05107
G1 X118.963 Y111.929 E.02521
G1 X118.016 Y111.455 E.04697
G1 X116.69 Y111.053 E.06146
G1 X115.315 Y110.881 E.06146
G1 X113.872 Y110.956 E.06409
G1 X113.095 Y110.337 E.04406
G1 X112.371 Y109.509 E.04879
G1 X111.514 Y110.329 E.05261
G1 X110.553 Y110.963 E.05107
G1 X109.495 Y111.415 E.05103
G1 X108.372 Y111.671 E.05109
G1 X107.222 Y111.723 E.05106
G1 X106.081 Y111.569 E.05107
G1 X104.986 Y111.213 E.05107
G1 X103.973 Y110.667 E.05104
G1 X103.072 Y109.949 E.0511
G1 X102.763 Y109.595 E.02084
G1 X102.315 Y109.082 E.03021
G1 X101.725 Y108.094 E.05104
G1 X101.32 Y107.016 E.05108
G1 X101.114 Y105.883 E.05108
G1 X101.114 Y104.732 E.05105
G1 X101.32 Y103.599 E.05108
G1 X101.725 Y102.521 E.05108
G1 X102.315 Y101.533 E.05104
G1 X103.072 Y100.666 E.05105
G1 X103.973 Y99.948 E.0511
G1 X104.986 Y99.403 E.05102
G1 X106.081 Y99.047 E.05107
G1 X107.222 Y98.893 E.05107
G1 X107.639 Y98.911 E.01851
G1 X123.298 Y108.095 F7800
G1 F1800
G1 X123.298 Y103.748 E.19281
G1 X122.903 Y102.843 E.0438
G1 X122.903 Y108.547 E.253
G1 X122.508 Y109.184 E.03325
G1 X122.508 Y102.206 E.30951
G1 X122.112 Y101.668 E.02963
G1 X122.112 Y109.722 E.35723
G1 X121.717 Y110.1 E.02425
G1 X121.717 Y101.29 E.39077
G1 X121.322 Y100.917 E.0241
G1 X121.322 Y110.474 E.4239
G1 X120.927 Y110.735 E.021
G1 X120.927 Y100.656 E.44705
G1 X120.532 Y100.395 E.021
G1 X120.532 Y110.995 E.47016
G1 X120.137 Y111.19 E.01954
G1 X120.137 Y100.201 E.48742
G1 X119.742 Y100.032 E.01906
G1 X119.742 Y111.358 E.50236
G1 X119.346 Y111.513 E.01886
G1 X119.346 Y99.877 E.51611
G1 X118.951 Y99.787 E.01797
G1 X118.951 Y111.565 E.52241
G1 X118.556 Y111.365 E.01964
G1 X118.556 Y99.697 E.51753
G1 X118.161 Y99.642 E.01769
G1 X118.161 Y111.169 E.51128
G1 X117.766 Y111.044 E.01838
G1 X117.766 Y99.624 E.50653
G1 X117.371 Y99.606 E.01754
G1 X117.371 Y110.923 E.50196
G1 X116.976 Y110.802 E.01832
G1 X116.976 Y99.639 E.49513
G1 X116.581 Y99.693 E.01768
G1 X116.581 Y110.717 E.48897
G1 X116.185 Y110.666 E.01771
G1 X116.185 Y99.746 E.48435
G1 X115.79 Y99.873 E.0184
G1 X115.79 Y110.616 E.4765
G1 X115.395 Y110.565 E.01767
G1 X115.395 Y100.001 E.46856
G1 X115 Y100.158 E.01885
G1 X115 Y110.574 E.462
G1 X114.605 Y110.591 E.01754
G1 X114.605 Y100.371 E.45331
G1 X114.21 Y100.583 E.01988
G1 X114.21 Y110.608 E.44466
G1 X113.961 Y110.618 E.01105
G1 X113.815 Y110.502 E.00827
G1 X113.815 Y100.889 E.42638
