; generated by PrusaSlicer 2.7.1+win64 on 2024-01-21 at 23:44:44 UTC

; 

; external perimeters extrusion width = 0.45mm
; perimeters extrusion width = 0.45mm
; infill extrusion width = 0.45mm
; solid infill extrusion width = 0.45mm
; top infill extrusion width = 0.40mm
; support material extrusion width = 0.35mm
; first layer extrusion width = 0.42mm

; external perimeters extrusion width = 0.45mm
; perimeters extrusion width = 0.45mm
; infill extrusion width = 0.45mm
; solid infill extrusion width = 0.45mm
; top infill extrusion width = 0.40mm
; support material extrusion width = 0.35mm
; first layer extrusion width = 0.42mm

; external perimeters extrusion width = 0.45mm
; perimeters extrusion width = 0.45mm
; infill extrusion width = 0.45mm
; solid infill extrusion width = 0.45mm
; top infill extrusion width = 0.40mm
; support material extrusion width = 0.35mm
; first layer extrusion width = 0.42mm

M73 P0 R155
M190 S50 ; set bed temperature and wait for it to be reached
M104 S230 ; set temperature
;TYPE:Custom
START_PRINT EXTRUDER_TEMP=230 BED_TEMP=50 Z_OFFSET=0.1
M109 S230 ; set temperature and wait for it to be reached
G21 ; set units to millimeters
G90 ; use absolute coordinates
M83 ; use relative distances for extrusion
; Filament gcode
M107
;LAYER_CHANGE
;Z:0.3
;HEIGHT:0.3
;BEFORE_LAYER_CHANGE
G92 E0
;0.3


G10 ; retract
G1 Z.3 F7800
;AFTER_LAYER_CHANGE
;0.3
G1 X87.54 Y70.95
G11 ; unretract
;TYPE:Skirt/Brim
;WIDTH:0.42
G1 F1800
G1 X88.298 Y70.084 E.05105
G1 X89.214 Y69.211 E.05613
G1 X90.114 Y68.494 E.05104
G1 X91.171 Y67.798 E.05613
G1 X92.184 Y67.253 E.05102
G1 X93.348 Y66.757 E.05612
G1 X94.442 Y66.402 E.05101
G1 X95.675 Y66.12 E.0561
G1 X97.555 Y65.905 E.08393
G1 X128.387 Y65.015 E1.36812
G1 X129.538 Y65.067 E.0511
G1 X130.792 Y65.236 E.05612
G1 X131.915 Y65.492 E.05109
G1 X133.119 Y65.883 E.05615
G1 X134.178 Y66.336 E.05109
G1 X135.293 Y66.935 E.05614
G1 X136.254 Y67.569 E.05107
G1 X137.245 Y68.358 E.05619
G1 X138.077 Y69.154 E.05107
G1 X138.911 Y70.107 E.05617
G1 X139.589 Y71.039 E.05112
G1 X140.239 Y72.125 E.05614
G1 X140.739 Y73.163 E.0511
G1 X141.185 Y74.349 E.0562
G1 X141.492 Y75.459 E.05108
G1 X144.624 Y90.916 E.69953
G1 X144.837 Y92.838 E.08577
G1 X144.511 Y122.46 E1.31396
G1 X144.379 Y123.957 E.06666
G1 X135.617 Y161.856 E1.72534
G1 X135.2 Y163.231 E.06373
G1 X134.519 Y164.724 E.07279
G1 X133.69 Y166.091 E.07091
G1 X132.896 Y167.158 E.05899
G1 X132.135 Y168.001 E.05037
G1 X131.078 Y168.957 E.06321
G1 X130.148 Y169.642 E.05123
G1 X128.881 Y170.385 E.06515
G1 X127.823 Y170.866 E.05155
G1 X126.411 Y171.335 E.06599
G1 X125.276 Y171.584 E.05154
G1 X123.791 Y171.747 E.06626
G1 X106.402 Y171.718 E.77129
G1 X104.979 Y171.57 E.06346
G1 X103.866 Y171.339 E.05042
G1 X102.492 Y170.903 E.06394
G1 X101.452 Y170.452 E.05028
G1 X100.206 Y169.755 E.06333
G1 X99.271 Y169.099 E.05066
G1 X98.155 Y168.127 E.06564
G1 X97.412 Y167.328 E.04839
G1 X96.644 Y166.341 E.05547
G1 X95.402 Y164.269 E.10715
G1 X94.657 Y162.301 E.09334
G1 X94.416 Y161.186 E.0506
G1 X88.04 Y123.465 E1.69684
G1 X84.947 Y94.226 E1.30413
G1 X84.583 Y79.947 E.63355
G1 X84.584 Y78.794 E.05114
G1 X84.7 Y77.533 E.05617
G1 X84.907 Y76.4 E.05109
G1 X85.246 Y75.179 E.05621
G1 X85.652 Y74.101 E.05109
G1 X86.203 Y72.961 E.05616
G1 X86.794 Y71.974 E.05103
G1 X87.497 Y71.009 E.05296
G1 X87.784 Y71.217 F7800
G1 F1800
G1 X87.807 Y71.185 E.00175
G1 X88.566 Y70.319 E.05108
G1 X89.435 Y69.489 E.0533
G1 X90.336 Y68.772 E.05107
G1 X91.339 Y68.111 E.05328
G1 X92.353 Y67.567 E.05104
G1 X93.458 Y67.095 E.0533
G1 X94.552 Y66.74 E.05101
G1 X95.723 Y66.473 E.05327
G1 X97.565 Y66.261 E.08224
G1 X128.371 Y65.37 E1.36697
G1 X129.522 Y65.422 E.0511
G1 X130.713 Y65.583 E.05331
G1 X131.836 Y65.839 E.05109
G1 X132.979 Y66.21 E.0533
G1 X134.038 Y66.663 E.05109
G1 X135.097 Y67.232 E.05332
G1 X136.059 Y67.866 E.0511
G1 X136.999 Y68.616 E.05334
G1 X137.832 Y69.411 E.05107
G1 X138.624 Y70.316 E.05334
G1 X139.301 Y71.248 E.05109
G1 X139.919 Y72.28 E.05335
G1 X140.419 Y73.317 E.05106
G1 X140.842 Y74.443 E.05335
G1 X141.15 Y75.554 E.05114
G1 X144.275 Y90.986 E.69838
G1 X144.482 Y92.869 E.08402
G1 X144.155 Y122.456 E1.31241
G1 X144.029 Y123.895 E.06407
G1 X135.27 Y161.776 E1.72454
G1 X134.861 Y163.122 E.0624
G1 X134.215 Y164.54 E.06911
G1 X133.386 Y165.906 E.07087
G1 X132.632 Y166.92 E.05605
G1 X131.871 Y167.763 E.05037
G1 X130.867 Y168.671 E.06004
G1 X129.937 Y169.356 E.05123
G1 X128.734 Y170.061 E.06185
G1 X127.676 Y170.542 E.05155
G1 X126.335 Y170.988 E.06268
G1 X125.2 Y171.236 E.05153
G1 X123.79 Y171.391 E.06292
G1 X106.402 Y171.362 E.77124
G1 X105.051 Y171.222 E.06024
G1 X103.938 Y170.991 E.05042
G1 X102.634 Y170.577 E.06068
G1 X101.594 Y170.126 E.05028
G1 X100.41 Y169.463 E.06019
G1 X99.475 Y168.808 E.05064
G1 X98.415 Y167.884 E.06237
G1 X97.672 Y167.086 E.04836
G1 X96.943 Y166.148 E.05269
G1 X95.712 Y164.095 E.10618
G1 X95.004 Y162.226 E.08865
G1 X94.764 Y161.111 E.05059
G1 X88.394 Y123.427 E1.69518
G1 X85.3 Y94.189 E1.30409
G1 X84.938 Y79.947 E.63191
G1 X84.94 Y78.795 E.0511
G1 X85.05 Y77.597 E.05336
G1 X85.257 Y76.464 E.05109
G1 X85.579 Y75.304 E.0534
G1 X85.985 Y74.227 E.05105
G1 X86.508 Y73.144 E.05334
G1 X87.1 Y72.156 E.05109
G1 X87.741 Y71.275 E.04833
G1 X88.028 Y71.484 F7800
G1 F1800
G1 X88.075 Y71.419 E.00356
G1 X88.833 Y70.553 E.05105
G1 X89.657 Y69.767 E.05051
G1 X90.557 Y69.05 E.05104
G1 X91.507 Y68.424 E.05046
G1 X92.521 Y67.88 E.05104
G1 X93.567 Y67.433 E.05045
G1 X94.662 Y67.078 E.05106
G1 X95.771 Y66.825 E.05045
G1 X97.576 Y66.616 E.0806
G1 X128.355 Y65.725 E1.36577
G1 X129.506 Y65.777 E.0511
G1 X130.634 Y65.93 E.05049
G1 X131.756 Y66.186 E.05105
G1 X132.839 Y66.537 E.0505
G1 X133.898 Y66.99 E.05109
G1 X134.901 Y67.529 E.0505
G1 X135.863 Y68.163 E.0511
G1 X136.753 Y68.873 E.0505
G1 X137.586 Y69.668 E.05107
G1 X138.336 Y70.525 E.05051
G1 X139.014 Y71.457 E.05112
G1 X139.598 Y72.434 E.05049
G1 X140.099 Y73.472 E.05112
G1 X140.5 Y74.538 E.05052
G1 X140.912 Y76.089 E.07118
G1 X143.926 Y91.057 E.67723
G1 X144.128 Y92.901 E.08228
G1 X143.799 Y122.452 E1.31081
G1 X143.678 Y123.833 E.06149
G1 X134.924 Y161.696 E1.72371
G1 X134.523 Y163.013 E.06106
G1 X133.911 Y164.355 E.06542
G1 X133.082 Y165.722 E.07091
G1 X132.368 Y166.681 E.05303
G1 X131.607 Y167.524 E.05037
G1 X130.656 Y168.385 E.0569
G1 X129.726 Y169.07 E.05123
G1 X128.587 Y169.738 E.05857
G1 X127.529 Y170.218 E.05153
G1 X126.259 Y170.64 E.05936
G1 X125.124 Y170.889 E.05154
G1 X123.789 Y171.036 E.05957
G1 X122.594 Y171.04 E.053
G1 X106.403 Y171.007 E.71815
G1 X105.123 Y170.874 E.05708
G1 X104.011 Y170.642 E.05038
G1 X102.775 Y170.251 E.0575
G1 X101.735 Y169.8 E.05028
G1 X100.615 Y169.172 E.05695
G1 X99.679 Y168.516 E.0507
G1 X98.676 Y167.642 E.05901
G1 X97.933 Y166.844 E.04836
G1 X97.242 Y165.956 E.04991
G1 X96.022 Y163.921 E.10524
G1 X95.352 Y162.151 E.08394
G1 X95.111 Y161.036 E.0506
G1 X88.748 Y123.39 E1.69346
G1 X85.654 Y94.152 E1.30409
G1 X85.294 Y79.948 E.63022
G1 X85.296 Y78.795 E.05114
G1 X85.399 Y77.661 E.05051
G1 X85.607 Y76.528 E.05109
G1 X85.911 Y75.43 E.05053
G1 X86.317 Y74.352 E.05109
G1 X86.813 Y73.327 E.05051
G1 X87.405 Y72.339 E.05109
G1 X87.985 Y71.542 E.04372
G10 ; retract
G1 X87.985 Y71.542 F7800
G1 X131.679 Y87.054
G11 ; unretract
;TYPE:Support material
G1 F1800
G1 X132.24 Y87.079 E.02491
G1 X133.365 Y87.338 E.0512
G1 X134.425 Y87.793 E.05116
G1 X135.386 Y88.429 E.05111
G1 X136.218 Y89.228 E.05116
G1 X136.894 Y90.161 E.0511
G1 X137.392 Y91.2 E.0511
G1 X137.696 Y92.311 E.05109
G1 X137.797 Y93.459 E.05112
G1 X137.692 Y94.605 E.05104
G1 X137.384 Y95.714 E.05105
G1 X136.883 Y96.75 E.05104
G1 X136.19 Y97.702 E.05223
G1 X135.287 Y98.532 E.0544
G1 X134.414 Y99.107 E.04637
G1 X133.356 Y99.559 E.05103
G1 X132.235 Y99.815 E.051
G1 X131.085 Y99.868 E.05106
G1 X129.945 Y99.714 E.05102
G1 X128.849 Y99.359 E.0511
G1 X127.835 Y98.815 E.05104
G1 X126.934 Y98.097 E.0511
G1 X126.175 Y97.231 E.05108
G1 X125.583 Y96.242 E.05113
G1 X125.176 Y95.163 E.05115
G1 X124.969 Y94.029 E.05113
G1 X124.969 Y92.876 E.05114
G1 X125.174 Y91.741 E.05116
G1 X125.579 Y90.661 E.05116
G1 X126.019 Y89.922 E.03815
G1 X128.498 Y89.96 E.10997
G1 X129.008 Y89.897 E.02279
G1 X129.381 Y89.606 E.02098
G1 X129.567 Y89.255 E.01762
G1 X129.608 Y87.289 E.08722
M73 P0 R154
G1 X131.089 Y87.026 E.06672
G1 X131.626 Y87.051 E.02384
G1 X137.114 Y95.904 F7800
G1 F1800
G1 X137.114 Y91.399 E.19982
G1 X136.719 Y90.538 E.04202
G1 X136.719 Y96.354 E.25797
G1 X136.324 Y96.974 E.03261
G1 X136.324 Y89.92 E.31288
G1 X135.929 Y89.394 E.02918
G1 X135.929 Y97.507 E.35985
G1 X135.534 Y97.87 E.02379
G1 X135.534 Y89.015 E.39276
G1 X135.139 Y88.649 E.02389
G1 X135.139 Y98.233 E.4251
G1 X134.743 Y98.506 E.02133
G1 X134.743 Y88.387 E.44883
G1 X134.348 Y88.126 E.021
G1 X134.348 Y98.767 E.47198
G1 X133.953 Y98.956 E.01942
G1 X133.953 Y87.938 E.4887
G1 X133.558 Y87.769 E.01906
G1 X133.558 Y99.125 E.50369
G1 X133.163 Y99.275 E.01874
G1 X133.163 Y87.62 E.51696
G1 X132.768 Y87.529 E.01798
G1 X132.768 Y99.365 E.52498
G1 X132.373 Y99.456 E.01798
G1 X132.373 Y87.438 E.53306
G1 X131.978 Y87.388 E.01766
G1 X131.978 Y99.507 E.53754
G1 X131.582 Y99.525 E.01758
G1 X131.582 Y87.37 E.53913
G1 X131.187 Y87.351 E.01754
G1 X131.187 Y99.543 E.54077
G1 X130.792 Y99.505 E.0176
G1 X130.792 Y87.389 E.5374
G1 X130.397 Y87.442 E.01768
G1 X130.397 Y99.452 E.5327
G1 X130.002 Y99.396 E.0177
G1 X130.002 Y87.498 E.52773
G1 X129.924 Y87.523 E.00363
G1 X129.887 Y89.302 E.07892
G1 X129.797 Y89.583 E.01309
G1 X129.607 Y89.833 E.01393
G1 X129.607 Y99.268 E.41849
G1 X129.212 Y99.14 E.01842
G1 X129.212 Y90.148 E.39884
G1 X128.816 Y90.264 E.0183
G1 X128.816 Y98.978 E.38651
G1 X128.421 Y98.766 E.01988
G1 X128.421 Y90.279 E.37644
G1 X128.026 Y90.273 E.01752
G1 X128.026 Y98.554 E.3673
G1 X127.631 Y98.243 E.0223
G1 X127.631 Y90.267 E.35377
G1 X127.236 Y90.261 E.01752
G1 X127.236 Y97.929 E.34011
G1 X126.841 Y97.506 E.02567
G1 X126.841 Y90.255 E.32162
G1 X126.446 Y90.249 E.01752
G1 X126.446 Y97.054 E.30183
G1 X126.051 Y96.401 E.03385
G1 X126.051 Y90.494 E.262
G1 X125.655 Y91.367 E.04252
G1 X125.655 Y95.982 E.2047
G10 ; retract
G1 X125.655 Y95.982 F7800
G1 X114.705 Y79.377
G11 ; unretract
G1 F1800
G1 X115.283 Y79.467 E.02595
G1 X116.405 Y80.037 E.05582
G1 X117.296 Y80.925 E.0558
G1 X117.868 Y82.046 E.05582
G1 X118.034 Y83.093 E.04702
G1 X117.842 Y83.556 E.02223
G1 X117.826 Y84.612 E.04684
G1 X117.324 Y85.595 E.04896
G1 X117.799 Y86.525 E.04632
G1 X117.794 Y89.164 E.11705
G1 X117.264 Y90.203 E.05173
G1 X116.375 Y91.091 E.05573
G1 X115.254 Y91.66 E.05576
G1 X114.013 Y91.855 E.05572
G1 X112.773 Y91.657 E.0557
G1 X111.656 Y91.086 E.05564
G1 X110.769 Y90.198 E.05567
G1 X110.509 Y89.686 E.02547
G1 X111.614 Y89.629 E.04908
G1 X111.947 Y89.379 E.01847
G1 X112.153 Y89.036 E.01775
G1 X112.267 Y83.488 E.24613
G1 X112.096 Y82.968 E.02428
G1 X111.706 Y82.708 E.02079
G1 X111.294 Y82.631 E.01859
G1 X110.143 Y82.608 E.05106
G1 X110.231 Y82.051 E.02501
G1 X110.799 Y80.933 E.05562
G1 X111.685 Y80.044 E.05567
G1 X112.802 Y79.472 E.05566
G1 X114.043 Y79.273 E.05575
G1 X114.652 Y79.369 E.02735
G1 X117.358 Y89.668 F7800
G1 F1800
G1 X117.358 Y86.365 E.1465
G1 X116.964 Y85.595 E.03836
G1 X117.358 Y84.825 E.03836
G1 X117.358 Y81.75 E.13639
G1 X117.034 Y81.116 E.03158
G1 X116.963 Y81.045 E.00445
G1 X116.963 Y90.052 E.3995
G1 X116.567 Y90.446 E.02478
G1 X116.567 Y80.651 E.43446
G1 X116.172 Y80.277 E.02413
G1 X116.172 Y90.835 E.4683
G1 X115.777 Y91.035 E.01964
G1 X115.777 Y80.077 E.48604
G1 X115.382 Y79.876 E.01966
G1 X115.382 Y91.236 E.50387
G1 X115.155 Y91.352 E.01131
G1 X114.987 Y91.378 E.00754
G1 X114.987 Y79.745 E.51598
G1 X114.592 Y79.683 E.01773
G1 X114.592 Y91.44 E.52148
G1 X114.197 Y91.502 E.01773
G1 X114.197 Y79.621 E.52698
G1 X113.801 Y79.636 E.01758
G1 X113.801 Y91.497 E.52609
G1 X113.406 Y91.434 E.01774
G1 X113.406 Y79.7 E.52046
G1 X113.011 Y79.763 E.01774
G1 X113.011 Y91.371 E.51487
G1 X112.616 Y91.217 E.0188
G1 X112.616 Y79.927 E.50077
G1 X112.221 Y80.129 E.01968
G1 X112.221 Y82.651 E.11186
G1 X111.826 Y82.41 E.02052
G1 X111.826 Y80.356 E.0911
G1 X111.431 Y80.753 E.02484
G1 X111.431 Y82.327 E.06981
G1 X111.036 Y82.302 E.01756
G1 X111.036 Y81.174 E.05003
G1 X110.64 Y81.952 E.03872
G1 X110.64 Y82.456 E.02235
G10 ; retract
G1 X110.64 Y82.456 F7800
G1 X112.221 Y91.195
G11 ; unretract
G1 F1800
G1 X112.221 Y89.553 E.07283
G1 X111.826 Y89.875 E.0226
G1 X111.826 Y90.803 E.04116
G1 X111.431 Y90.407 E.02481
G1 X111.431 Y89.835 E.02537
G10 ; retract
G1 X111.431 Y89.835 F7800
G1 X98.643 Y86.501
G11 ; unretract
G1 F1800
G1 X99.23 Y86.526 E.02606
G1 X100.391 Y86.797 E.05288
G1 X100.374 Y88.836 E.09044
G1 X100.523 Y89.143 E.01514
G1 X100.855 Y89.439 E.01973
G1 X101.22 Y89.539 E.01679
G1 X103.881 Y89.585 E.11805
G1 X104.392 Y90.64 E.05199
G1 X104.699 Y91.752 E.05117
G1 X104.801 Y92.901 E.05116
G1 X104.697 Y94.049 E.05113
G1 X104.389 Y95.16 E.05114
G1 X103.888 Y96.198 E.05112
G1 X103.21 Y97.13 E.05112
G1 X102.376 Y97.925 E.05111
G1 X101.414 Y98.559 E.0511
G1 X100.355 Y99.01 E.05105
G1 X99.233 Y99.265 E.05104
G1 X98.083 Y99.316 E.05106
G1 X96.943 Y99.161 E.05103
G1 X95.849 Y98.806 E.05101
G1 X94.927 Y98.31 E.04644
G1 X93.954 Y97.564 E.05438
G1 X93.179 Y96.679 E.05218
G1 X92.588 Y95.692 E.05103
G1 X92.182 Y94.615 E.05105
G1 X91.974 Y93.483 E.05105
G1 X91.972 Y92.331 E.0511
G1 X92.176 Y91.198 E.05106
G1 X92.578 Y90.118 E.05111
G1 X93.167 Y89.128 E.0511
G1 X93.924 Y88.259 E.05112
G1 X94.824 Y87.538 E.05115
G1 X95.839 Y86.99 E.05116
G1 X96.935 Y86.632 E.05114
G1 X98.079 Y86.476 E.05121
G1 X98.589 Y86.498 E.02264
G1 X104.318 Y94.817 F7800
G1 F1800
G1 X104.318 Y91.576 E.14375
G1 X103.923 Y90.403 E.0549
G1 X103.923 Y95.39 E.2212
G1 X103.528 Y96.149 E.03795
G1 X103.528 Y89.899 E.27722
G1 X103.133 Y89.893 E.01752
G1 X103.133 Y96.692 E.30157
G1 X102.738 Y97.138 E.02643
G1 X102.738 Y89.887 E.32162
G1 X102.343 Y89.881 E.01752
G1 X102.343 Y97.515 E.3386
G1 X101.948 Y97.824 E.02224
G1 X101.948 Y89.875 E.35258
G1 X101.552 Y89.867 E.01757
G1 X101.552 Y98.084 E.36446
G1 X101.157 Y98.32 E.02041
G1 X101.157 Y89.853 E.37555
G1 X100.762 Y89.746 E.01815
G1 X100.762 Y98.489 E.38779
G1 X100.367 Y98.657 E.01904
G1 X100.367 Y89.45 E.40837
G1 X100.125 Y89.119 E.01819
G1 X100.055 Y88.887 E.01075
G1 X100.067 Y87.044 E.08175
G1 X99.972 Y87.023 E.00432
G1 X99.972 Y98.769 E.52099
G1 X99.577 Y98.859 E.01797
G1 X99.577 Y86.933 E.52898
G1 X99.182 Y86.844 E.01796
G1 X99.182 Y98.947 E.53683
G1 X98.786 Y98.965 E.01758
G1 X98.786 Y86.827 E.53838
G1 X98.391 Y86.81 E.01754
G1 X98.391 Y98.982 E.53989
G1 X97.996 Y98.981 E.01752
G1 X97.996 Y86.81 E.53984
G1 X97.601 Y86.864 E.01768
G1 X97.601 Y98.928 E.5351
G1 X97.206 Y98.874 E.01768
G1 X97.206 Y86.918 E.53031
G1 X96.811 Y87.009 E.01798
G1 X96.811 Y98.782 E.52219
G1 X96.416 Y98.653 E.01843
G1 X96.416 Y87.138 E.51075
G1 X96.021 Y87.267 E.01843
G1 X95.975 Y98.51 E.49869
G1 X95.625 Y98.322 E.01762
G1 X95.625 Y87.469 E.48138
G1 X95.23 Y87.683 E.01993
G1 X95.23 Y98.109 E.46244
G1 X94.835 Y97.836 E.0213
G1 X94.835 Y87.94 E.43894
G1 X94.44 Y88.256 E.02244
G1 X94.44 Y97.533 E.41148
G1 X94.045 Y97.182 E.02344
G1 X94.045 Y88.608 E.3803
G1 X93.65 Y89.062 E.02669
G1 X93.65 Y96.731 E.34016
G1 X93.255 Y96.182 E.03
G1 X93.255 Y89.608 E.29159
G1 X92.859 Y90.281 E.03463
G1 X92.859 Y95.506 E.23175
G1 X92.464 Y94.382 E.05284
G1 X92.464 Y90.882 E.15524
G10 ; retract
G1 X92.464 Y90.882 F7800
G1 X98.109 Y72.985
G11 ; unretract
G1 F1800
G1 X98.913 Y73.021 E.0357
G1 X100.034 Y73.276 E.05099
G1 X101.093 Y73.728 E.05107
G1 X102.054 Y74.361 E.05104
G1 X102.887 Y75.156 E.05107
G1 X103.565 Y76.086 E.05105
G1 X104.066 Y77.124 E.05112
G1 X104.374 Y78.234 E.05109
G1 X104.479 Y79.381 E.05109
G1 X104.377 Y80.53 E.05116
G1 X104.071 Y81.641 E.05111
G1 X103.654 Y82.511 E.04279
G1 X101.394 Y82.48 E.10025
G1 X100.877 Y82.614 E.02369
G1 X100.613 Y82.857 E.01591
G1 X100.456 Y83.218 E.01746
G1 X100.412 Y85.342 E.09423
G1 X100.039 Y85.502 E.018
G1 X98.914 Y85.758 E.05117
G1 X97.762 Y85.81 E.05115
G1 X96.619 Y85.655 E.05116
G1 X95.522 Y85.298 E.05117
G1 X94.506 Y84.75 E.0512
G1 X93.605 Y84.03 E.05116
G1 X92.848 Y83.161 E.05112
G1 X92.258 Y82.171 E.05112
