; generated by PrusaSlicer 2.7.1+win64 on 2024-01-21 at 21:24:41 UTC

; 

; external perimeters extrusion width = 0.45mm
; perimeters extrusion width = 0.45mm
; infill extrusion width = 0.45mm
; solid infill extrusion width = 0.45mm
; top infill extrusion width = 0.40mm
; support material extrusion width = 0.35mm
; first layer extrusion width = 0.42mm

; external perimeters extrusion width = 0.45mm
; perimeters extrusion width = 0.45mm
; infill extrusion width = 0.45mm
; solid infill extrusion width = 0.45mm
; top infill extrusion width = 0.40mm
; support material extrusion width = 0.35mm
; first layer extrusion width = 0.42mm

M73 P0 R88
M190 S50 ; set bed temperature and wait for it to be reached
M104 S230 ; set temperature
;TYPE:Custom
START_PRINT EXTRUDER_TEMP=230 BED_TEMP=50 Z_OFFSET=0.1
M109 S230 ; set temperature and wait for it to be reached
G21 ; set units to millimeters
G90 ; use absolute coordinates
M83 ; use relative distances for extrusion
; Filament gcode
M107
;LAYER_CHANGE
;Z:0.3
;HEIGHT:0.3
;BEFORE_LAYER_CHANGE
G92 E0
;0.3


G10 ; retract
G1 Z.3 F7800
;AFTER_LAYER_CHANGE
;0.3
G1 X97.795 Y87.153
G11 ; unretract
;TYPE:Skirt/Brim
;WIDTH:0.42
G1 F1800
G1 X98.767 Y86.215 E.05991
G1 X100.427 Y84.998 E.0913
G1 X101.643 Y84.336 E.06141
G1 X102.671 Y83.902 E.04949
G1 X104.027 Y83.483 E.06295
G1 X105.135 Y83.26 E.05013
G1 X106.532 Y83.121 E.06227
G1 X122.329 Y83.126 E.70067
G1 X123.382 Y83.127 E.04671
G1 X124.811 Y83.273 E.06371
G1 X125.922 Y83.503 E.05032
G1 X127.291 Y83.935 E.06367
G1 X128.332 Y84.385 E.0503
G1 X129.584 Y85.083 E.06358
G1 X130.677 Y85.861 E.05951
G1 X131.727 Y86.808 E.06272
G1 X132.502 Y87.66 E.05109
G1 X133.277 Y88.687 E.05707
G1 X134.119 Y90.045 E.07087
G1 X134.839 Y91.599 E.07597
G1 X142.969 Y119.887 E1.3055
G1 X143.208 Y121.148 E.05693
G1 X143.267 Y122.094 E.04204
G1 X143.255 Y129.857 E.34433
G1 X143.074 Y131.342 E.06635
G1 X142.625 Y132.892 E.07158
G1 X141.938 Y134.323 E.07041
G1 X141.237 Y135.356 E.05537
G1 X135.295 Y142.314 E.40584
G1 X134.245 Y143.209 E.0612
G1 X133.078 Y143.945 E.0612
G1 X132.081 Y144.406 E.04872
G1 X130.766 Y144.82 E.06115
G1 X129.404 Y145.042 E.06121
G1 X128.536 Y145.086 E.03855
G1 X101.46 Y145.086 E1.20095
G1 X99.719 Y144.925 E.07755
G1 X97.913 Y144.406 E.08335
G1 X96.29 Y143.581 E.08075
G1 X95.353 Y142.902 E.05133
G1 X94.699 Y142.312 E.03907
G1 X88.761 Y135.354 E.40573
G1 X87.94 Y134.105 E.0663
G1 X87.28 Y132.633 E.07155
G1 X86.878 Y131.098 E.07038
G1 X86.745 Y129.858 E.05532
G1 X86.733 Y122.094 E.34437
G1 X86.792 Y121.148 E.04204
G1 X87.023 Y119.915 E.05564
G1 X94.764 Y92.437 E1.26622
G1 X95.23 Y91.154 E.06054
G1 X96.052 Y89.509 E.08157
G1 X96.608 Y88.627 E.04625
G1 X97.75 Y87.209 E.08076
G1 X98.026 Y87.432 F7800
G1 F1800
G1 X98.06 Y87.39 E.0024
G1 X99.007 Y86.477 E.05835
G1 X100.626 Y85.292 E.08899
G1 X101.782 Y84.664 E.05835
G1 X102.809 Y84.229 E.04947
G1 X104.098 Y83.832 E.05982
G1 X105.205 Y83.609 E.05009
G1 X106.532 Y83.476 E.05915
G1 X122.329 Y83.482 E.70067
G1 X123.382 Y83.482 E.04671
G1 X124.739 Y83.621 E.0605
G1 X125.85 Y83.851 E.05032
G1 X127.15 Y84.262 E.06047
G1 X128.191 Y84.711 E.05029
G1 X129.38 Y85.375 E.0604
G1 X130.466 Y86.148 E.05913
G1 X131.464 Y87.047 E.05958
G1 X132.239 Y87.899 E.05109
G1 X132.975 Y88.875 E.05422
G1 X133.817 Y90.233 E.07087
G1 X134.501 Y91.708 E.07212
G1 X142.627 Y119.984 E1.30494
G1 X142.854 Y121.182 E.05408
G1 X142.911 Y122.094 E.04053
G1 X142.895 Y129.909 E.34663
G1 X142.669 Y131.536 E.07286
G1 X142.145 Y133.135 E.07463
G1 X141.594 Y134.208 E.0535
G1 X140.953 Y135.142 E.05025
G1 X135.041 Y142.065 E.4038
G1 X134.029 Y142.926 E.05893
G1 X132.905 Y143.634 E.05892
G1 X131.956 Y144.073 E.04638
G1 X130.689 Y144.473 E.05893
G1 X129.379 Y144.688 E.05888
G1 X128.536 Y144.73 E.03744
G1 X101.46 Y144.73 E1.20095
G1 X99.785 Y144.575 E.07461
G1 X98.039 Y144.073 E.08058
G1 X96.478 Y143.279 E.07768
G1 X95.577 Y142.625 E.04938
G1 X94.953 Y142.064 E.03722
G1 X89.045 Y135.14 E.40372
G1 X88.253 Y133.937 E.06388
G1 X87.614 Y132.511 E.06931
G1 X87.228 Y131.036 E.06763
G1 X87.1 Y129.837 E.05348
G1 X87.089 Y122.094 E.34344
G1 X87.146 Y121.183 E.04049
G1 X87.366 Y120.011 E.05289
G1 X95.106 Y92.533 E1.26621
G1 X95.561 Y91.283 E.059
G1 X96.366 Y89.676 E.07972
G1 X96.894 Y88.838 E.04393
G1 X97.981 Y87.488 E.07688
G1 X98.258 Y87.71 F7800
G1 F1800
G1 X98.325 Y87.627 E.00473
G1 X99.247 Y86.739 E.05678
G1 X100.826 Y85.586 E.08672
G1 X101.92 Y84.991 E.05524
G1 X102.948 Y84.557 E.04949
G1 X104.168 Y84.18 E.05664
G1 X105.275 Y83.957 E.05009
G1 X106.532 Y83.832 E.05603
G1 X122.329 Y83.837 E.70067
G1 X123.382 Y83.838 E.04671
G1 X124.667 Y83.97 E.0573
G1 X125.778 Y84.2 E.05032
G1 X127.009 Y84.588 E.05725
G1 X128.05 Y85.038 E.0503
G1 X129.176 Y85.666 E.05719
G1 X130.256 Y86.435 E.05881
G1 X131.201 Y87.286 E.05641
G1 X131.976 Y88.139 E.05112
G1 X132.673 Y89.062 E.0513
G1 X133.515 Y90.42 E.07087
G1 X134.162 Y91.818 E.06833
G1 X142.285 Y120.082 E1.30439
G1 X142.5 Y121.217 E.05124
G1 X142.556 Y122.094 E.03898
G1 X142.545 Y129.815 E.34246
G1 X142.321 Y131.461 E.07368
G1 X141.819 Y132.993 E.07151
G1 X141.287 Y134.029 E.05166
G1 X140.669 Y134.928 E.04839
G1 X134.787 Y141.816 E.40175
G1 X133.814 Y142.643 E.05664
G1 X132.733 Y143.323 E.05665
G1 X131.83 Y143.741 E.04414
G1 X130.613 Y144.126 E.05662
G1 X129.353 Y144.333 E.05664
G1 X128.536 Y144.375 E.03629
G1 X101.46 Y144.375 E1.20095
G1 X99.851 Y144.226 E.07167
G1 X98.165 Y143.74 E.07783
G1 X96.666 Y142.977 E.07461
G1 X95.207 Y141.815 E.08273
G1 X89.33 Y134.927 E.40161
G1 X88.566 Y133.769 E.06153
G1 X87.948 Y132.388 E.06711
G1 X87.579 Y130.973 E.06486
G1 X87.455 Y129.816 E.05161
G1 X87.444 Y122.094 E.34251
G1 X87.5 Y121.217 E.03898
G1 X87.708 Y120.107 E.05009
G1 X95.449 Y92.629 E1.26622
G1 X95.892 Y91.413 E.0574
G1 X96.679 Y89.843 E.0779
G1 X97.18 Y89.05 E.0416
G1 X98.213 Y87.766 E.07309
G10 ; retract
G1 X98.213 Y87.766 F7800
G1 X129.312 Y136.667
G11 ; unretract
;TYPE:Perimeter
;WIDTH:0.42
G1 F1800
G1 X129.073 Y136.785 E.01182
G1 X128.466 Y136.898 E.02739
G1 X101.608 Y136.898 E1.19128
G1 X101.06 Y136.832 E.02448
G1 X100.668 Y136.656 E.01906
G1 X100.326 Y136.355 E.02021
G1 X98.483 Y134.18 E.12645
G1 X99.064 Y134.465 E.0287
G1 X99.589 Y134.635 E.02448
G1 X100.132 Y134.735 E.02449
G1 X100.683 Y134.764 E.02447
G1 X101.233 Y134.72 E.02447
G1 X101.773 Y134.605 E.02449
G1 X102.294 Y134.42 E.02452
G1 X102.785 Y134.169 E.02446
G1 X103.24 Y133.856 E.0245
G1 X103.65 Y133.487 E.02447
G1 X104.008 Y133.067 E.02448
G1 X104.309 Y132.604 E.02449
G1 X104.546 Y132.105 E.0245
G1 X104.716 Y131.58 E.02448
G1 X104.816 Y131.037 E.02449
G1 X104.845 Y130.512 E.02332
G1 X105.059 Y130.831 E.01704
G1 X105.505 Y131.214 E.02608
G1 X105.71 Y131.296 E.00979
G1 X106.277 Y131.415 E.0257
G1 X109.667 Y131.415 E.15036
G1 X110.131 Y131.32 E.02101
G1 X110.411 Y131.186 E.01377
G1 X110.699 Y130.915 E.01754
G1 X110.909 Y130.583 E.01742
G1 X111.023 Y130.059 E.02379
G1 X111.023 Y127.087 E.13182
G1 X110.923 Y126.594 E.02231
G1 X110.744 Y126.287 E.01576
G1 X110.415 Y125.962 E.02051
G1 X109.938 Y125.775 E.02272
G1 X109.631 Y125.734 E.01374
G1 X109.145 Y125.845 E.02211
G1 X108.869 Y125.977 E.01357
G1 X105.507 Y128.362 E.18283
G1 X105.197 Y128.609 E.01758
G1 X104.868 Y129.018 E.02328
G1 X104.717 Y129.508 E.02274
G1 X104.546 Y128.983 E.02449
G1 X104.334 Y128.535 E.02198
G1 X104.058 Y128.095 E.02304
G1 X103.706 Y127.665 E.02465
G1 X103.319 Y127.301 E.02357
G1 X103.4 Y127.275 E.00377
G1 X103.885 Y127.009 E.02454
G1 X107.262 Y124.484 E.18703
G1 X107.424 Y124.326 E.01004
G1 X107.762 Y123.853 E.02579
G1 X107.886 Y123.3 E.02514
G1 X107.855 Y122.861 E.01952
G1 X107.74 Y122.517 E.01609
G1 X107.503 Y122.147 E.01949
G1 X107.237 Y121.899 E.01613
;WIDTH:0.462748
G1 X107.063 Y121.804 E.00985
;WIDTH:0.505497
G1 X106.888 Y121.709 E.01096
;WIDTH:0.548245
G1 X106.714 Y121.614 E.01196
;WIDTH:0.590994
G1 X106.54 Y121.519 E.01302
G1 X106.294 Y121.497 E.01622
;WIDTH:0.570953
G1 X102.11 Y121.497 E.26436
G1 X101.859 Y121.546 E.01616
;WIDTH:0.541417
G1 X101.645 Y121.648 E.01411
;WIDTH:0.500944
G1 X101.431 Y121.751 E.01293
;WIDTH:0.460472
G1 X101.217 Y121.853 E.01171
;WIDTH:0.42
G1 X100.901 Y122.134 E.01876
G1 X100.632 Y122.592 E.02356
G1 X100.504 Y123.179 E.02665
G1 X100.504 Y125.325 E.09519
G1 X100.581 Y125.863 E.02411
G1 X100.776 Y126.334 E.02261
G1 X100.132 Y126.353 E.02858
G1 X99.579 Y126.455 E.02494
G1 X99.064 Y126.623 E.02403
G1 X98.565 Y126.86 E.0245
G1 X98.102 Y127.161 E.02449
G1 X97.682 Y127.519 E.02448
G1 X97.313 Y127.929 E.02447
G1 X97 Y128.384 E.0245
G1 X96.749 Y128.875 E.02446
G1 X96.564 Y129.396 E.02452
G1 X96.449 Y129.936 E.02449
G1 X96.405 Y130.486 E.02447
G1 X96.434 Y131.037 E.02447
G1 X96.534 Y131.58 E.02449
G1 X96.69 Y132.064 E.02256
G1 X95.287 Y130.4 E.09654
G1 X95.015 Y129.933 E.02397
G1 X94.921 Y129.377 E.02501
G1 X94.921 Y122.248 E.31621
G1 X94.955 Y122.017 E.01036
G1 X95.054 Y121.87 E.00786
G1 X96.008 Y120.915 E.05987
G1 X101.417 Y120.915 E.23991
;WIDTH:0.460472
G1 X101.539 Y120.936 E.00612
;WIDTH:0.500944
G1 X101.661 Y120.956 E.00673
;WIDTH:0.541417
G1 X101.782 Y120.976 E.0073
;WIDTH:0.570953
G1 X102.11 Y120.991 E.02075
G1 X106.294 Y120.991 E.26436
;WIDTH:0.590994
G1 X106.606 Y121.001 E.0205
G1 X106.722 Y120.98 E.00774
;WIDTH:0.549258
G1 X106.838 Y120.959 E.00713
;WIDTH:0.507523
G1 X106.955 Y120.938 E.00657
;WIDTH:0.465788
G1 X107.624 Y120.915 E.03351
;WIDTH:0.42
G1 X122.376 Y120.915 E.65432
;WIDTH:0.429181
G1 X123.045 Y120.92 E.03044
;WIDTH:0.468276
G1 X123.162 Y120.939 E.00597
;WIDTH:0.507371
G1 X123.278 Y120.959 E.0065
;WIDTH:0.546466
G1 X123.394 Y120.979 E.00708
;WIDTH:0.570953
G1 X127.89 Y120.991 E.28407
;WIDTH:0.592964
G1 X128.218 Y121.002 E.02164
G1 X128.339 Y120.98 E.00811
;WIDTH:0.550089
G1 X128.461 Y120.959 E.0075
;WIDTH:0.507214
G1 X128.582 Y120.937 E.00679
;WIDTH:0.464339
G1 X129.102 Y120.915 E.02596
;WIDTH:0.42
G1 X133.992 Y120.915 E.21689
G1 X134.905 Y121.829 E.0573
G1 X135.045 Y122.017 E.0104
G1 X135.079 Y122.248 E.01036
G1 X135.071 Y129.517 E.32241
G1 X134.964 Y129.952 E.01987
G1 X134.69 Y130.435 E.02463
G1 X133.311 Y132.062 E.0946
G1 X133.466 Y131.58 E.02246
G1 X133.566 Y131.037 E.02449
G1 X133.595 Y130.486 E.02447
G1 X133.542 Y129.889 E.02658
G1 X133.436 Y129.396 E.02237
G1 X133.251 Y128.875 E.02452
G1 X133 Y128.384 E.02446
G1 X132.687 Y127.929 E.0245
G1 X132.318 Y127.519 E.02447
G1 X131.898 Y127.161 E.02448
G1 X131.435 Y126.86 E.02449
G1 X130.936 Y126.623 E.0245
G1 X130.411 Y126.453 E.02448
G1 X129.745 Y126.346 E.02992
G1 X129.226 Y126.33 E.02303
G1 X129.419 Y125.863 E.02241
G1 X129.496 Y125.315 E.02455
G1 X129.496 Y123.179 E.09474
G1 X129.368 Y122.592 E.02665
G1 X129.1 Y122.134 E.02354
G1 X128.783 Y121.853 E.01879
;WIDTH:0.463241
G1 X128.624 Y121.77 E.00892
;WIDTH:0.506482
G1 X128.466 Y121.687 E.00984
;WIDTH:0.549723
G1 X128.307 Y121.604 E.01086
;WIDTH:0.592964
G1 X128.148 Y121.521 E.01182
G1 X127.89 Y121.497 E.01708
;WIDTH:0.570953
G1 X123.706 Y121.497 E.26436
G1 X123.466 Y121.54 E.01541
;WIDTH:0.546466
G1 X123.232 Y121.66 E.01581
;WIDTH:0.50431
G1 X122.997 Y121.78 E.01448
;WIDTH:0.462155
G1 X122.763 Y121.899 E.01302
;WIDTH:0.42
G1 X122.497 Y122.147 E.01613
G1 X122.26 Y122.517 E.01949
G1 X122.145 Y122.861 E.01609
G1 X122.114 Y123.3 E.01952
G1 X122.215 Y123.794 E.02236
G1 X122.358 Y124.054 E.01316
G1 X122.738 Y124.484 E.02545
G1 X126.197 Y127.063 E.19137
G1 X126.681 Y127.301 E.02392
G1 X126.35 Y127.601 E.01981
G1 X125.992 Y128.021 E.02448
G1 X125.691 Y128.484 E.02449
G1 X125.454 Y128.983 E.0245
G1 X125.283 Y129.508 E.02449
G1 X125.242 Y129.302 E.00932
G1 X125.052 Y128.906 E.01948
G1 X124.659 Y128.48 E.02571
G1 X121.129 Y125.975 E.19199
G1 X120.732 Y125.793 E.01937
G1 X120.371 Y125.735 E.01622
G1 X119.931 Y125.804 E.01975
G1 X119.563 Y125.977 E.01804
G1 X119.258 Y126.284 E.01919
G1 X119.078 Y126.593 E.01586
G1 X118.977 Y127.089 E.02245
G1 X118.977 Y130.059 E.13173
G1 X119.073 Y130.523 E.02102
G1 X119.189 Y130.779 E.01247
G1 X119.589 Y131.186 E.02531
G1 X119.869 Y131.32 E.01377
G1 X120.333 Y131.415 E.02101
G1 X123.424 Y131.415 E.1371
G1 X123.95 Y131.386 E.02337
G1 X124.495 Y131.214 E.02535
G1 X124.941 Y130.831 E.02608
G1 X125.155 Y130.512 E.01704
G1 X125.199 Y131.152 E.02845
G1 X125.314 Y131.692 E.02449
G1 X125.499 Y132.213 E.02452
G1 X125.75 Y132.704 E.02446
G1 X126.063 Y133.159 E.0245
G1 X126.432 Y133.569 E.02447
G1 X126.852 Y133.927 E.02448
G1 X127.315 Y134.228 E.02449
G1 X127.814 Y134.465 E.0245
G1 X128.339 Y134.635 E.02448
G1 X128.882 Y134.735 E.02449
G1 X129.433 Y134.764 E.02447
G1 X129.983 Y134.72 E.02447
G1 X130.523 Y134.605 E.02449
G1 X131.044 Y134.42 E.02452
G1 X131.511 Y134.183 E.02323
G1 X129.69 Y136.331 E.1249
G1 X129.366 Y136.62 E.01926
G1 X129.521 Y136.958 F7800
G1 F1800
G1 X129.05 Y137.175 E.023
G1 X128.491 Y137.253 E.02503
G1 X101.505 Y137.253 E1.19696
G1 X100.961 Y137.177 E.02436
G1 X100.487 Y136.964 E.02305
G1 X100.063 Y136.594 E.02496
G1 X98.198 Y134.394 E.12793
;WIDTH:0.453836
G1 X98.094 Y134.245 E.00883
;WIDTH:0.487672
G1 X97.99 Y134.096 E.00959
;WIDTH:0.521508
G1 X97.886 Y133.947 E.01036
G1 X97.524 Y133.548 E.03072
;WIDTH:0.506168
G1 X96.932 Y132.833 E.05115
G1 X96.729 Y132.627 E.01594
;WIDTH:0.463084
G1 X96.527 Y132.422 E.01431
;WIDTH:0.42
G1 X95.065 Y130.697 E.1003
G1 X94.793 Y130.287 E.02182
G1 X94.639 Y129.942 E.01676
G1 X94.566 Y129.401 E.02421
G1 X94.566 Y122.248 E.31727
G1 X94.62 Y121.878 E.01659
G1 X94.779 Y121.642 E.01262
G1 X95.861 Y120.56 E.06787
G1 X134.139 Y120.56 E1.69781
G1 X135.157 Y121.578 E.06386
G1 X135.38 Y121.878 E.01658
G1 X135.434 Y122.248 E.01659
G1 X135.434 Y129.124 E.30498
G1 X135.417 Y129.667 E.0241
G1 X135.261 Y130.201 E.02468
G1 X134.977 Y130.647 E.02345
G1 X133.552 Y132.327 E.09771
;WIDTH:0.460174
G1 X133.359 Y132.523 E.01358
;WIDTH:0.500349
G1 X133.166 Y132.72 E.015
G1 X132.822 Y133.138 E.02944
;WIDTH:0.484154
G1 X132.475 Y133.548 E.02812
;WIDTH:0.520535
G1 X132.113 Y133.946 E.03061
G1 X132.009 Y134.095 E.01034
;WIDTH:0.487023
G1 X131.904 Y134.244 E.00961
;WIDTH:0.453511
G1 X131.8 Y134.392 E.00878
;WIDTH:0.42
G1 X129.945 Y136.58 E.12723
G1 X129.574 Y136.91 E.02202
G1 X129.697 Y137.263 F7800
;TYPE:External perimeter
G1 F1800
G1 X129.139 Y137.521 E.02727
G1 X128.516 Y137.609 E.02791
G1 X101.48 Y137.609 E1.19918
G1 X100.861 Y137.522 E.02773
G1 X100.48 Y137.351 E.01852
G1 X100.152 Y137.158 E.01688
G1 X99.799 Y136.833 E.02128
G1 X94.794 Y130.927 E.34337
G1 X94.494 Y130.479 E.02391
G1 X94.292 Y130.028 E.02192
G1 X94.21 Y129.425 E.02699
G1 X94.21 Y122.248 E.31833
G1 X94.285 Y121.739 E.02282
G1 X94.503 Y121.415 E.01732
G1 X95.714 Y120.204 E.07596
G1 X134.286 Y120.204 E1.71085
G1 X135.408 Y121.326 E.07038
G1 X135.715 Y121.739 E.02283
G1 X135.79 Y122.248 E.02282
G1 X135.79 Y129.124 E.30498
G1 X135.77 Y129.729 E.02685
G1 X135.588 Y130.349 E.02866
G1 X135.264 Y130.858 E.02676
G1 X130.2 Y136.829 E.34726
G1 X129.757 Y137.224 E.02633
G1 X129.325 Y137.434 F7800
G10 ; retract
G1 X122.696 Y122.475
G11 ; unretract
;TYPE:Perimeter
G1 F1800
G1 X122.74 Y122.407 E.00359
G1 X123.006 Y122.159 E.01613
G1 X123.234 Y122.034 E.01153
G1 X123.706 Y121.928 E.02146
G1 X127.89 Y121.928 E.18558
G1 X128.421 Y122.056 E.02423
G1 X128.719 Y122.252 E.01582
G1 X128.934 Y122.502 E.01463
G1 X129.025 Y122.686 E.0091
G1 X129.141 Y123.179 E.02246
G1 X129.141 Y125.315 E.09474
G1 X129.083 Y125.747 E.01933
G1 X128.944 Y126.111 E.01728
;WIDTH:0.446125
G1 X128.565 Y126.658 E.03169
G1 X128.472 Y126.749 E.0062
G1 X129.016 Y126.7 E.02601
;WIDTH:0.42
G1 X129.726 Y126.701 E.03149
G1 X130.342 Y126.802 E.02769
G1 X130.822 Y126.96 E.02241
G1 X131.277 Y127.179 E.0224
G1 X131.7 Y127.457 E.02245
G1 X132.083 Y127.786 E.02239
G1 X132.42 Y128.164 E.02246
G1 X132.705 Y128.581 E.0224
G1 X132.932 Y129.033 E.02243
G1 X133.099 Y129.51 E.02242
G1 X133.202 Y130.005 E.02243
G1 X133.24 Y130.509 E.02242
G1 X133.211 Y131.014 E.02244
G1 X133.117 Y131.511 E.02244
G1 X132.959 Y131.991 E.02241
;WIDTH:0.460174
G1 X132.867 Y132.227 E.0125
;WIDTH:0.500349
G1 X132.776 Y132.464 E.0138
G1 X132.489 Y132.887 E.0278
;WIDTH:0.484154
G1 X132.157 Y133.273 E.02666
;WIDTH:0.520535
G1 X131.789 Y133.627 E.02905
G1 X131.638 Y133.709 E.00978
;WIDTH:0.487023
