; generated by PrusaSlicer 2.7.0+win64 on 2023-12-03 at 18:32:01 UTC

; 

; external perimeters extrusion width = 0.45mm
; perimeters extrusion width = 0.45mm
; infill extrusion width = 0.45mm
; solid infill extrusion width = 0.45mm
; top infill extrusion width = 0.40mm
; first layer extrusion width = 0.42mm

M190 S40 ; set bed temperature and wait for it to be reached
M104 S230 ; set temperature
;TYPE:Custom
START_PRINT EXTRUDER_TEMP=230 BED_TEMP=40
M109 S230 ; set temperature and wait for it to be reached
G21 ; set units to millimeters
G90 ; use absolute coordinates
M83 ; use relative distances for extrusion
; Filament gcode
M107
;LAYER_CHANGE
;Z:0.2
;HEIGHT:0.2
;BEFORE_LAYER_CHANGE
G92 E0
;0.2


G1 E-6 F3600
G1 Z.2 F7800
;AFTER_LAYER_CHANGE
;0.2
G1 X100.367 Y97.773
G1 Z.2
G1 E6 F2400
;TYPE:Skirt/Brim
;WIDTH:0.42
G1 F1800
G1 X103.999 Y94.183 E.16012
G1 X104.952 Y93.401 E.03865
G1 X106.259 Y92.507 E.04965
G1 X108.367 Y91.417 E.07441
G1 X110.612 Y90.648 E.07441
G1 X112.946 Y90.217 E.07442
G1 X115.42 Y90.122 E.07763
G1 X117.785 Y90.323 E.07442
G1 X120.095 Y90.868 E.07442
G1 X122.3 Y91.746 E.07442
G1 X124.352 Y92.938 E.07441
G1 X126.207 Y94.418 E.07441
G1 X129.957 Y98.178 E.1665
G1 X130.546 Y98.929 E.02993
G1 X131.058 Y99.758 E.03055
G1 X131.465 Y100.618 E.02983
G1 X131.78 Y101.536 E.03043
G1 X131.989 Y102.48 E.03032
G1 X132.104 Y103.867 E.04364
G1 X132.111 Y127.043 E.72667
G1 X131.714 Y129.389 E.0746
G1 X130.567 Y131.475 E.07464
G1 X128.797 Y133.066 E.07462
G1 X126.602 Y133.987 E.07464
G1 X124.906 Y134.173 E.0535
G1 X109.448 Y133.953 E.48472
G1 X104.801 Y133.836 E.14575
G1 X102.465 Y133.38 E.07463
G1 X100.409 Y132.18 E.07464
G1 X98.862 Y130.371 E.07463
G1 X97.997 Y128.154 E.07462
G1 X97.849 Y126.709 E.04554
G1 X97.842 Y103.873 E.71601
G1 X97.979 Y102.349 E.04798
G1 X98.203 Y101.408 E.03033
G1 X98.532 Y100.496 E.0304
G1 X99.385 Y98.951 E.05534
G1 X100.329 Y97.819 E.04622
G1 X100.617 Y98.059 F7800
G1 F1800
G1 X100.634 Y98.039 E.00082
G1 X104.245 Y94.469 E.15921
G1 X105.184 Y93.698 E.03809
G1 X106.461 Y92.826 E.04848
G1 X108.52 Y91.762 E.07267
G1 X110.713 Y91.012 E.07267
G1 X112.992 Y90.592 E.07266
G1 X115.411 Y90.499 E.0759
G1 X117.72 Y90.694 E.07265
G1 X119.976 Y91.226 E.07268
G1 X122.13 Y92.083 E.07269
G1 X124.134 Y93.246 E.07265
G1 X125.947 Y94.691 E.07269
G1 X129.676 Y98.43 E.16557
G1 X130.239 Y99.148 E.02861
G1 X130.729 Y99.941 E.02923
G1 X131.117 Y100.764 E.02853
G1 X131.418 Y101.641 E.02907
G1 X131.618 Y102.545 E.02903
G1 X131.727 Y103.867 E.04159
G1 X131.734 Y127.043 E.72667
G1 X131.337 Y129.324 E.07259
G1 X130.193 Y131.338 E.07262
G1 X128.436 Y132.846 E.0726
G1 X126.272 Y133.672 E.07263
G1 X124.91 Y133.796 E.04288
G1 X104.81 Y133.459 E.63031
G1 X102.539 Y133.005 E.07261
G1 X100.555 Y131.81 E.07262
G1 X99.092 Y130.015 E.07261
G1 X98.226 Y126.709 E.10715
G1 X98.219 Y103.873 E.71601
G1 X98.351 Y102.412 E.046
G1 X98.566 Y101.512 E.02901
G1 X98.88 Y100.64 E.02906
G1 X99.693 Y99.169 E.0527
G1 X100.579 Y98.105 E.04341
G1 X100.847 Y98.374 F7800
G1 F1800
G1 X104.26 Y94.964 E.15127
G1 X105.068 Y94.267 E.03346
G1 X106.289 Y93.381 E.0473
G1 X108.269 Y92.286 E.07094
G1 X109.669 Y91.722 E.04732
G1 X110.813 Y91.375 E.03748
G1 X113.038 Y90.966 E.07093
G1 X115.402 Y90.876 E.07418
G1 X117.656 Y91.066 E.07092
G1 X119.858 Y91.584 E.07093
G1 X121.677 Y92.286 E.06113
G1 X123.657 Y93.381 E.07094
G1 X124.878 Y94.267 E.0473
G1 X125.687 Y94.964 E.03348
G1 X129.286 Y98.56 E.15952
G1 X130.319 Y99.98 E.05506
G1 X130.769 Y100.909 E.03237
G1 X131.217 Y102.441 E.05005
G1 X131.35 Y103.867 E.04491
G1 X131.357 Y127.043 E.72667
G1 X130.96 Y129.257 E.07053
G1 X129.819 Y131.196 E.07054
G1 X128.076 Y132.618 E.07053
G1 X124.914 Y133.419 E.10227
G1 X104.82 Y133.082 E.63012
G1 X102.616 Y132.63 E.07054
G1 X100.706 Y131.44 E.07056
G1 X99.329 Y129.661 E.07054
G1 X98.603 Y126.709 E.09532
G1 X98.596 Y103.873 E.71601
G1 X98.695 Y102.64 E.03878
G1 X98.928 Y101.616 E.03293
G1 X99.62 Y99.993 E.05532
G1 X100.653 Y98.568 E.05518
G1 X100.805 Y98.416 E.00674
G1 E-4.2 F3600
;WIPE_START
G1 F6240
G1 X100.847 Y98.374 E-.03255
G1 X103.128 Y96.095 E-1.76745
;WIPE_END
G1 X106.199 Y103.726 F7800
G1 E6 F2400
;TYPE:Perimeter
;WIDTH:0.419999
G1 F1800
G1 X106.278 Y103.593 E.00485
G1 X109.142 Y100.729 E.12699
G1 X109.731 Y100.195 E.02493
G1 X110.348 Y99.737 E.02409
G1 X111.008 Y99.342 E.02412
G1 X111.703 Y99.013 E.02411
G1 X112.427 Y98.754 E.02411
G1 X113.173 Y98.567 E.02411
G1 X113.924 Y98.456 E.0238
;WIDTH:0.451547
G1 X114.175 Y98.464 E.00853
;WIDTH:0.483094
G1 X114.425 Y98.473 E.00916
G1 X114.216 Y98.561 E.0083
;WIDTH:0.446075
G1 X113.67 Y98.876 E.02113
;WIDTH:0.419999
G1 X113.224 Y99.333 E.02002
G1 X112.929 Y99.903 E.02012
G1 X112.816 Y100.447 E.01742
G1 X112.838 Y100.925 E.015
G1 X113.022 Y101.533 E.01992
G1 X113.327 Y101.994 E.01733
G1 X113.799 Y102.409 E.01971
G1 X114.4 Y102.677 E.02063
G1 X115.048 Y102.759 E.02048
G1 X115.615 Y102.659 E.01805
G1 X116.181 Y102.387 E.01969
G1 X116.646 Y101.963 E.01973
G1 X116.954 Y101.451 E.01873
G1 X117.097 Y101.006 E.01466
G1 X117.13 Y100.495 E.01606
G1 X117.01 Y99.881 E.01962
G1 X116.717 Y99.324 E.01973
G1 X116.277 Y98.876 E.01969
G1 X115.951 Y98.679 E.01194
;WIDTH:0.453008
G1 X115.704 Y98.57 E.00921
;WIDTH:0.486016
G1 X115.456 Y98.46 E.01
G1 X115.735 Y98.457 E.01028
;WIDTH:0.453008
G1 X116.013 Y98.455 E.00948
;WIDTH:0.419999
G1 X116.774 Y98.567 E.02412
G1 X117.519 Y98.754 E.02408
G1 X118.233 Y99.009 E.02377
G1 X119.283 Y99.538 E.03686
G1 X119.912 Y99.959 E.02373
G1 X120.508 Y100.447 E.02415
G1 X123.516 Y103.441 E.13307
G1 X123.752 Y103.698 E.01094
G1 X123.801 Y103.875 E.00576
G1 X123.806 Y105.116 E.03891
G1 X109.643 Y104.914 E.44412
G1 X106.141 Y104.826 E.10984
G1 X106.153 Y103.802 E.03211
G1 X106.168 Y103.777 E.00091
G1 X105.863 Y103.547 F7800
G1 F1800
G1 X105.996 Y103.342 E.00766
G1 X108.882 Y100.456 E.12797
G1 X109.491 Y99.903 E.02579
G1 X110.139 Y99.423 E.02528
G1 X110.83 Y99.009 E.02526
G1 X111.558 Y98.665 E.02525
G1 X112.317 Y98.393 E.02528
G1 X113.099 Y98.197 E.02528
G1 X113.891 Y98.08 E.0251
G1 X115.248 Y98.039 E.04257
G1 X116.05 Y98.079 E.02518
G1 X116.847 Y98.197 E.02526
G1 X117.629 Y98.393 E.02528
G1 X118.382 Y98.662 E.02507
G1 X119.473 Y99.212 E.03831
G1 X120.137 Y99.656 E.02504
G1 X120.761 Y100.167 E.02529
G1 X123.952 Y103.343 E.14116
G1 X124.142 Y103.639 E.01103
G1 X124.178 Y103.874 E.00745
G1 X124.184 Y105.499 E.05095
G1 X109.636 Y105.291 E.45619
G1 X105.763 Y105.193 E.12147
G1 X105.767 Y104.05 E.03584
G1 X105.804 Y103.638 E.01297
G1 X105.831 Y103.597 E.00154
G1 X105.541 Y103.342 F7800
;TYPE:External perimeter
G1 F1800
G1 X105.715 Y103.09 E.0096
G1 X108.622 Y100.183 E.1289
G1 X109.252 Y99.612 E.02666
G1 X109.929 Y99.109 E.02644
G1 X110.652 Y98.676 E.02642
G1 X111.414 Y98.316 E.02642
G1 X112.208 Y98.032 E.02644
G1 X113.025 Y97.827 E.02641
G1 X113.858 Y97.703 E.02641
G1 X115.252 Y97.662 E.04373
G1 X116.087 Y97.703 E.02621
G1 X116.921 Y97.827 E.02644
G1 X117.739 Y98.032 E.02644
G1 X118.53 Y98.315 E.02634
G1 X119.663 Y98.885 E.03977
G1 X120.362 Y99.352 E.02636
G1 X121.014 Y99.887 E.02644
G1 X124.048 Y102.907 E.13422
G1 X124.278 Y103.148 E.01045
G1 X124.501 Y103.513 E.01341
G1 X124.555 Y103.872 E.01138
G1 X124.562 Y105.882 E.06302
G1 X109.629 Y105.668 E.46826
G1 X105.384 Y105.561 E.13314
G1 X105.391 Y103.752 E.05672
G1 X105.498 Y103.404 E.01142
G1 X105.507 Y103.391 E.0005
G1 E-4.2 F3600
;WIPE_START
G1 F6240
G1 X105.541 Y103.342 E-.03269
G1 X105.715 Y103.09 E-.16784
G1 X107.778 Y101.026 E-1.59947
;WIPE_END
G1 X113.631 Y99.433 F7800
G1 E6 F2400
;TYPE:Perimeter
G1 F1800
G1 X113.656 Y99.394 E.00145
G1 X114.059 Y99.066 E.01629
G1 X114.537 Y98.868 E.01622
G1 X115.029 Y98.816 E.01551
G1 X115.565 Y98.915 E.01709
G1 X116.025 Y99.157 E.0163
G1 X116.395 Y99.521 E.01627
G1 X116.645 Y99.976 E.01628
G1 X116.753 Y100.483 E.01625
G1 X116.726 Y100.934 E.01417
G1 X116.618 Y101.279 E.01133
G1 X116.374 Y101.701 E.01528
G1 X115.997 Y102.058 E.01628
G1 X115.533 Y102.291 E.01628
G1 X115.023 Y102.38 E.01623
G1 X114.531 Y102.324 E.01553
G1 X114.029 Y102.111 E.0171
G1 X113.633 Y101.775 E.01628
G1 X113.351 Y101.34 E.01625
G1 X113.211 Y100.865 E.01553
G1 X113.211 Y100.322 E.01703
G1 X113.356 Y99.849 E.01551
G1 X113.598 Y99.483 E.01376
G1 X113.925 Y99.666 F7800
;TYPE:External perimeter
G1 F1800
G1 X113.936 Y99.65 E.00061
G1 X114.219 Y99.407 E.0117
G1 X114.594 Y99.24 E.01287
G1 X114.978 Y99.19 E.01214
G1 X115.405 Y99.256 E.01355
G1 X115.773 Y99.438 E.01287
G1 X116.073 Y99.717 E.01285
G1 X116.28 Y100.072 E.01288
G1 X116.376 Y100.47 E.01284
G1 X116.36 Y100.844 E.01174
G1 X116.283 Y101.106 E.00856
G1 X116.103 Y101.439 E.01187
G1 X115.812 Y101.729 E.01288
G1 X115.451 Y101.923 E.01285
G1 X115.049 Y102.004 E.01286
G1 X114.662 Y101.97 E.01218
G1 X114.26 Y101.812 E.01354
G1 X113.94 Y101.555 E.01287
G1 X113.708 Y101.217 E.01285
G1 X113.588 Y100.847 E.0122
G1 X113.576 Y100.416 E.01352
G1 X113.723 Y99.969 E.01475
G1 X113.892 Y99.716 E.00954
G1 X114.425 Y98.473 F7800
;TYPE:Perimeter
;WIDTH:0.483094
G1 F1800
G1 X114.675 Y98.451 E.00919
;WIDTH:0.455612
G1 X114.925 Y98.43 E.00861
;WIDTH:0.457073
G1 X115.191 Y98.445 E.00917
;WIDTH:0.486016
G1 X115.456 Y98.46 E.00978
G1 E-4.2 F3600
;WIPE_START
G1 F6240
G1 X115.191 Y98.445 E-.14547
;WIPE_END
G1 E-1.65453 F3600
G1 X119.426 Y99.77 F7800
G1 E6 F2400
;TYPE:Solid infill
;WIDTH:0.426112
G1 F1800
G1 X123.512 Y103.855 E.18409
G1 X123.52 Y104.406 E.01756
G1 X118.651 Y99.536 E.21942
G1 X118.121 Y99.27 E.01889
G1 X117.687 Y99.114 E.01469
G1 X123.4 Y104.828 E.25745
G1 X122.85 Y104.82 E.01753
G1 X116.928 Y98.898 E.26685
G1 X116.718 Y98.845 E.0069
G1 X116.702 Y98.843 E.00051
G1 X116.69 Y98.869 E.00091
G1 X116.955 Y99.171 E.0128
G1 X117.148 Y99.487 E.0118
G1 X117.275 Y99.786 E.01035
G1 X122.301 Y104.812 E.22647
G1 X121.751 Y104.804 E.01753
G1 X117.409 Y100.463 E.19563
G1 X117.38 Y100.976 E.01637
G1 X121.201 Y104.796 E.17215
G1 X120.651 Y104.789 E.01753
G1 X117.279 Y101.417 E.15194
G1 X117.101 Y101.78 E.01288
G1 X120.101 Y104.781 E.1352
G1 X119.552 Y104.773 E.01749
G1 X116.887 Y102.108 E.12009
G1 X116.627 Y102.39 E.01222
G1 X119.002 Y104.765 E.10702
G1 X118.452 Y104.757 E.01753
G1 X116.325 Y102.63 E.09584
G1 X115.975 Y102.822 E.01272
G1 X117.902 Y104.749 E.08683
G1 X117.352 Y104.741 E.01753
G1 X115.569 Y102.958 E.08034
G1 X115.255 Y103.027 E.01024
G1 X115.107 Y103.037 E.00473
G1 X116.803 Y104.734 E.07645
G1 X116.253 Y104.726 E.01753
G1 X114.281 Y102.754 E.08886
G1 E-4.2 F3600
;WIPE_START
G1 F6240
G1 X116.253 Y104.726 E-1.52849
G1 X116.748 Y104.733 E-.27151
;WIPE_END
G1 X113.301 Y99.064 F7800
G1 E6 F2400
G1 F1800
G1 X113.111 Y98.874 E.00856
G1 X112.678 Y98.983 E.01423
G1 X112.945 Y99.25 E.01203
G1 X112.752 Y99.598 E.01268
G1 X112.265 Y99.112 E.02192
G1 X111.866 Y99.255 E.0135
G1 X112.612 Y100.001 E.03362
G1 X112.57 Y100.165 E.00539
G1 X112.539 Y100.469 E.00974
G1 X111.494 Y99.425 E.04707
G1 X111.127 Y99.6 E.01295
G1 X112.816 Y101.289 E.07611
G1 E-4.2 F3600
;WIPE_START
G1 F6240
G1 X111.127 Y99.6 E-1.30914
G1 X111.494 Y99.425 E-.22284
G1 X111.84 Y99.771 E-.26802
;WIPE_END
G1 X110.665 Y99.679 F7800
G1 E6 F2400
G1 F1800
G1 X115.703 Y104.718 E.22704
G1 X115.153 Y104.71 E.01753
G1 X110.454 Y100.011 E.21174
G1 X110.143 Y100.242 E.01234
G1 X114.604 Y104.702 E.20099
G1 X114.054 Y104.694 E.01753
G1 X109.839 Y100.479 E.18993
G1 X109.555 Y100.737 E.01223
G1 X113.504 Y104.686 E.17794
G1 X112.954 Y104.678 E.01753
G1 X109.273 Y100.998 E.16584
G1 X109.002 Y101.269 E.01221
G1 X112.404 Y104.671 E.1533
G1 X111.855 Y104.663 E.01749
G1 X108.731 Y101.539 E.14077
G1 X108.461 Y101.81 E.01219
G1 X111.305 Y104.655 E.12817
G1 X110.755 Y104.647 E.01753
G1 X108.19 Y102.081 E.1156
G1 X107.919 Y102.352 E.01221
G1 X110.205 Y104.639 E.10303
G1 X109.656 Y104.631 E.01749
G1 X107.648 Y102.623 E.09048
G1 X107.377 Y102.894 E.01221
G1 X109.1 Y104.617 E.07764
G1 X108.544 Y104.603 E.01772
G1 X107.106 Y103.165 E.0648
G1 X106.835 Y103.436 E.01221
G1 X107.988 Y104.589 E.05195
G1 X107.432 Y104.575 E.01772
G1 X106.564 Y103.707 E.03911
G1 X106.428 Y103.876 E.00691
G1 X106.427 Y104.112 E.00752
G1 X107.05 Y104.736 E.0281
G1 E-4.2 F3600
;WIPE_START
G1 F6240
G1 X106.427 Y104.112 E-.48327
G1 X106.428 Y103.876 E-.12935
G1 X106.564 Y103.707 E-.11889
G1 X107.432 Y104.575 E-.67278
G1 X107.988 Y104.589 E-.30483
G1 X107.871 Y104.472 E-.09088
;WIPE_END
G1 X106.206 Y124.472 F7800
G1 E6 F2400
;TYPE:Perimeter
;WIDTH:0.419999
G1 F1800
G1 X106.285 Y124.339 E.00485
G1 X109.149 Y121.475 E.12699
G1 X109.738 Y120.941 E.02493
G1 X110.355 Y120.483 E.02409
G1 X111.015 Y120.088 E.02412
G1 X111.71 Y119.759 E.02411
G1 X112.434 Y119.5 E.02411
G1 X113.18 Y119.313 E.02411
G1 X113.931 Y119.202 E.0238
;WIDTH:0.451547
G1 X114.182 Y119.21 E.00853
;WIDTH:0.483094
G1 X114.432 Y119.219 E.00916
G1 X114.223 Y119.307 E.0083
;WIDTH:0.446075
G1 X113.677 Y119.622 E.02113
;WIDTH:0.419999
G1 X113.231 Y120.079 E.02002
G1 X112.936 Y120.649 E.02012
G1 X112.823 Y121.193 E.01742
G1 X112.845 Y121.671 E.015
G1 X113.029 Y122.279 E.01992
G1 X113.334 Y122.74 E.01733
G1 X113.806 Y123.155 E.01971
G1 X114.407 Y123.423 E.02063
G1 X115.055 Y123.505 E.02048
G1 X115.622 Y123.405 E.01805
G1 X116.188 Y123.133 E.01969
G1 X116.653 Y122.709 E.01973
G1 X116.961 Y122.197 E.01873
G1 X117.104 Y121.752 E.01466
G1 X117.137 Y121.241 E.01606
G1 X117.017 Y120.627 E.01962
G1 X116.724 Y120.07 E.01973
G1 X116.284 Y119.622 E.01969
G1 X115.958 Y119.425 E.01194
;WIDTH:0.453008
G1 X115.711 Y119.316 E.00921
;WIDTH:0.486016
G1 X115.463 Y119.206 E.01
G1 X115.742 Y119.203 E.01028
;WIDTH:0.453008
G1 X116.02 Y119.201 E.00948
;WIDTH:0.419999
G1 X116.781 Y119.313 E.02412
G1 X117.527 Y119.5 E.02411
G1 X118.24 Y119.755 E.02374
G1 X119.29 Y120.284 E.03686
G1 X119.919 Y120.705 E.02373
G1 X120.515 Y121.193 E.02415
G1 X123.523 Y124.187 E.13307
G1 X123.759 Y124.444 E.01094
G1 X123.808 Y124.621 E.00576
G1 X123.813 Y125.862 E.03891
G1 X109.65 Y125.66 E.44412
G1 X106.148 Y125.572 E.10984
G1 X106.16 Y124.548 E.03211
G1 X106.175 Y124.523 E.00091
G1 X105.87 Y124.293 F7800
G1 F1800
G1 X106.003 Y124.088 E.00766
G1 X108.889 Y121.202 E.12797
G1 X109.498 Y120.649 E.02579
G1 X110.146 Y120.169 E.02528
G1 X110.837 Y119.755 E.02526
G1 X111.565 Y119.41 E.02526
G1 X112.324 Y119.139 E.02527
G1 X113.106 Y118.943 E.02528
G1 X113.898 Y118.826 E.0251
G1 X115.255 Y118.785 E.04257
G1 X116.057 Y118.825 E.02518
G1 X116.854 Y118.943 E.02526
G1 X117.636 Y119.139 E.02528
G1 X118.389 Y119.408 E.02507
G1 X119.48 Y119.958 E.03831
G1 X120.144 Y120.401 E.02503
G1 X120.768 Y120.913 E.02531
G1 X123.959 Y124.089 E.14116
G1 X124.149 Y124.385 E.01103
G1 X124.185 Y124.62 E.00745
G1 X124.191 Y126.245 E.05095
G1 X109.643 Y126.037 E.45619
G1 X105.77 Y125.939 E.12147
G1 X105.774 Y124.795 E.03587
G1 X105.811 Y124.384 E.01294
G1 X105.838 Y124.343 E.00154
G1 X105.548 Y124.088 F7800
;TYPE:External perimeter
G1 F1800
G1 X105.722 Y123.836 E.0096
G1 X108.629 Y120.929 E.1289
G1 X109.259 Y120.358 E.02666
G1 X109.936 Y119.855 E.02644
G1 X110.659 Y119.422 E.02642
G1 X111.421 Y119.062 E.02642
G1 X112.215 Y118.778 E.02644
G1 X113.032 Y118.573 E.02641
G1 X113.865 Y118.449 E.02641
G1 X115.259 Y118.408 E.04373
G1 X116.094 Y118.449 E.02621
G1 X116.928 Y118.573 E.02644
G1 X117.746 Y118.778 E.02644
G1 X118.537 Y119.061 E.02634
G1 X119.67 Y119.631 E.03977
G1 X120.369 Y120.098 E.02636
G1 X121.021 Y120.633 E.02644
G1 X124.055 Y123.653 E.13422
G1 X124.285 Y123.894 E.01045
G1 X124.508 Y124.259 E.01341
G1 X124.562 Y124.618 E.01138
G1 X124.569 Y126.628 E.06302
G1 X109.636 Y126.414 E.46826
G1 X105.391 Y126.307 E.13314
G1 X105.398 Y124.498 E.05672
G1 X105.505 Y124.15 E.01142
G1 X105.514 Y124.137 E.0005
G1 E-4.2 F3600
;WIPE_START
G1 F6240
G1 X105.548 Y124.088 E-.03269
G1 X105.722 Y123.836 E-.16784
G1 X107.785 Y121.772 E-1.59947
;WIPE_END
G1 X113.638 Y120.179 F7800
G1 E6 F2400
;TYPE:Perimeter
G1 F1800
G1 X113.663 Y120.14 E.00145
G1 X114.066 Y119.812 E.01629
G1 X114.544 Y119.614 E.01622
G1 X115.036 Y119.562 E.01551
G1 X115.572 Y119.661 E.01709
G1 X116.032 Y119.903 E.0163
G1 X116.402 Y120.267 E.01627
G1 X116.652 Y120.722 E.01628
G1 X116.76 Y121.229 E.01625
G1 X116.733 Y121.68 E.01417
G1 X116.625 Y122.025 E.01133
