; generated by PrusaSlicer 2.7.0+win64 on 2023-12-07 at 03:54:14 UTC

; 

; external perimeters extrusion width = 0.45mm
; perimeters extrusion width = 0.45mm
; infill extrusion width = 0.45mm
; solid infill extrusion width = 0.45mm
; top infill extrusion width = 0.40mm
; support material extrusion width = 0.35mm
; first layer extrusion width = 0.42mm

M73 P0 R89
M190 S50 ; set bed temperature and wait for it to be reached
M104 S210 ; set temperature
;TYPE:Custom
START_PRINT EXTRUDER_TEMP=210 BED_TEMP=50 Z_OFFSET=0.1
M109 S210 ; set temperature and wait for it to be reached
G21 ; set units to millimeters
G90 ; use absolute coordinates
M83 ; use relative distances for extrusion
; Filament gcode
M107
;LAYER_CHANGE
;Z:0.3
;HEIGHT:0.3
;BEFORE_LAYER_CHANGE
G92 E0
;0.3


G10 ; retract
G1 Z.3 F7800
;AFTER_LAYER_CHANGE
;0.3
G1 X105.969 Y90.825
G11 ; unretract
;TYPE:Skirt/Brim
;WIDTH:0.42
G1 F1800
G1 X106.798 Y90.035 E.05079
G1 X107.929 Y89.156 E.06353
G1 X108.9 Y88.55 E.05077
G1 X110.186 Y87.917 E.06358
G1 X111.259 Y87.519 E.05076
G1 X112.647 Y87.159 E.0636
G1 X113.779 Y86.985 E.0508
G1 X115.211 Y86.912 E.0636
G1 X116.354 Y86.971 E.05077
G1 X117.771 Y87.189 E.06359
G1 X118.879 Y87.477 E.05078
G1 X120.223 Y87.976 E.06359
G1 X121.25 Y88.481 E.05076
G1 X122.465 Y89.241 E.06357
G1 X123.369 Y89.943 E.05077
G1 X124.405 Y90.932 E.06353
G1 X125.148 Y91.802 E.05075
G1 X125.964 Y92.979 E.06352
G1 X126.516 Y93.98 E.0507
G1 X127.078 Y95.297 E.06351
G1 X127.459 Y96.528 E.05716
G1 X133.78 Y118.447 E1.01183
G1 X134.275 Y120.665 E.1008
G1 X134.377 Y121.628 E.04295
G1 X134.377 Y123.014 E.06148
G1 X134.294 Y123.859 E.03766
G1 X134.024 Y125.218 E.06146
G1 X133.777 Y126.031 E.03769
G1 X133.247 Y127.311 E.06145
G1 X132.525 Y128.574 E.06453
G1 X131.537 Y129.869 E.07225
G1 X130.558 Y130.849 E.06144
G1 X129.901 Y131.388 E.03769
G1 X128.749 Y132.158 E.06146
G1 X126.822 Y133.052 E.09422
G1 X124.174 Y133.727 E.12121
G1 X116.664 Y135.173 E.33922
G1 X114.56 Y135.348 E.09364
G1 X113.132 Y135.275 E.06342
G1 X111.657 Y135.038 E.06626
G1 X105.114 Y133.68 E.2964
G1 X104.172 Y133.416 E.04339
G1 X102.954 Y132.981 E.05737
G1 X101.686 Y132.39 E.06205
G1 X100.02 Y131.155 E.09198
G1 X97.831 Y128.965 E.13734
G1 X96.46 Y127.033 E.10508
G1 X95.804 Y124.745 E.10557
G1 X95.623 Y123.014 E.0772
G1 X95.623 Y121.628 E.06148
G1 X95.955 Y119.495 E.09575
G1 X101.443 Y100.697 E.86859
G1 X103.246 Y95.159 E.25833
G1 X103.695 Y94.107 E.05073
G1 X104.387 Y92.854 E.06349
G1 X105.038 Y91.913 E.05075
G1 X105.93 Y90.871 E.06084
G1 X106.199 Y91.101 F7800
G1 F1800
G1 X106.215 Y91.082 E.0011
G1 X107.043 Y90.292 E.05076
G1 X108.118 Y89.458 E.06035
G1 X109.088 Y88.851 E.05075
G1 X110.31 Y88.251 E.06038
G1 X111.383 Y87.852 E.05078
G1 X112.701 Y87.51 E.0604
G1 X113.833 Y87.337 E.05079
G1 X115.193 Y87.268 E.0604
G1 X116.336 Y87.326 E.05076
G1 X117.682 Y87.533 E.0604
G1 X118.79 Y87.821 E.05078
G1 X120.066 Y88.295 E.06038
G1 X121.093 Y88.8 E.05076
G1 X122.247 Y89.522 E.06038
G1 X123.15 Y90.224 E.05073
G1 X124.135 Y91.163 E.06036
G1 X124.878 Y92.033 E.05075
G1 X125.652 Y93.151 E.06031
G1 X126.205 Y94.152 E.05072
G1 X126.738 Y95.403 E.06031
G1 X127.117 Y96.626 E.05679
G1 X133.435 Y118.535 E1.01137
G1 X133.922 Y120.705 E.09864
G1 X134.023 Y121.663 E.04273
G1 X134.023 Y122.979 E.05837
G1 X133.94 Y123.824 E.03766
G1 X133.683 Y125.115 E.05839
G1 X133.437 Y125.928 E.03768
G1 X132.933 Y127.143 E.05834
G1 X132.231 Y128.374 E.06286
G1 X131.262 Y129.644 E.07085
G1 X130.332 Y130.574 E.05834
G1 X129.675 Y131.113 E.03769
G1 X128.581 Y131.844 E.05836
G1 X126.715 Y132.713 E.0913
G1 X124.107 Y133.378 E.11938
G1 X116.596 Y134.823 E.33926
G1 X114.542 Y134.992 E.09141
G1 X113.186 Y134.923 E.06022
G1 X111.729 Y134.69 E.06545
G1 X105.186 Y133.332 E.2964
G1 X104.292 Y133.081 E.04119
G1 X103.074 Y132.646 E.05737
G1 X101.854 Y132.077 E.05971
G1 X100.272 Y130.903 E.08738
G1 X98.082 Y128.714 E.13734
G1 X96.755 Y126.825 E.10239
G1 X96.157 Y124.706 E.09766
G1 X95.977 Y122.979 E.07702
G1 X95.977 Y121.663 E.05837
G1 X96.297 Y119.594 E.09286
G1 X101.784 Y100.797 E.86853
G1 X103.573 Y95.299 E.25645
G1 X104.022 Y94.247 E.05073
G1 X104.679 Y93.056 E.06033
G1 X105.331 Y92.116 E.05074
G1 X106.16 Y91.146 E.0566
G1 X106.429 Y91.376 F7800
G1 F1800
G1 X106.46 Y91.34 E.00211
G1 X107.288 Y90.55 E.05076
G1 X108.306 Y89.76 E.05715
G1 X109.277 Y89.153 E.05079
G1 X110.434 Y88.584 E.05719
G1 X111.507 Y88.186 E.05076
G1 X112.755 Y87.862 E.05719
G1 X113.887 Y87.688 E.0508
G1 X115.175 Y87.623 E.0572
G1 X116.318 Y87.681 E.05076
G1 X117.592 Y87.877 E.05717
G1 X118.7 Y88.165 E.05078
G1 X119.909 Y88.614 E.0572
G1 X120.936 Y89.119 E.05076
G1 X122.029 Y89.803 E.05719
G1 X122.932 Y90.505 E.05073
G1 X123.864 Y91.394 E.05713
G1 X124.608 Y92.264 E.05077
G1 X125.341 Y93.323 E.05713
G1 X125.894 Y94.324 E.05072
G1 X126.399 Y95.508 E.05709
G1 X126.775 Y96.725 E.0565
G1 X133.091 Y118.623 E1.01088
G1 X133.568 Y120.744 E.09643
G1 X133.669 Y121.698 E.04255
G1 X133.669 Y122.944 E.05527
G1 X133.586 Y123.79 E.0377
G1 X133.096 Y125.825 E.09284
G1 X132.619 Y126.976 E.05526
G1 X131.938 Y128.174 E.06112
G1 X130.988 Y129.418 E.06943
G1 X130.107 Y130.299 E.05526
G1 X128.414 Y131.53 E.09284
G1 X126.608 Y132.374 E.08842
G1 X124.039 Y133.029 E.11759
G1 X116.529 Y134.474 E.33921
G1 X114.524 Y134.637 E.08922
G1 X113.24 Y134.572 E.05702
G1 X111.801 Y134.342 E.06464
G1 X105.258 Y132.984 E.2964
G1 X104.412 Y132.746 E.03898
G1 X103.194 Y132.311 E.05737
G1 X102.021 Y131.763 E.05743
G1 X100.523 Y130.652 E.08272
G1 X98.334 Y128.462 E.13734
G1 X97.051 Y126.618 E.09964
G1 X96.511 Y124.667 E.08979
G1 X96.331 Y122.944 E.07684
G1 X96.331 Y121.698 E.05527
G1 X96.638 Y119.694 E.08992
G1 X102.126 Y100.897 E.86855
G1 X103.9 Y95.438 E.2546
G1 X104.349 Y94.386 E.05073
G1 X104.971 Y93.259 E.0571
G1 X105.623 Y92.319 E.05074
G1 X106.39 Y91.422 E.05235
G10 ; retract
G1 X106.39 Y91.422 F7800
G1 X115.358 Y93.996
G11 ; unretract
;TYPE:Support material
G1 F1800
M73 P0 R88
G1 X115.994 Y94.028 E.02825
G1 X117.102 Y94.316 E.05078
G1 X118.129 Y94.822 E.05078
G1 X119.033 Y95.524 E.05077
G1 X119.777 Y96.394 E.05077
G1 X120.329 Y97.395 E.0507
G1 X120.669 Y98.487 E.05073
G1 X120.781 Y99.624 E.05068
G1 X120.662 Y100.76 E.05066
G1 X120.407 Y101.568 E.03758
G1 X121.717 Y102.843 E.08108
G1 X122.166 Y104.509 E.07653
G1 X121.725 Y106.101 E.07327
G1 X121.928 Y106.784 E.0316
G1 X121.574 Y107.976 E.05515
G1 X121.928 Y109.167 E.05511
G1 X121.574 Y110.359 E.05515
G1 X121.928 Y111.551 E.05515
G1 X121.574 Y112.742 E.05511
G1 X121.928 Y113.934 E.05515
G1 X121.574 Y115.126 E.05515
G1 X121.928 Y116.317 E.05511
G1 X121.815 Y116.699 E.01767
G1 X122.092 Y117.7 E.04607
G1 X121.206 Y117.968 E.04106
G1 X120.392 Y118.404 E.04096
G1 X119.663 Y119.008 E.04199
G1 X119.092 Y119.703 E.0399
G1 X118.657 Y120.518 E.04098
G1 X118.389 Y121.402 E.04097
G1 X118.298 Y122.321 E.04096
G1 X118.389 Y123.24 E.04096
G1 X118.657 Y124.124 E.04097
G1 X119.092 Y124.938 E.04094
G1 X119.39 Y125.301 E.02083
G1 X119.049 Y125.914 E.03111
G1 X118.317 Y126.768 E.04989
G1 X117.427 Y127.456 E.0499
G1 X116.417 Y127.952 E.04991
G1 X115.328 Y128.233 E.04988
G1 X114.205 Y128.29 E.04987
G1 X113.093 Y128.119 E.0499
G1 X112.039 Y127.728 E.04986
G1 X111.085 Y127.133 E.04987
G1 X110.27 Y126.358 E.04988
G1 X109.977 Y125.936 E.02279
G1 X110.322 Y125.652 E.01982
G1 X110.908 Y124.938 E.04097
G1 X111.343 Y124.124 E.04094
G1 X111.61 Y123.244 E.04079
G1 X111.943 Y123.227 E.01479
G1 X111.998 Y121.981 E.05532
G1 X111.667 Y121.964 E.0147
G1 X111.611 Y121.402 E.02505
G1 X111.343 Y120.518 E.04097
G1 X110.908 Y119.704 E.04094
G1 X110.322 Y118.99 E.04097
G1 X109.608 Y118.404 E.04097
G1 X108.794 Y117.968 E.04096
G1 X107.701 Y117.68 E.05013
G1 X108.095 Y116.227 E.06677
G1 X108.095 Y115.551 E.02998
G1 X108.316 Y115.139 E.02074
G1 X108.095 Y114.727 E.02074
G1 X108.095 Y113.168 E.06915
G1 X108.316 Y112.756 E.02074
G1 X108.095 Y112.344 E.02074
G1 X108.095 Y110.785 E.06915
G1 X108.316 Y110.373 E.02074
G1 X108.095 Y109.961 E.02074
G1 X108.095 Y108.401 E.06919
G1 X108.316 Y107.989 E.02074
G1 X108.095 Y107.577 E.02074
G1 X108.095 Y106.018 E.06915
G1 X108.219 Y105.788 E.01159
G1 X107.821 Y104.319 E.06751
G1 X108.227 Y102.678 E.07498
G1 X109.494 Y101.396 E.07995
G1 X109.761 Y101.34 E.0121
G1 X109.522 Y100.194 E.05192
G1 X109.519 Y99.052 E.05065
G1 X109.746 Y97.931 E.05073
G1 X110.195 Y96.879 E.05073
G1 X110.847 Y95.939 E.05074
G1 X111.675 Y95.149 E.05076
G1 X112.646 Y94.542 E.05079
G1 X113.719 Y94.144 E.05076
G1 X114.851 Y93.97 E.0508
G1 X115.305 Y93.993 E.02016
G1 X114.872 Y103.672 F7800
G1 F1800
G1 X115.939 Y103.874 E.04817
G1 X116.872 Y104.435 E.04829
G1 X117.019 Y104.696 E.01329
G1 X117.019 Y117.554 E.57031
G1 X116.872 Y117.815 E.01329
G1 X115.939 Y118.377 E.04831
G1 X114.98 Y118.579 E.04347
G1 X113.913 Y118.377 E.04817
G1 X112.981 Y117.815 E.04827
G1 X112.833 Y117.554 E.01331
G1 X112.833 Y104.696 E.57031
G1 X112.981 Y104.435 E.01331
G1 X113.913 Y103.874 E.04825
G1 X114.82 Y103.682 E.04112
G1 X121.717 Y105.53 F7800
G1 F1800
G1 X121.717 Y104.073 E.06462
G1 X121.431 Y103.011 E.04878
G1 X121.322 Y102.905 E.00674
G1 X121.322 Y117.599 E.65175
G1 X120.927 Y117.755 E.01884
G1 X120.927 Y102.52 E.67575
G1 X120.532 Y102.136 E.02443
G1 X120.532 Y117.966 E.70214
G1 X120.137 Y118.199 E.02034
G1 X120.137 Y97.853 E.90244
G1 X119.742 Y96.992 E.04202
G1 X119.742 Y118.523 E.955
G1 X119.346 Y118.889 E.02392
G1 X119.346 Y96.383 E.99825
G1 X118.951 Y95.921 E.02696
G1 X118.951 Y119.371 E1.04012
G1 X118.556 Y120.027 E.03396
G1 X118.556 Y95.559 E1.08527
G1 X118.161 Y95.252 E.02219
G1 X118.161 Y121.05 E1.14427
G1 X117.977 Y122.321 E.05696
G1 X118.161 Y123.592 E.05696
G1 X118.161 Y126.458 E.12712
G1 X117.766 Y126.789 E.02286
G1 X117.766 Y95 E1.41
G1 X117.371 Y94.805 E.01954
G1 X117.371 Y127.095 E1.43222
G1 X116.976 Y127.321 E.02019
G1 X116.976 Y118.126 E.40784
G1 X116.581 Y118.364 E.02045
G1 X116.581 Y127.515 E.40589
G1 X116.305 Y127.65 E.01363
G1 X116.185 Y127.681 E.0055
G1 X116.185 Y118.602 E.4027
G1 X115.79 Y118.749 E.01869
G1 X115.79 Y127.783 E.4007
G1 X115.395 Y127.885 E.01809
G1 X115.395 Y118.825 E.40185
G1 X115 Y118.899 E.01782
G1 X115 Y127.929 E.40052
G1 X114.605 Y127.949 E.01754
G1 X114.605 Y118.853 E.40345
G1 X114.21 Y118.778 E.01783
G1 X114.21 Y127.967 E.40758
G1 X113.815 Y127.906 E.01773
G1 X113.815 Y118.682 E.40913
G1 X113.419 Y118.453 E.02029
G1 X113.419 Y127.845 E.41658
G1 X113.024 Y127.752 E.018
G1 X113.024 Y118.028 E.43131
G1 X118.951 Y125.761 F7800
G1 F1800
G1 X118.951 Y125.271 E.02173
G1 X118.556 Y124.614 E.034
G1 X118.556 Y126.243 E.07225
G1 X116.976 Y104.311 F7800
G1 F1800
G1 X116.976 Y94.614 E.43011
G1 X116.581 Y94.512 E.01809
G1 X116.581 Y103.887 E.41583
G1 X116.185 Y103.649 E.02049
G1 X116.185 Y94.409 E.40984
G1 X115.79 Y94.339 E.01779
G1 X115.79 Y103.501 E.40638
G1 X115.395 Y103.426 E.01783
G1 X115.395 Y94.318 E.40398
G1 X115 Y94.298 E.01754
G1 X115 Y103.352 E.40159
G1 X114.605 Y103.397 E.01763
G1 X114.605 Y94.332 E.40208
G1 X114.21 Y94.392 E.01772
G1 X114.21 Y103.473 E.40279
G1 X113.815 Y103.569 E.01803
G1 X113.815 Y94.453 E.40434
G1 X113.419 Y94.596 E.01867
G1 X113.419 Y103.797 E.40811
G1 X113.024 Y104.035 E.02045
G1 X113.024 Y94.743 E.41214
G1 X112.788 Y94.831 E.01117
G1 X112.629 Y94.93 E.00831
G1 X112.629 Y127.606 E1.44934
G1 X112.234 Y127.459 E.01869
G1 X112.234 Y95.177 E1.43186
G1 X111.839 Y95.435 E.02093
G1 X111.839 Y121.05 E1.13615
G1 X111.64 Y120.395 E.03036
G1 X111.444 Y120.027 E.01849
G1 X111.444 Y95.812 E1.07405
G1 X111.049 Y96.209 E.02484
G1 X111.049 Y119.371 E1.02735
G1 X110.654 Y118.889 E.02764
G1 X110.654 Y96.779 E.98068
G1 X110.258 Y97.546 E.03829
G1 X110.258 Y118.523 E.93043
G1 X109.863 Y118.199 E.02266
G1 X109.863 Y101.646 E.73421
G1 X109.654 Y101.69 E.00947
G1 X109.468 Y101.878 E.01173
G1 X109.468 Y117.966 E.71358
G1 X109.073 Y117.755 E.01986
G1 X109.073 Y102.277 E.68652
G1 X108.678 Y102.677 E.02493
G1 X108.678 Y117.599 E.66186
G1 X108.283 Y117.479 E.01831
G1 X108.283 Y115.54 E.086
G10 ; retract
G1 X108.283 Y115.54 F7800
G1 X111.839 Y127.415
G11 ; unretract
G1 F1800
G1 X111.839 Y123.592 E.16957
G1 X111.64 Y124.247 E.03036
G1 X111.444 Y124.614 E.01845
G1 X111.444 Y126.98 E.10494
G1 X111.049 Y126.657 E.02263
G1 X111.049 Y125.271 E.06148
G1 X110.654 Y125.753 E.02764
G1 X110.654 Y126.502 E.03322
G10 ; retract
G1 X110.654 Y126.502 F7800
G1 X109.863 Y101.048
G11 ; unretract
G1 F1800
G1 X109.863 Y98.16 E.1281
G10 ; retract
G1 X109.863 Y98.16 F7800
G1 X108.283 Y105.411
G11 ; unretract
G1 F1800
G1 X108.283 Y103.118 E.10171
G10 ; retract
G1 X108.283 Y103.118 F7800
G1 X106.502 Y117.885
G11 ; unretract
;TYPE:Support material interface
;WIDTH:0.35
G1 F1800
G1 X107.931 Y119.315 E.07202
G1 X107.342 Y119.19 E.02145
G1 X106.214 Y118.062 E.05683
G1 X105.847 Y118.16 E.01353
G1 X106.856 Y119.169 E.05083
G1 X106.433 Y119.211 E.01514
G1 X105.491 Y118.268 E.04748
G1 X105.164 Y118.406 E.01264
G1 X106.067 Y119.309 E.04549
G1 X105.721 Y119.428 E.01303
G1 X104.861 Y118.568 E.04333
G1 X104.582 Y118.716 E.01125
G1 X105.419 Y119.59 E.04311
G1 X105.134 Y119.77 E.01201
G1 X104.307 Y118.943 E.04166
G1 X104.052 Y119.152 E.01175
G1 X104.879 Y119.979 E.04166
G1 X104.647 Y120.212 E.01171
G1 X103.82 Y119.385 E.04166
G1 X103.61 Y119.64 E.01177
G1 X104.437 Y120.467 E.04166
G1 X104.258 Y120.752 E.01199
G1 X103.401 Y119.895 E.04318
G1 X103.236 Y120.194 E.01217
G1 X104.096 Y121.055 E.04335
G1 X103.978 Y121.401 E.01302
G1 X103.074 Y120.497 E.04554
G1 X102.936 Y120.824 E.01264
G1 X103.88 Y121.768 E.04756
G1 X103.838 Y122.191 E.01514
G1 X102.828 Y121.181 E.05088
G1 X102.739 Y121.475 E.01094
G1 X102.732 Y121.549 E.00265
G1 X103.861 Y122.678 E.05688
G1 X103.987 Y123.269 E.02153
G1 X102.69 Y121.972 E.06534
G1 X102.656 Y122.321 E.01249
G1 X102.665 Y122.411 E.00322
G1 X106.9 Y126.647 E.21338
G1 X107.339 Y126.621 E.01567
G1 X106.043 Y125.325 E.06529
G1 X106.633 Y125.451 E.02149
G1 X107.762 Y126.58 E.05688
G1 X107.836 Y126.573 E.00265
G1 X108.131 Y126.483 E.01099
G1 X107.12 Y125.473 E.05091
G1 X107.543 Y125.431 E.01514
G1 X108.487 Y126.375 E.04756
G1 X108.814 Y126.238 E.01263
G1 X107.91 Y125.334 E.04554
G1 X108.257 Y125.216 E.01306
G1 X109.117 Y126.076 E.04333
G1 X109.417 Y125.911 E.0122
G1 X108.56 Y125.054 E.04318
G1 X108.845 Y124.874 E.01201
G1 X109.672 Y125.701 E.04166
G1 X109.927 Y125.492 E.01175
G1 X109.1 Y124.665 E.04166
G1 X109.332 Y124.433 E.01169
G1 X110.16 Y125.26 E.04169
G1 X110.369 Y125.005 E.01175
G1 X109.542 Y124.177 E.04169
G1 X109.722 Y123.893 E.01198
G1 X110.595 Y124.729 E.04306
G1 X110.744 Y124.451 E.01124
G1 X109.884 Y123.59 E.04335
G1 X110.002 Y123.244 E.01302
G1 X110.906 Y124.148 E.04554
G1 X111.044 Y123.821 E.01264
G1 X110.101 Y122.878 E.04751
G1 X110.143 Y122.455 E.01514
G1 X111.152 Y123.465 E.05086
G1 X111.249 Y123.097 E.01356
G1 X110.121 Y121.969 E.05683
G1 X109.997 Y121.38 E.02144
G1 X111.291 Y122.674 E.06519
G1 X111.326 Y122.321 E.01264
G1 X111.317 Y122.236 E.00304
G1 X107.076 Y117.994 E.21369
G1 X107.591 Y118.045 E.01844
M73 P1 R88
G1 X111.266 Y121.721 E.18517
G1 X111.136 Y121.126 E.0217
G1 X108.186 Y118.175 E.14865
G1 X108.953 Y118.478 E.02938
G1 X111.156 Y120.681 E.11099
G1 X109.31 Y120.771 F7800
;TYPE:Support material
;WIDTH:0.42
G1 F1800
G1 X109.567 Y121.254 E.02427
G1 X109.726 Y121.777 E.02425
G1 X109.78 Y122.321 E.02425
G1 X109.726 Y122.865 E.02425
G1 X109.567 Y123.388 E.02425
G1 X109.31 Y123.87 E.02423
G1 X108.963 Y124.293 E.02427
G1 X108.54 Y124.64 E.02427
G1 X108.455 Y124.631 E.00379
G1 X108.844 Y122.738 E.08572
G1 X108.456 Y120.845 E.08571
G1 X109.238 Y120.684 E.03541
G1 X109.276 Y120.73 E.00265
G1 X109.073 Y123.906 F7800
G1 F1800
G1 X109.073 Y120.882 E.13413
G10 ; retract
G1 X109.073 Y120.882 F7800
G1 X106.55 Y126.761
G11 ; unretract
;TYPE:Support material interface
;WIDTH:0.35
G1 F1800
G1 X102.715 Y122.927 E.19318
G1 X102.847 Y123.523 E.02175
G1 X105.789 Y126.464 E.14819
G1 X105.017 Y126.158 E.02958
G1 X102.828 Y123.968 E.11031
G10 ; retract
G1 X102.828 Y123.968 F7800
G1 X120.92 Y126.264
G11 ; unretract
G1 F1800
G1 X119.405 Y124.729 E.07683
G1 X118.962 Y123.841 E.03535
G1 X121.489 Y126.368 E.12731
G1 X122.156 Y126.57 E.02483
G1 X118.76 Y123.174 E.17109
