; generated by PrusaSlicer 2.7.0+win64 on 2023-11-25 at 13:27:25 UTC

; 

; external perimeters extrusion width = 0.45mm
; perimeters extrusion width = 0.45mm
; infill extrusion width = 0.45mm
; solid infill extrusion width = 0.45mm
; top infill extrusion width = 0.40mm
; support material extrusion width = 0.35mm
; first layer extrusion width = 0.42mm

M190 S40 ; set bed temperature and wait for it to be reached
M104 S230 ; set temperature
;TYPE:Custom
START_PRINT EXTRUDER_TEMP=230 BED_TEMP=40
M109 S230 ; set temperature and wait for it to be reached
G21 ; set units to millimeters
G90 ; use absolute coordinates
M83 ; use relative distances for extrusion
; Filament gcode
M107
;LAYER_CHANGE
;Z:0.2
;HEIGHT:0.2
;BEFORE_LAYER_CHANGE
G92 E0
;0.2


G1 E-6 F3600
G1 Z.2 F7800
;AFTER_LAYER_CHANGE
;0.2
G1 X75.902 Y86.372
G1 Z.2
G1 E6 F2400
;TYPE:Skirt/Brim
;WIDTH:0.42
G1 F1800
G1 X76.625 Y85.737 E.03017
G1 X77.794 Y85.153 E.04097
G1 X78.951 Y84.785 E.03807
G1 X99.069 Y80.214 E.64686
G1 X101.371 Y79.854 E.07305
G1 X102.993 Y79.757 E.05095
G1 X141.138 Y79.771 E1.19601
G1 X143.42 Y80.037 E.07203
G1 X145.706 Y80.65 E.07421
G1 X147.817 Y81.561 E.07209
G1 X148.817 Y82.127 E.03603
G1 X150.005 Y82.934 E.04503
G1 X151.789 Y84.479 E.074
G1 X153.327 Y86.269 E.074
G1 X153.993 Y87.244 E.03702
G1 X154.851 Y88.788 E.05538
G1 X155.487 Y90.549 E.05871
G1 X155.658 Y91.847 E.04105
G1 X155.929 Y98.988 E.22406
G1 X155.929 Y131.011 E1.00406
G1 X155.658 Y138.152 E.22406
G1 X155.477 Y139.498 E.04258
G1 X154.893 Y141.129 E.05432
G1 X154.586 Y141.735 E.0213
G1 X153.754 Y143.127 E.05085
G1 X153.08 Y144.059 E.03606
G1 X151.542 Y145.766 E.07204
G1 X150.632 Y146.577 E.03822
G1 X149.522 Y147.412 E.04355
G1 X148.525 Y148.046 E.03705
G1 X146.954 Y148.853 E.05538
G1 X145.642 Y149.372 E.04424
G1 X144.542 Y149.707 E.03605
G1 X143.42 Y149.963 E.03608
G1 X141.829 Y150.183 E.05036
G1 X140.691 Y150.243 E.03573
G1 X102.571 Y150.231 E1.19523
G1 X100.579 Y150.052 E.06271
G1 X99.07 Y149.787 E.04804
G1 X78.985 Y145.225 E.64579
G1 X77.881 Y144.881 E.03626
G1 X76.625 Y144.263 E.04389
G1 X74.819 Y142.712 E.07464
G1 X73.624 Y140.654 E.07462
G1 X73.171 Y138.153 E.07969
G1 X73.171 Y91.847 E1.45189
G1 X73.568 Y89.5 E.07463
G1 X74.716 Y87.415 E.07463
G1 X75.857 Y86.412 E.04763
G1 X76.094 Y86.686 F7800
G1 F1800
G1 X76.819 Y86.06 E.03003
G1 X77.369 Y85.755 E.01972
G1 X78.502 Y85.297 E.03832
G1 X99.154 Y80.581 E.6642
G1 X101.415 Y80.228 E.07175
G1 X102.993 Y80.134 E.04956
G1 X141.114 Y80.147 E1.19526
G1 X143.345 Y80.407 E.07042
G1 X145.58 Y81.006 E.07255
G1 X147.643 Y81.895 E.07043
G1 X148.621 Y82.449 E.03524
G1 X149.774 Y83.232 E.0437
G1 X151.517 Y84.74 E.07227
G1 X153.019 Y86.487 E.07224
G1 X153.67 Y87.439 E.03616
G1 X154.515 Y88.959 E.05453
G1 X155.119 Y90.632 E.05577
G1 X155.281 Y91.862 E.0389
G1 X155.552 Y98.988 E.22359
G1 X155.552 Y131.011 E1.00406
G1 X155.281 Y138.138 E.22362
G1 X155.109 Y139.415 E.0404
G1 X154.556 Y140.96 E.05145
G1 X154.25 Y141.564 E.02123
G1 X153.443 Y142.912 E.04926
G1 X152.786 Y143.823 E.03522
G1 X151.233 Y145.539 E.07257
G1 X149.314 Y147.098 E.07752
G1 X148.341 Y147.717 E.03616
G1 X146.794 Y148.511 E.05452
G1 X145.516 Y149.017 E.0431
G1 X144.441 Y149.344 E.03523
G1 X143.345 Y149.593 E.03524
G1 X141.804 Y149.806 E.04878
G1 X140.691 Y149.866 E.03495
G1 X102.593 Y149.854 E1.19454
G1 X100.624 Y149.677 E.06199
G1 X99.154 Y149.419 E.0468
G1 X79.068 Y144.858 E.64581
G1 X77.932 Y144.496 E.03738
G1 X76.819 Y143.94 E.03901
G1 X75.069 Y142.423 E.07262
G1 X73.934 Y140.404 E.07262
G1 X73.548 Y138.153 E.07161
G1 X73.548 Y91.847 E1.45189
G1 X73.945 Y89.565 E.07263
G1 X75.09 Y87.552 E.07261
G1 X76.048 Y86.725 E.03968
G1 X76.284 Y87.008 F7800
G1 F1800
G1 X77.079 Y86.344 E.03248
G1 X78.07 Y85.855 E.03465
G1 X79.152 Y85.51 E.03561
G1 X99.237 Y80.949 E.64578
G1 X101.459 Y80.603 E.07051
G1 X102.993 Y80.511 E.04818
G1 X141.09 Y80.523 E1.1945
G1 X143.269 Y80.776 E.06878
G1 X145.454 Y81.361 E.07092
G1 X147.469 Y82.23 E.0688
G1 X149.544 Y83.53 E.07677
G1 X151.245 Y85.001 E.07051
G1 X152.712 Y86.705 E.0705
G1 X153.913 Y88.606 E.0705
G1 X154.22 Y89.212 E.0213
G1 X154.752 Y90.715 E.04999
G1 X154.904 Y91.877 E.03674
G1 X155.175 Y98.988 E.22312
G1 X155.175 Y131.011 E1.00406
G1 X154.904 Y138.123 E.22315
G1 X154.741 Y139.332 E.03825
G1 X154.219 Y140.791 E.04859
G1 X153.71 Y141.764 E.03443
G1 X152.491 Y143.588 E.06879
G1 X150.974 Y145.265 E.0709
G1 X149.105 Y146.783 E.07549
G1 X148.156 Y147.388 E.03529
G1 X146.635 Y148.17 E.05362
G1 X144.34 Y148.981 E.07632
G1 X143.269 Y149.224 E.03443
G1 X141.778 Y149.43 E.04719
G1 X140.691 Y149.489 E.03413
G1 X102.616 Y149.478 E1.19381
G1 X100.669 Y149.303 E.06129
G1 X99.237 Y149.051 E.04559
G1 X79.152 Y144.49 E.64578
G1 X78.07 Y144.145 E.03561
G1 X77.014 Y143.617 E.03702
G1 X75.321 Y142.135 E.07055
G1 X74.248 Y140.157 E.07056
G1 X73.925 Y138.153 E.06364
G1 X73.925 Y91.847 E1.45189
G1 X74.322 Y89.633 E.07053
G1 X75.463 Y87.694 E.07054
G1 X76.238 Y87.046 E.03167
G1 E-4.2 F3600
;WIPE_START
G1 F6240
G1 X76.284 Y87.008 E-.0327
G1 X77.079 Y86.344 E-.56771
G1 X78.07 Y85.855 E-.60567
G1 X79.102 Y85.526 E-.59392
;WIPE_END
G1 X148.021 Y105.218 F7800
G1 E6 F2400
;TYPE:Support material
G1 F1800
G1 X146.958 Y105.234 E.03333
G1 X145.705 Y104.911 E.04057
G1 X144.637 Y104.229 E.03973
G1 X143.922 Y103.397 E.0344
G1 X144.397 Y102.931 E.02086
G1 X148.021 Y100.448 E.13774
G1 X148.021 Y105.162 E.1478
G1 X147.675 Y105.062 F7800
G1 F1800
G1 X147.675 Y101.095 E.12438
G1 X147.256 Y101.382 E.01592
G1 X147.256 Y104.904 E.11043
G1 X146.837 Y104.873 E.01317
G1 X146.837 Y101.669 E.10046
G1 X146.418 Y101.956 E.01592
G1 X146.418 Y104.792 E.08892
G1 X145.999 Y104.659 E.01378
G1 X145.999 Y102.242 E.07578
G1 X145.58 Y102.529 E.01592
G1 X145.58 Y104.473 E.06095
G1 X145.161 Y104.211 E.01549
G1 X145.161 Y102.816 E.04374
G1 X144.742 Y103.104 E.01594
G1 X144.742 Y104.095 E.03107
G1 E-4.2 F3600
;WIPE_START
G1 F6240
G1 X144.742 Y103.104 E-.54314
G1 X145.161 Y102.816 E-.27866
G1 X145.161 Y104.211 E-.76457
G1 X145.492 Y104.418 E-.21363
;WIPE_END
G1 X141.037 Y100.975 F7800
G1 E6 F2400
G1 F1800
G1 X141.601 Y101.14 E.01843
G1 X142.304 Y101.666 E.02753
G1 X142.725 Y102.437 E.02754
G1 X142.788 Y103.313 E.02754
G1 X142.622 Y103.877 E.01843
G1 X142.096 Y104.58 E.02753
G1 X141.325 Y105.001 E.02754
G1 X140.45 Y105.063 E.0275
G1 X139.885 Y104.898 E.01846
G1 X139.183 Y104.371 E.02752
G1 X138.762 Y103.601 E.02752
G1 X138.699 Y102.725 E.02754
G1 X138.865 Y102.161 E.01843
G1 X139.391 Y101.458 E.02753
G1 X140.162 Y101.037 E.02754
G1 X140.981 Y100.971 E.02576
G1 X142.228 Y104.19 F7800
G1 F1800
G1 X142.228 Y102.148 E.06403
G1 X141.809 Y101.667 E.02
G1 X141.809 Y104.37 E.08475
G1 X141.39 Y104.614 E.0152
G1 X141.39 Y101.424 E.10002
G1 X140.971 Y101.31 E.01362
G1 X140.971 Y104.728 E.10717
G1 X140.553 Y104.73 E.01311
G1 X140.553 Y101.307 E.10733
G1 X140.134 Y101.41 E.01353
G1 X140.134 Y104.628 E.1009
G1 X139.715 Y104.398 E.01499
G1 X139.715 Y101.64 E.08648
G1 X139.296 Y102.082 E.0191
G1 X139.296 Y104.239 E.06763
G1 E-4.2 F3600
;WIPE_START
G1 F6240
G1 X139.296 Y102.082 E-1.1822
G1 X139.715 Y101.64 E-.3338
G1 X139.715 Y102.158 E-.284
;WIPE_END
G1 X132.537 Y100.975 F7800
G1 E6 F2400
G1 F1800
G1 X133.36 Y101.281 E.02753
G1 X133.981 Y101.902 E.02754
G1 X134.225 Y102.437 E.01844
G1 X134.288 Y103.313 E.02754
G1 X134.122 Y103.877 E.01843
G1 X133.596 Y104.58 E.02753
G1 X132.825 Y105.001 E.02754
G1 X131.95 Y105.063 E.0275
G1 X131.385 Y104.898 E.01846
G1 X130.683 Y104.371 E.02752
G1 X130.262 Y103.601 E.02752
G1 X130.199 Y102.725 E.02754
G1 X130.365 Y102.161 E.01843
G1 X130.891 Y101.458 E.02753
G1 X131.662 Y101.037 E.02754
G1 X132.481 Y100.971 E.02576
G1 X133.849 Y104.023 F7800
G1 F1800
G1 X133.849 Y102.399 E.05092
G1 X133.43 Y101.772 E.02364
G1 X133.43 Y104.266 E.0782
G1 X133.011 Y104.56 E.01605
G1 X133.011 Y101.477 E.09667
G1 X132.592 Y101.334 E.01388
G1 X132.592 Y104.704 E.10566
G1 X132.173 Y104.739 E.01318
G1 X132.173 Y101.299 E.10786
G1 X131.998 Y101.311 E.0055
G1 X131.754 Y101.365 E.00784
G1 X131.754 Y104.673 E.10372
G1 X131.335 Y104.483 E.01443
G1 X131.335 Y101.554 E.09184
G1 X130.916 Y101.921 E.01746
G1 X130.916 Y104.365 E.07663
G1 E-4.2 F3600
;WIPE_START
G1 F6240
G1 X130.916 Y101.921 E-1.3395
G1 X131.335 Y101.554 E-.30528
G1 X131.335 Y101.837 E-.15522
;WIPE_END
G1 X132.537 Y92.475 F7800
G1 E6 F2400
G1 F1800
G1 X133.36 Y92.781 E.02753
G1 X133.981 Y93.402 E.02754
G1 X134.225 Y93.937 E.01844
G1 X134.288 Y94.813 E.02754
G1 X133.981 Y95.636 E.02754
G1 X133.36 Y96.256 E.02751
G1 X132.825 Y96.501 E.01845
G1 X131.95 Y96.563 E.0275
G1 X131.127 Y96.256 E.02754
G1 X130.683 Y95.871 E.01843
G1 X130.262 Y95.101 E.02752
G1 X130.199 Y94.225 E.02754
G1 X130.365 Y93.661 E.01843
G1 X130.891 Y92.958 E.02753
G1 X131.662 Y92.537 E.02754
G1 X132.481 Y92.471 E.02576
G1 X133.849 Y95.523 F7800
G1 F1800
G1 X133.849 Y93.899 E.05092
G1 X133.43 Y93.272 E.02364
G1 X133.43 Y95.766 E.0782
G1 X133.011 Y96.06 E.01605
G1 X133.011 Y92.977 E.09667
G1 X132.592 Y92.834 E.01388
G1 X132.592 Y96.204 E.10566
G1 X132.173 Y96.239 E.01318
G1 X132.173 Y92.799 E.10786
G1 X131.998 Y92.811 E.0055
G1 X131.754 Y92.865 E.00784
G1 X131.754 Y96.173 E.10372
G1 X131.335 Y95.983 E.01443
G1 X131.335 Y93.054 E.09184
G1 X130.916 Y93.421 E.01746
G1 X130.916 Y95.865 E.07663
G1 E-4.2 F3600
;WIPE_START
G1 F6240
G1 X130.916 Y93.421 E-1.3395
G1 X131.335 Y93.054 E-.30528
G1 X131.335 Y93.337 E-.15522
;WIPE_END
G1 X141.037 Y92.475 F7800
G1 E6 F2400
G1 F1800
G1 X141.601 Y92.64 E.01843
G1 X142.304 Y93.166 E.02753
G1 X142.725 Y93.937 E.02754
G1 X142.788 Y94.813 E.02754
G1 X142.481 Y95.636 E.02754
G1 X141.86 Y96.256 E.02751
G1 X141.037 Y96.563 E.02754
G1 X140.45 Y96.563 E.0184
G1 X139.627 Y96.256 E.02754
G1 X139.006 Y95.636 E.02751
G1 X138.762 Y95.101 E.01844
G1 X138.699 Y94.225 E.02754
G1 X138.865 Y93.661 E.01843
G1 X139.391 Y92.958 E.02753
G1 X140.162 Y92.537 E.02754
G1 X140.981 Y92.471 E.02576
G1 X142.228 Y95.69 F7800
G1 F1800
G1 X142.228 Y93.648 E.06403
G1 X141.809 Y93.167 E.02
G1 X141.809 Y95.87 E.08475
G1 X141.39 Y96.114 E.0152
G1 X141.39 Y92.924 E.10002
G1 X140.971 Y92.81 E.01362
G1 X140.971 Y96.228 E.10717
G1 X140.553 Y96.23 E.01311
G1 X140.553 Y92.807 E.10733
G1 X140.134 Y92.91 E.01353
G1 X140.134 Y96.128 E.1009
G1 X139.715 Y95.898 E.01499
G1 X139.715 Y93.14 E.08648
G1 X139.296 Y93.582 E.0191
G1 X139.296 Y95.739 E.06763
G1 E-4.2 F3600
;WIPE_START
G1 F6240
G1 X139.296 Y93.582 E-1.1822
G1 X139.715 Y93.14 E-.3338
G1 X139.715 Y93.658 E-.284
;WIPE_END
G1 X147.507 Y92.741 F7800
G1 E6 F2400
G1 F1800
G1 X148.021 Y92.764 E.01613
G1 X148.021 Y97.534 E.14956
G1 X144.396 Y95.05 E.13778
G1 X143.922 Y94.585 E.02082
G1 X144.638 Y93.752 E.03444
G1 X145.432 Y93.202 E.03028
G1 X146.532 Y92.81 E.03661
G1 X147.45 Y92.741 E.02886
G1 X147.675 Y97.092 F7800
G1 F1800
G1 X147.675 Y93.09 E.12548
G1 X147.256 Y93.078 E.01314
G1 X147.256 Y96.6 E.11043
G1 X146.837 Y96.313 E.01592
G1 X146.837 Y93.109 E.10046
G1 X146.418 Y93.19 E.01338
G1 X146.418 Y96.026 E.08892
G1 X145.999 Y95.74 E.01591
G1 X145.999 Y93.323 E.07578
G1 X145.58 Y93.509 E.01437
G1 X145.58 Y95.453 E.06095
G1 X145.161 Y95.166 E.01592
G1 X145.161 Y93.77 E.04377
G1 X144.742 Y94.123 E.01718
G1 X144.742 Y95.085 E.03016
G1 E-4.2 F3600
;WIPE_START
G1 F6240
G1 X144.742 Y94.123 E-.52725
G1 X145.161 Y93.77 E-.30028
G1 X145.161 Y95.166 E-.76512
G1 X145.473 Y95.38 E-.20735
;WIPE_END
G1 X134.996 Y105.43 F7800
G1 E6 F2400
;TYPE:Perimeter
;WIDTH:0.419999
G1 F1800
G1 X134.7 Y105.737 E.01337
G1 X134.281 Y106.065 E.01668
G1 X133.827 Y106.324 E.01639
G1 X133.34 Y106.515 E.0164
G1 X132.831 Y106.636 E.0164
G1 X132.311 Y106.683 E.01637
;WIDTH:0.44853
G1 X131.788 Y106.669 E.01765
G1 X131.275 Y106.559 E.0177
;WIDTH:0.431849
G1 X130.781 Y106.385 E.01694
G1 X130.319 Y106.138 E.01694
;WIDTH:0.420516
G1 X129.879 Y105.818 E.01708
;WIDTH:0.419999
G1 X129.431 Y105.368 E.01991
G1 X129.125 Y104.943 E.01642
G1 X128.883 Y104.48 E.01638
G1 X128.721 Y104.022 E.01523
G1 X128.607 Y103.474 E.01755
G1 X128.58 Y102.952 E.01639
G1 X128.627 Y102.431 E.0164
G1 X128.742 Y101.937 E.0159
G1 X128.939 Y101.436 E.01688
G1 X129.198 Y100.982 E.01639
G1 X129.519 Y100.569 E.0164
G1 X129.895 Y100.206 E.01639
G1 X130.319 Y99.9 E.01639
G1 X130.783 Y99.658 E.01641
G1 X131.276 Y99.485 E.01638
G1 X131.774 Y99.384 E.01593
G1 X132.274 Y99.357 E.0157
G1 X132.831 Y99.402 E.01752
G1 X133.34 Y99.522 E.0164
G1 X133.827 Y99.714 E.01641
G1 X134.281 Y99.973 E.01639
G1 X134.592 Y100.206 E.01218
G1 X134.968 Y100.569 E.01639
G1 X135.289 Y100.982 E.0164
G1 X135.548 Y101.436 E.01639
G1 X135.74 Y101.922 E.01638
G1 X135.86 Y102.431 E.0164
G1 X135.907 Y102.952 E.0164
G1 X135.88 Y103.474 E.01639
G1 X135.778 Y103.987 E.0164
G1 X135.604 Y104.48 E.01639
G1 X135.362 Y104.943 E.01638
G1 X135.057 Y105.367 E.01638
G1 X135.038 Y105.386 E.00084
G1 X134.747 Y105.144 F7800
G1 F1800
G1 X134.722 Y105.176 E.00127
G1 X134.366 Y105.53 E.01574
G1 X133.987 Y105.807 E.01472
G1 X133.573 Y106.026 E.01468
G1 X133.131 Y106.185 E.01473
G1 X132.671 Y106.279 E.01472
G1 X132.203 Y106.307 E.0147
G1 X131.736 Y106.267 E.0147
G1 X131.15 Y106.114 E.01899
G1 X130.5 Y105.807 E.02254
G1 X130.086 Y105.498 E.0162
G1 X129.732 Y105.142 E.01574
G1 X129.456 Y104.762 E.01473
G1 X129.203 Y104.26 E.01763
G1 X128.998 Y103.538 E.02353
G1 X128.954 Y103.015 E.01646
G1 X128.995 Y102.511 E.01585
G1 X129.1 Y102.054 E.0147
G1 X129.352 Y101.466 E.02006
G1 X129.732 Y100.896 E.02148
G1 X130.092 Y100.531 E.01607
G1 X130.5 Y100.231 E.01588
G1 X130.932 Y100.005 E.01529
G1 X131.383 Y99.847 E.01498
G1 X131.816 Y99.759 E.01385
G1 X132.293 Y99.736 E.01497
G1 X132.751 Y99.77 E.0144
G1 X133.208 Y99.876 E.01471
G1 X133.646 Y100.045 E.01472
G1 X134.074 Y100.289 E.01545
G1 X134.366 Y100.508 E.01144
G1 X134.728 Y100.863 E.0159
G1 X135.031 Y101.275 E.01604
G1 X135.251 Y101.69 E.01473
G1 X135.409 Y102.131 E.01469
G1 X135.503 Y102.591 E.01472
G1 X135.53 Y103.074 E.01517
G1 X135.486 Y103.554 E.01511
G1 X135.387 Y103.984 E.01384
G1 X135.217 Y104.421 E.0147
G1 X134.973 Y104.849 E.01545
G1 X134.783 Y105.097 E.0098
G1 X134.576 Y104.749 F7800
;TYPE:External perimeter
G1 F1800
G1 X134.453 Y104.912 E.0064
G1 X133.95 Y105.371 E.02135
G1 X133.465 Y105.662 E.01773
G1 X133.051 Y105.816 E.01385
G1 X132.645 Y105.903 E.01302
G1 X132.23 Y105.931 E.01304
G1 X131.816 Y105.899 E.01302
G1 X131.282 Y105.761 E.01729
G1 X130.681 Y105.476 E.02086
G1 X130.35 Y105.229 E.01295
G1 X130.034 Y104.916 E.01395
G1 X129.787 Y104.582 E.01302
G1 X129.557 Y104.129 E.01593
G1 X129.365 Y103.454 E.022
G1 X129.332 Y103.005 E.01412
G1 X129.365 Y102.586 E.01318
G1 X129.454 Y102.186 E.01285
G1 X129.683 Y101.646 E.01839
G1 X130.034 Y101.122 E.01977
G1 X130.37 Y100.793 E.01474
G1 X130.681 Y100.562 E.01215
G1 X131.063 Y100.358 E.01358
G1 X131.464 Y100.216 E.01334
G1 X131.842 Y100.135 E.01212
G1 X132.27 Y100.112 E.01344
G1 X132.671 Y100.139 E.0126
G1 X133.077 Y100.229 E.01304
G1 X133.465 Y100.376 E.01301
G1 X133.848 Y100.591 E.01377
G1 X134.14 Y100.81 E.01144
G1 X134.453 Y101.122 E.01386
G1 X134.7 Y101.456 E.01302
G1 X134.898 Y101.822 E.01305
G1 X135.041 Y102.212 E.01302
G1 X135.127 Y102.618 E.01301
G1 X135.154 Y103.047 E.01348
G1 X135.118 Y103.474 E.01344
G1 X135.033 Y103.852 E.01215
G1 X134.886 Y104.241 E.01304
G1 X134.671 Y104.623 E.01374
G1 X134.613 Y104.701 E.00305
G1 E-4.2 F3600
;WIPE_START
G1 F6240
G1 X134.576 Y104.749 E-.03322
G1 X134.453 Y104.912 E-.11192
G1 X133.95 Y105.371 E-.37321
G1 X133.465 Y105.662 E-.30999
G1 X133.051 Y105.816 E-.24209
G1 X132.645 Y105.903 E-.22757
G1 X132.23 Y105.931 E-.22797
G1 X131.816 Y105.899 E-.22758
G1 X131.734 Y105.878 E-.04645
;WIPE_END
G1 X143.95 Y101.333 F7800
G1 E6 F2400
;TYPE:Perimeter
G1 F1800
G1 X143.874 Y101.151 E.00618
G1 X143.573 Y100.698 E.01705
G1 X143.198 Y100.298 E.01719
G1 X142.781 Y99.974 E.01656
G1 X142.327 Y99.714 E.0164
G1 X141.84 Y99.522 E.01641
G1 X141.331 Y99.402 E.0164
G1 X140.774 Y99.357 E.01752
G1 X140.274 Y99.384 E.0157
G1 X139.776 Y99.485 E.01593
G1 X139.283 Y99.658 E.01638
G1 X138.83 Y99.899 E.01609
G1 X138.395 Y100.206 E.01669
G1 X138.019 Y100.569 E.01639
G1 X137.698 Y100.982 E.0164
G1 X137.439 Y101.436 E.01639
G1 X137.247 Y101.922 E.01638
