; generated by PrusaSlicer 2.7.0+win64 on 2023-12-09 at 02:30:50 UTC

; 

; external perimeters extrusion width = 0.45mm
; perimeters extrusion width = 0.45mm
; infill extrusion width = 0.45mm
; solid infill extrusion width = 0.45mm
; top infill extrusion width = 0.40mm
; support material extrusion width = 0.35mm
; first layer extrusion width = 0.42mm

; external perimeters extrusion width = 0.45mm
; perimeters extrusion width = 0.45mm
; infill extrusion width = 0.45mm
; solid infill extrusion width = 0.45mm
; top infill extrusion width = 0.40mm
; support material extrusion width = 0.35mm
; first layer extrusion width = 0.42mm

M73 P0 R72
M190 S50 ; set bed temperature and wait for it to be reached
M104 S220 ; set temperature
;TYPE:Custom
START_PRINT EXTRUDER_TEMP=220 BED_TEMP=50 Z_OFFSET=0.1
M109 S220 ; set temperature and wait for it to be reached
G21 ; set units to millimeters
G90 ; use absolute coordinates
M83 ; use relative distances for extrusion
; Filament gcode
M107
;LAYER_CHANGE
;Z:0.3
;HEIGHT:0.3
;BEFORE_LAYER_CHANGE
G92 E0
;0.3


G10 ; retract
G1 Z.3 F7800
;AFTER_LAYER_CHANGE
;0.3
G1 X103.225 Y89.094
G11 ; unretract
;TYPE:Skirt/Brim
;WIDTH:0.42
G1 F1800
G1 X103.983 Y88.227 E.05108
G1 X104.898 Y87.352 E.05615
G1 X105.798 Y86.634 E.05107
G1 X106.855 Y85.936 E.05618
G1 X107.869 Y85.391 E.05106
G1 X109.034 Y84.893 E.0562
G1 X110.129 Y84.537 E.05107
G1 X111.363 Y84.255 E.05614
G1 X113.416 Y84.036 E.09158
G1 X117.719 Y84.08 E.19087
G1 X118.974 Y84.251 E.05618
G1 X120.098 Y84.507 E.05113
G1 X121.302 Y84.899 E.05616
G1 X122.361 Y85.352 E.05109
G1 X123.476 Y85.952 E.05616
G1 X124.437 Y86.587 E.05109
G1 X125.427 Y87.377 E.05618
G1 X126.259 Y88.173 E.05107
G1 X127.092 Y89.127 E.05618
G1 X128.151 Y90.642 E.08199
G1 X138.111 Y107.706 E.87637
G1 X138.61 Y108.744 E.05108
G1 X139.055 Y109.929 E.05614
G1 X139.362 Y111.039 E.05108
G1 X139.588 Y112.285 E.05617
G1 X139.692 Y113.432 E.05108
G1 X139.692 Y114.699 E.0562
G1 X139.589 Y115.846 E.05108
G1 X139.363 Y117.092 E.05617
G1 X138.776 Y119.023 E.08952
G1 X130.978 Y137.902 E.906
G1 X130.314 Y139.308 E.06897
G1 X129.664 Y140.396 E.05621
G1 X128.986 Y141.328 E.05112
G1 X128.153 Y142.282 E.05618
G1 X127.32 Y143.078 E.0511
G1 X126.33 Y143.868 E.05618
G1 X125.368 Y144.503 E.05113
G1 X124.252 Y145.103 E.0562
G1 X123.193 Y145.556 E.05109
G1 X121.988 Y145.948 E.0562
G1 X120.864 Y146.204 E.05113
G1 X119.609 Y146.374 E.05617
G1 X118.458 Y146.426 E.0511
G1 X117.192 Y146.369 E.05621
G1 X116.05 Y146.214 E.05112
G1 X114.815 Y145.932 E.05619
G1 X113.719 Y145.576 E.05111
G1 X112.554 Y145.078 E.0562
G1 X111.54 Y144.532 E.05108
G1 X110.482 Y143.834 E.05622
G1 X109.581 Y143.116 E.0511
G1 X108.666 Y142.24 E.05619
G1 X107.908 Y141.373 E.05108
G1 X107.163 Y140.348 E.0562
G1 X106.572 Y139.359 E.0511
G1 X96.847 Y122.743 E.85395
G1 X96.33 Y121.656 E.05339
G1 X95.925 Y120.578 E.05108
G1 X95.588 Y119.356 E.05622
G1 X95.383 Y118.223 E.05107
G1 X95.269 Y116.961 E.0562
G1 X95.269 Y115.809 E.0511
G1 X95.383 Y114.547 E.0562
G1 X97.388 Y104.079 E.47275
G1 X100.934 Y93.326 E.50221
G1 X101.339 Y92.247 E.05112
G1 X101.889 Y91.107 E.05614
G1 X102.48 Y90.118 E.0511
G1 X103.189 Y89.142 E.05351
G1 X103.476 Y89.351 F7800
G1 F1800
G1 X103.492 Y89.328 E.00124
G1 X104.25 Y88.461 E.05108
G1 X105.12 Y87.63 E.05336
G1 X106.02 Y86.912 E.05107
G1 X107.024 Y86.249 E.05337
G1 X108.038 Y85.704 E.05106
G1 X109.144 Y85.231 E.05335
G1 X110.239 Y84.875 E.05107
G1 X111.411 Y84.607 E.05333
G1 X113.418 Y84.392 E.08953
G1 X117.703 Y84.435 E.19007
G1 X118.895 Y84.597 E.05336
G1 X120.018 Y84.854 E.0511
G1 X121.162 Y85.226 E.05336
G1 X122.221 Y85.679 E.05109
G1 X123.28 Y86.249 E.05334
G1 X124.241 Y86.884 E.05109
G1 X125.181 Y87.634 E.05334
G1 X126.014 Y88.43 E.0511
G1 X126.805 Y89.336 E.05335
G1 X127.844 Y90.822 E.08042
G1 X137.79 Y107.86 E.87506
G1 X138.29 Y108.898 E.0511
G1 X138.713 Y110.024 E.05335
G1 X139.019 Y111.134 E.05107
G1 X139.234 Y112.317 E.05333
G1 X139.338 Y113.464 E.05108
G1 X139.338 Y114.667 E.05336
G1 X139.235 Y115.814 E.05108
G1 X139.021 Y116.997 E.05332
G1 X138.447 Y118.887 E.08761
G1 X130.649 Y137.766 E.906
G1 X129.993 Y139.154 E.06809
G1 X129.376 Y140.186 E.05333
G1 X128.699 Y141.119 E.05113
G1 X127.907 Y142.025 E.05338
G1 X127.074 Y142.821 E.0511
G1 X126.134 Y143.571 E.05334
G1 X125.172 Y144.206 E.05113
G1 X124.112 Y144.776 E.05338
G1 X123.053 Y145.229 E.05109
G1 X121.909 Y145.601 E.05336
G1 X120.785 Y145.857 E.05113
G1 X119.593 Y146.019 E.05336
G1 X118.442 Y146.07 E.0511
G1 X117.24 Y146.016 E.05337
G1 X116.098 Y145.862 E.05111
G1 X114.925 Y145.594 E.05337
G1 X113.829 Y145.238 E.05111
G1 X112.723 Y144.765 E.05335
G1 X111.708 Y144.219 E.05112
G1 X110.704 Y143.556 E.05337
G1 X109.803 Y142.838 E.0511
G1 X108.934 Y142.006 E.05336
G1 X108.175 Y141.139 E.05111
G1 X107.468 Y140.165 E.05338
G1 X106.877 Y139.176 E.0511
G1 X97.154 Y122.563 E.85379
G1 X96.258 Y120.453 E.10168
G1 X95.938 Y119.293 E.05337
G1 X95.733 Y118.159 E.05111
G1 X95.625 Y116.961 E.05335
G1 X95.625 Y115.809 E.0511
G1 X95.733 Y114.61 E.0534
G1 X97.729 Y104.178 E.4711
G1 X101.267 Y93.451 E.50101
G1 X101.672 Y92.373 E.05108
G1 X102.194 Y91.289 E.05336
G1 X102.785 Y90.301 E.05106
G1 X103.441 Y89.399 E.04947
G1 X103.727 Y89.607 F7800
G1 F1800
G1 X103.76 Y89.562 E.00248
G1 X104.518 Y88.695 E.05108
G1 X105.341 Y87.908 E.05051
G1 X106.242 Y87.19 E.0511
G1 X107.192 Y86.563 E.05049
G1 X108.206 Y86.017 E.05108
G1 X109.254 Y85.569 E.05055
G1 X110.349 Y85.213 E.05107
G1 X111.459 Y84.96 E.0505
G1 X112.6 Y84.805 E.05107
G1 X116.536 Y84.738 E.17461
G1 X117.687 Y84.791 E.05111
G1 X118.816 Y84.944 E.05053
G1 X119.939 Y85.201 E.0511
G1 X121.022 Y85.553 E.05051
G1 X122.081 Y86.006 E.05109
G1 X123.084 Y86.546 E.05053
G1 X124.045 Y87.181 E.05109
G1 X124.935 Y87.891 E.0505
G1 X125.768 Y88.687 E.0511
G1 X126.517 Y89.545 E.05052
G1 X127.537 Y91.002 E.07889
G1 X137.47 Y108.015 E.87381
G1 X137.97 Y109.052 E.05106
G1 X138.37 Y110.119 E.05054
G1 X138.676 Y111.229 E.05107
G1 X138.88 Y112.349 E.05049
G1 X138.983 Y113.496 E.05108
G1 X138.984 Y114.635 E.05052
G1 X138.881 Y115.782 E.05108
G1 X138.678 Y116.903 E.05053
G1 X138.119 Y118.751 E.08564
G1 X130.321 Y137.63 E.906
G1 X129.673 Y138.999 E.06718
G1 X129.088 Y139.977 E.05055
G1 X128.411 Y140.91 E.05113
G1 X127.661 Y141.768 E.05055
G1 X126.829 Y142.564 E.05107
G1 X125.938 Y143.274 E.05053
G1 X124.976 Y143.909 E.05113
G1 X123.973 Y144.449 E.05053
G1 X122.913 Y144.902 E.05113
G1 X121.83 Y145.254 E.05051
G1 X120.706 Y145.511 E.05114
G1 X119.577 Y145.663 E.05053
G1 X118.426 Y145.715 E.0511
G1 X117.288 Y145.664 E.05053
G1 X116.146 Y145.509 E.05112
G1 X115.035 Y145.256 E.05054
G1 X113.939 Y144.9 E.05111
G1 X112.891 Y144.452 E.05055
G1 X111.877 Y143.906 E.05108
G1 X110.926 Y143.278 E.05055
G1 X110.025 Y142.56 E.0511
G1 X109.201 Y141.772 E.05057
G1 X108.443 Y140.905 E.05108
G1 X107.774 Y139.983 E.05053
G1 X107.183 Y138.994 E.0511
G1 X97.461 Y122.384 E.85365
G1 X96.591 Y120.328 E.09902
G1 X96.288 Y119.229 E.05056
G1 X96.083 Y118.096 E.05107
G1 X95.98 Y116.961 E.05055
G1 X95.98 Y115.809 E.0511
G1 X96.083 Y114.674 E.05055
G1 X98.071 Y104.278 E.46947
G1 X101.6 Y93.576 E.49983
G1 X102.005 Y92.498 E.05108
G1 X102.5 Y91.472 E.05053
G1 X103.091 Y90.483 E.0511
G1 X103.692 Y89.656 E.04534
G10 ; retract
G1 X103.692 Y89.656 F7800
G1 X126.643 Y107.68
G11 ; unretract
;TYPE:Support material
G1 F1800
G1 X127.091 Y107.7 E.01989
G1 X128.214 Y107.957 E.0511
G1 X129.273 Y108.41 E.05109
G1 X130.235 Y109.045 E.05113
G1 X131.067 Y109.841 E.05107
G1 X131.744 Y110.773 E.05109
G1 X132.243 Y111.81 E.05104
G1 X132.55 Y112.92 E.05108
G1 X132.654 Y114.067 E.05108
G1 X132.551 Y115.214 E.05108
G1 X132.245 Y116.325 E.05111
G1 X131.745 Y117.363 E.0511
G1 X131.069 Y118.295 E.05107
G1 X130.236 Y119.092 E.05114
G1 X129.275 Y119.727 E.05109
G1 X128.216 Y120.18 E.05109
G1 X127.092 Y120.437 E.05114
G1 X126.518 Y120.463 E.02549
G1 X126.518 Y119.518 E.04192
G1 X126.198 Y119.198 E.02007
G1 X123.741 Y119.198 E.10898
G1 X123.459 Y119.397 E.01531
G1 X123.328 Y119.693 E.01436
G1 X123.14 Y119.837 E.0105
G1 X122.157 Y119.865 E.04362
G1 X121.052 Y119.151 E.05835
G1 X120.404 Y118.845 E.03179
G1 X119.702 Y118.624 E.03264
G1 X118.787 Y118.491 E.04101
G1 X118.235 Y117.859 E.03722
G1 X117.644 Y116.869 E.05114
G1 X117.24 Y115.79 E.0511
G1 X117.035 Y114.657 E.05107
G1 X117.035 Y113.505 E.0511
G1 X117.242 Y112.372 E.05109
G1 X117.647 Y111.294 E.05108
G1 X118.238 Y110.305 E.0511
G1 X118.995 Y109.438 E.05105
G1 X119.896 Y108.72 E.0511
G1 X120.91 Y108.174 E.05108
G1 X122.005 Y107.818 E.05107
G1 X123.147 Y107.663 E.05112
G1 X124.297 Y107.715 E.05106
G1 X124.75 Y107.818 E.02061
G1 X125.941 Y107.648 E.05336
G1 X126.59 Y107.678 E.02882
G1 X132.095 Y116.265 F7800
G1 F1800
G1 X132.095 Y112.475 E.1681
G1 X131.943 Y111.923 E.0254
G1 X131.7 Y111.419 E.02482
G1 X131.7 Y116.719 E.23508
G1 X131.305 Y117.425 E.03588
G1 X131.305 Y110.713 E.29771
G1 X130.91 Y110.169 E.02982
G1 X130.91 Y117.969 E.34597
G1 X130.515 Y118.382 E.02535
G1 X130.515 Y109.755 E.38265
G1 X130.119 Y109.378 E.02425
G1 X130.119 Y118.76 E.41614
G1 X129.724 Y119.046 E.02163
G1 X129.724 Y109.091 E.44155
G1 X129.329 Y108.83 E.021
G1 X129.329 Y119.308 E.46475
G1 X128.934 Y119.525 E.01999
G1 X128.934 Y108.613 E.484
G1 X128.539 Y108.444 E.01906
G1 X128.539 Y119.694 E.49899
G1 X128.144 Y119.863 E.01906
G1 X128.144 Y108.275 E.51398
G1 X127.749 Y108.179 E.01803
G1 X127.749 Y119.959 E.5225
G1 X127.354 Y120.049 E.01797
G1 X127.354 Y108.089 E.53048
G1 X126.958 Y108.015 E.01787
G1 X126.958 Y120.123 E.53705
G1 X126.838 Y120.129 E.00533
G1 X126.838 Y119.386 E.03296
G1 X126.563 Y119.11 E.01728
G1 X126.563 Y107.997 E.49292
G1 X126.168 Y107.979 E.01754
G1 X126.168 Y118.878 E.48342
G1 X125.773 Y118.877 E.01752
G1 X125.773 Y107.994 E.48271
G1 X125.378 Y108.047 E.01768
G1 X125.378 Y118.877 E.48036
G1 X124.983 Y118.877 E.01752
G1 X124.983 Y108.101 E.47797
G1 X124.588 Y108.109 E.01752
G1 X124.588 Y118.878 E.47766
G1 X124.193 Y118.878 E.01752
G1 X124.193 Y108.03 E.48116
G1 X123.797 Y108.013 E.01758
G1 X123.797 Y118.878 E.48192
G1 X123.64 Y118.878 E.00696
G1 X123.402 Y119.046 E.01292
G1 X123.402 Y107.995 E.49017
G1 X123.007 Y108.005 E.01753
G1 X123.007 Y119.544 E.51181
G1 X122.612 Y119.55 E.01752
G1 X122.612 Y108.059 E.50968
G1 X122.217 Y108.112 E.01768
G1 X122.217 Y119.548 E.50724
G1 X121.822 Y119.268 E.02148
G1 X121.822 Y108.214 E.4903
G1 X121.427 Y108.343 E.01843
G1 X121.427 Y119.002 E.47278
G1 X121.031 Y118.78 E.02014
G1 X121.031 Y108.472 E.45721
G1 X120.636 Y108.685 E.01991
G1 X120.636 Y118.596 E.4396
G1 X120.241 Y118.448 E.01871
G1 X120.241 Y108.898 E.42359
G1 X119.846 Y109.169 E.02125
G1 X119.846 Y118.332 E.40642
G1 X119.451 Y118.246 E.01793
G1 X119.451 Y109.484 E.38864
G1 X119.056 Y109.855 E.02404
G1 X119.056 Y118.19 E.3697
G1 X118.941 Y118.181 E.00512
G1 X118.661 Y117.86 E.01889
G1 X118.661 Y110.307 E.33501
G1 X118.266 Y110.882 E.03094
G1 X118.266 Y117.286 E.28405
G1 X117.87 Y116.561 E.03664
G1 X117.87 Y111.608 E.21969
G1 X117.551 Y112.457 E.04023
G1 X117.475 Y112.875 E.01884
G1 X117.475 Y115.962 E.13692
G10 ; retract
G1 X117.475 Y115.962 F7800
G1 X114.895 Y127.685
G11 ; unretract
G1 F1800
G1 X115.475 Y128.146 E.03286
G1 X116.119 Y128.523 E.0331
G1 X117.077 Y128.887 E.04546
G1 X117.803 Y129.032 E.03284
G1 X118.87 Y129.059 E.04734
G1 X119.938 Y128.867 E.04813
G1 X121.225 Y128.372 E.06116
G1 X122.216 Y127.775 E.05132
G1 X123.269 Y128.717 E.06267
G1 X123.946 Y129.649 E.05109
G1 X124.446 Y130.687 E.0511
G1 X124.753 Y131.798 E.05112
G1 X124.856 Y132.945 E.05108
G1 X124.753 Y134.093 E.05112
G1 X124.446 Y135.204 E.05112
G1 X123.946 Y136.242 E.0511
G1 X123.269 Y137.174 E.05109
G1 X122.436 Y137.97 E.0511
G1 X121.475 Y138.605 E.05109
G1 X120.415 Y139.058 E.05113
G1 X119.292 Y139.314 E.05109
G1 X118.141 Y139.366 E.0511
G1 X116.999 Y139.211 E.05112
G1 X115.903 Y138.855 E.05111
G1 X114.888 Y138.309 E.05112
G1 X113.988 Y137.591 E.05107
G1 X113.23 Y136.723 E.05111
G1 X112.639 Y135.734 E.0511
G1 X112.234 Y134.655 E.05112
G1 X112.028 Y133.521 E.05112
G1 X112.028 Y132.369 E.0511
G1 X112.234 Y131.235 E.05112
G1 X112.639 Y130.157 E.05108
G1 X113.23 Y129.168 E.0511
G1 X113.988 Y128.3 E.05111
G1 X114.857 Y127.648 E.04819
G1 X124.193 Y135.362 F7800
G1 F1800
G1 X124.193 Y130.97 E.19481
G1 X123.797 Y130.077 E.04333
G1 X123.797 Y135.814 E.25446
G1 X123.402 Y136.446 E.03306
G1 X123.402 Y129.444 E.31057
G1 X123.007 Y128.909 E.0295
G1 X123.007 Y136.982 E.35808
G1 X122.612 Y137.36 E.02425
G1 X122.612 Y128.531 E.39161
G1 X122.221 Y128.162 E.02385
G1 X122.217 Y137.732 E.42448
G1 X121.822 Y137.992 E.02097
G1 X121.822 Y128.421 E.42452
G1 X121.427 Y128.629 E.0198
G1 X121.427 Y138.253 E.42687
G1 X121.031 Y138.446 E.01954
G1 X121.031 Y128.796 E.42802
G1 X120.636 Y128.958 E.01894
G1 X120.636 Y138.615 E.42833
G1 X120.241 Y138.769 E.0188
G1 X120.241 Y129.106 E.4286
G1 X119.846 Y129.221 E.01825
G1 X119.846 Y138.86 E.42754
G1 X119.451 Y138.95 E.01797
G1 X119.451 Y129.305 E.4278
G1 X119.056 Y129.361 E.0177
G1 X119.056 Y139.005 E.42776
G1 X118.661 Y139.022 E.01754
G1 X118.661 Y129.388 E.42731
G1 X118.266 Y129.388 E.01752
G1 X118.266 Y139.04 E.42811
G1 X117.87 Y139.006 E.01763
G1 X117.87 Y129.36 E.42785
G1 X117.475 Y129.304 E.0177
G1 X117.475 Y138.953 E.42798
G1 X117.08 Y138.899 E.01768
G1 X117.08 Y129.218 E.4294
G1 X116.685 Y129.103 E.01825
M73 P1 R72
G1 X116.685 Y138.773 E.42891
G1 X116.29 Y138.644 E.01843
G1 X116.29 Y128.954 E.4298
G1 X115.895 Y128.767 E.01938
G1 X115.895 Y138.487 E.43113
G1 X115.5 Y138.275 E.01988
G1 X115.5 Y128.541 E.43175
G1 X115.104 Y128.271 E.02126
G1 X115.066 Y138.041 E.43335
G1 X114.709 Y137.757 E.02023
G1 X114.709 Y128.134 E.42683
G1 X114.314 Y128.449 E.02241
G1 X114.314 Y137.442 E.39888
G1 X113.919 Y137.026 E.02544
G1 X113.919 Y128.865 E.36198
G1 X113.524 Y129.317 E.02663
G1 X113.524 Y136.574 E.32188
G1 X113.129 Y135.931 E.03347
G1 X113.129 Y129.96 E.26484
G1 X112.734 Y130.814 E.04173
G1 X112.734 Y135.532 E.20927
G10 ; retract
G1 X112.734 Y135.532 F7800
G1 X124.384 Y120.987
G11 ; unretract
;TYPE:Perimeter
;WIDTH:0.42
G1 F1800
G1 X124.509 Y120.867 E.00769
G1 X124.85 Y120.866 E.01513
G1 X124.85 Y121.099 E.01033
G1 X124.85 Y122.15 E.04662
G1 X124.774 Y122.545 E.01784
G1 X124.513 Y123.015 E.02385
G1 X124.022 Y123.751 E.03924
G1 X123.151 Y124.802 E.06054
G1 X122.522 Y125.42 E.03911
G1 X122.035 Y125.824 E.02807
G1 X122.3 Y125.273 E.02712
G1 X122.479 Y124.724 E.02561
G1 X122.58 Y124.014 E.03181
G1 X122.549 Y123.297 E.03183
G1 X122.472 Y122.837 E.02069
G1 X122.322 Y122.317 E.024
G1 X122.103 Y121.834 E.02352
G1 X121.879 Y121.499 E.01787
G1 X122.035 Y121.528 E.00704
G1 X122.831 Y121.537 E.03531
G1 X123.453 Y121.479 E.02771
G1 X123.881 Y121.331 E.02009
G1 X124.312 Y121.056 E.02268
G1 X124.341 Y121.028 E.00179
G1 X124.152 Y120.715 F7800
G1 F1800
G1 X124.332 Y120.511 E.01207
G1 X125.205 Y120.511 E.03872
G1 X125.205 Y121.099 E.02608
G1 X125.199 Y122.225 E.04994
G1 X125.103 Y122.686 E.02089
G1 X124.816 Y123.201 E.02615
G1 X124.307 Y123.964 E.04068
G1 X123.437 Y125.014 E.06048
G1 X123.081 Y125.369 E.0223
G1 X122.51 Y125.892 E.03434
G1 X121.958 Y126.342 E.03159
;WIDTH:0.439621
G1 X121.219 Y126.856 E.04213
G1 X120.871 Y127.061 E.0189
;WIDTH:0.406311
G1 X120.523 Y127.266 E.01722
;WIDTH:0.373001
G1 X119.84 Y127.552 E.0285
;WIDTH:0.354463
G1 X119.268 Y127.712 E.02149
;WIDTH:0.363962
G1 X118.769 Y127.776 E.0188
G1 X118.22 Y127.784 E.02052
;WIDTH:0.354725
G1 X117.416 Y127.649 E.02952
;WIDTH:0.361019
G1 X116.661 Y127.355 E.02998
G1 X115.973 Y126.919 E.03014
;WIDTH:0.356133
G1 X115.387 Y126.346 E.02982
G1 X115.071 Y125.913 E.01951
;WIDTH:0.353617
G1 X114.789 Y125.367 E.02217
;WIDTH:0.354519
G1 X114.554 Y124.655 E.02713
;WIDTH:0.362394
G1 X114.475 Y124.126 E.01988
G1 X114.461 Y123.589 E.01997
;WIDTH:0.361382
G1 X114.589 Y122.768 E.03078
G1 X114.753 Y122.262 E.0197
;WIDTH:0.356343
G1 X114.992 Y121.774 E.01979
G1 X115.294 Y121.322 E.0198
;WIDTH:0.355861
G1 X115.655 Y120.915 E.01978
;WIDTH:0.362548
G1 X116.069 Y120.564 E.02019
G1 X116.519 Y120.269 E.02001
;WIDTH:0.354141
G1 X117.025 Y120.044 E.02001
;WIDTH:0.342115
G1 X117.577 Y119.877 E.01998
;WIDTH:0.355297
