; generated by PrusaSlicer 2.7.1+win64 on 2024-01-23 at 03:28:44 UTC

; 

; external perimeters extrusion width = 0.45mm
; perimeters extrusion width = 0.45mm
; infill extrusion width = 0.45mm
; solid infill extrusion width = 0.45mm
; top infill extrusion width = 0.40mm
; first layer extrusion width = 0.42mm

; external perimeters extrusion width = 0.45mm
; perimeters extrusion width = 0.45mm
; infill extrusion width = 0.45mm
; solid infill extrusion width = 0.45mm
; top infill extrusion width = 0.40mm
; first layer extrusion width = 0.42mm

M73 P0 R98
M190 S50 ; set bed temperature and wait for it to be reached
M104 S230 ; set temperature
;TYPE:Custom
START_PRINT EXTRUDER_TEMP=230 BED_TEMP=50 Z_OFFSET=0.1
M109 S230 ; set temperature and wait for it to be reached
G21 ; set units to millimeters
G90 ; use absolute coordinates
M83 ; use relative distances for extrusion
; Filament gcode
M107
;LAYER_CHANGE
;Z:0.3
;HEIGHT:0.3
;BEFORE_LAYER_CHANGE
G92 E0
;0.3


G10 ; retract
G1 Z.3 F7800
;AFTER_LAYER_CHANGE
;0.3
G1 X90.547 Y100.678
G11 ; unretract
;TYPE:Skirt/Brim
;WIDTH:0.42
G1 F1800
G1 X92.48 Y99.307 E.10511
G1 X95.544 Y98.608 E.13939
G1 X134.456 Y98.608 E1.72593
G1 X136.792 Y99.005 E.1051
G1 X139.453 Y100.678 E.13942
G1 X141.431 Y102.739 E.1267
G1 X142.328 Y104.123 E.07315
G1 X142.863 Y105.417 E.06211
G1 X143.208 Y107.029 E.07312
G1 X143.267 Y107.975 E.04204
G1 X143.226 Y116.167 E.36336
G1 X140.012 Y145.637 E1.31489
G1 X139.976 Y145.942 E.01362
G1 X138.758 Y149.13 E.15137
G1 X138.626 Y149.319 E.01023
G1 X136.891 Y151.282 E.1162
G1 X131.735 Y156.564 E.3274
G1 X128.884 Y158.18 E.14536
G1 X126.872 Y158.509 E.09043
G1 X126.327 Y158.517 E.02418
G1 X99.882 Y158.517 E1.17296
G1 X98.853 Y158.45 E.04574
G1 X96.573 Y157.804 E.10511
G1 X94.831 Y156.628 E.09322
G1 X88.707 Y150.378 E.38811
G1 X87.755 Y149.195 E.06735
G1 X86.963 Y147.631 E.07776
G1 X86.509 Y145.572 E.09352
G1 X86.733 Y107.928 E1.66972
G1 X86.792 Y107.029 E.03996
G1 X87.137 Y105.417 E.07312
G1 X87.672 Y104.123 E.06211
G1 X88.569 Y102.739 E.07315
G1 X90.497 Y100.73 E.1235
G1 X90.754 Y100.976 F7800
G1 F1800
G1 X90.799 Y100.929 E.00289
G1 X92.687 Y99.602 E.10236
G1 X95.544 Y98.964 E.12984
G1 X134.456 Y98.964 E1.72593
G1 X136.73 Y99.361 E.10239
G1 X139.201 Y100.929 E.1298
G1 X141.157 Y102.965 E.12523
G1 X142.014 Y104.291 E.07003
G1 X142.523 Y105.519 E.05896
G1 X142.854 Y107.063 E.07004
G1 X142.911 Y107.975 E.04053
G1 X142.871 Y116.142 E.36225
G1 X139.659 Y145.598 E1.31426
G1 X139.623 Y145.899 E.01345
G1 X138.466 Y148.927 E.14378
G1 X138.334 Y149.115 E.01019
G1 X136.635 Y151.036 E.11375
G1 X131.493 Y156.304 E.32652
G1 X128.777 Y157.841 E.13842
G1 X126.866 Y158.153 E.08588
G1 X126.323 Y158.161 E.02409
G1 X99.882 Y158.162 E1.17279
G1 X98.891 Y158.097 E.04405
M73 P0 R97
G1 X96.673 Y157.457 E.10239
G1 X95.072 Y156.366 E.08593
G1 X88.964 Y150.133 E.38708
G1 X88.054 Y149.002 E.06439
G1 X87.295 Y147.503 E.07453
G1 X86.863 Y145.548 E.08881
G1 X87.089 Y107.931 E1.66853
G1 X87.146 Y107.064 E.03854
G1 X87.477 Y105.52 E.07004
G1 X87.986 Y104.291 E.059
G1 X88.843 Y102.965 E.07003
G1 X90.704 Y101.028 E.11914
G1 X90.96 Y101.274 F7800
G1 F1800
G1 X91.05 Y101.181 E.00574
G1 X92.894 Y99.898 E.09964
G1 X95.544 Y99.319 E.12031
G1 X134.456 Y99.319 E1.72593
G1 X136.667 Y99.716 E.09964
G1 X138.95 Y101.181 E.12032
G1 X140.882 Y103.191 E.12366
G1 X141.701 Y104.459 E.06695
G1 X142.183 Y105.622 E.05584
G1 X142.5 Y107.098 E.06696
G1 X142.556 Y107.975 E.03898
G1 X142.516 Y116.117 E.36114
G1 X139.305 Y145.56 E1.31368
G1 X139.27 Y145.856 E.01322
G1 X138.174 Y148.723 E.13614
G1 X138.043 Y148.912 E.0102
G1 X136.378 Y150.789 E.11129
G1 X131.25 Y156.043 E.32564
G1 X128.669 Y157.502 E.1315
G1 X126.86 Y157.798 E.0813
G1 X126.318 Y157.806 E.02404
G1 X99.882 Y157.806 E1.17256
G1 X98.929 Y157.743 E.04236
G1 X96.774 Y157.111 E.09961
G1 X95.312 Y156.104 E.07874
G1 X89.221 Y149.887 E.38604
G1 X88.352 Y148.809 E.06142
G1 X87.627 Y147.376 E.07123
G1 X87.218 Y145.524 E.08412
G1 X87.445 Y107.933 E1.66737
G1 X87.5 Y107.098 E.03712
G1 X87.817 Y105.622 E.06696
G1 X88.299 Y104.459 E.05584
G1 X89.118 Y103.191 E.06695
G1 X90.91 Y101.326 E.11472
G10 ; retract
G1 X90.91 Y101.326 F7800
G1 X129.312 Y122.548
G11 ; unretract
;TYPE:Perimeter
;WIDTH:0.42
G1 F1800
G1 X129.073 Y122.666 E.01182
G1 X128.466 Y122.779 E.02739
G1 X101.608 Y122.779 E1.19128
G1 X101.06 Y122.713 E.02448
G1 X100.668 Y122.537 E.01906
G1 X100.326 Y122.235 E.02024
G1 X98.483 Y120.061 E.12641
G1 X99.064 Y120.346 E.0287
G1 X99.589 Y120.516 E.02448
G1 X100.132 Y120.616 E.02449
G1 X100.683 Y120.645 E.02447
G1 X101.233 Y120.601 E.02447
G1 X101.773 Y120.486 E.02449
G1 X102.294 Y120.301 E.02452
G1 X102.785 Y120.05 E.02446
G1 X103.24 Y119.737 E.0245
G1 X103.65 Y119.368 E.02447
G1 X104.008 Y118.948 E.02448
G1 X104.309 Y118.485 E.02449
G1 X104.546 Y117.986 E.0245
G1 X104.716 Y117.461 E.02448
G1 X104.816 Y116.918 E.02449
G1 X104.845 Y116.393 E.02332
G1 X105.059 Y116.712 E.01704
G1 X105.505 Y117.095 E.02608
G1 X105.71 Y117.177 E.00979
G1 X106.277 Y117.296 E.0257
G1 X109.667 Y117.296 E.15036
G1 X110.131 Y117.201 E.02101
G1 X110.411 Y117.067 E.01377
G1 X110.699 Y116.796 E.01754
G1 X110.909 Y116.464 E.01742
G1 X111.023 Y115.94 E.02379
G1 X111.023 Y112.968 E.13182
G1 X110.923 Y112.475 E.02231
G1 X110.744 Y112.168 E.01576
G1 X110.415 Y111.843 E.02051
G1 X109.938 Y111.656 E.02272
G1 X109.631 Y111.615 E.01374
G1 X109.145 Y111.726 E.02211
G1 X108.869 Y111.858 E.01357
G1 X105.507 Y114.243 E.18283
G1 X105.197 Y114.49 E.01758
G1 X104.868 Y114.898 E.02325
G1 X104.717 Y115.389 E.02278
G1 X104.546 Y114.864 E.02449
G1 X104.334 Y114.416 E.02198
G1 X104.058 Y113.976 E.02304
G1 X103.706 Y113.546 E.02465
G1 X103.319 Y113.182 E.02357
G1 X103.4 Y113.156 E.00377
G1 X103.885 Y112.89 E.02454
G1 X107.262 Y110.365 E.18703
G1 X107.424 Y110.207 E.01004
G1 X107.762 Y109.734 E.02579
G1 X107.886 Y109.181 E.02514
G1 X107.855 Y108.742 E.01952
G1 X107.74 Y108.398 E.01609
G1 X107.503 Y108.028 E.01949
G1 X107.237 Y107.78 E.01613
;WIDTH:0.462748
G1 X107.063 Y107.685 E.00985
;WIDTH:0.505497
G1 X106.888 Y107.59 E.01096
;WIDTH:0.548245
G1 X106.714 Y107.495 E.01196
;WIDTH:0.590994
G1 X106.54 Y107.4 E.01302
G1 X106.294 Y107.378 E.01622
;WIDTH:0.570953
G1 X102.11 Y107.378 E.26436
G1 X101.859 Y107.427 E.01616
;WIDTH:0.541417
G1 X101.645 Y107.529 E.01411
;WIDTH:0.500944
G1 X101.431 Y107.631 E.01291
;WIDTH:0.460472
G1 X101.217 Y107.734 E.01173
;WIDTH:0.42
G1 X100.901 Y108.015 E.01876
G1 X100.632 Y108.473 E.02356
G1 X100.504 Y109.06 E.02665
G1 X100.504 Y111.206 E.09519
G1 X100.581 Y111.744 E.02411
G1 X100.776 Y112.215 E.02261
G1 X100.132 Y112.234 E.02858
G1 X99.579 Y112.336 E.02494
G1 X99.064 Y112.504 E.02403
G1 X98.565 Y112.741 E.0245
G1 X98.102 Y113.042 E.02449
G1 X97.682 Y113.4 E.02448
G1 X97.313 Y113.81 E.02447
G1 X97 Y114.265 E.0245
G1 X96.749 Y114.756 E.02446
G1 X96.564 Y115.277 E.02452
G1 X96.449 Y115.817 E.02449
G1 X96.405 Y116.367 E.02447
G1 X96.434 Y116.918 E.02447
G1 X96.534 Y117.461 E.02449
G1 X96.69 Y117.945 E.02256
G1 X95.287 Y116.28 E.09657
G1 X95.015 Y115.814 E.02393
G1 X94.921 Y115.258 E.02501
G1 X94.921 Y108.129 E.31621
G1 X94.955 Y107.898 E.01036
G1 X95.054 Y107.75 E.0079
G1 X96.008 Y106.796 E.05984
G1 X101.417 Y106.796 E.23991
;WIDTH:0.460472
G1 X101.539 Y106.816 E.00611
;WIDTH:0.500944
G1 X101.661 Y106.837 E.00674
;WIDTH:0.541417
G1 X101.782 Y106.857 E.0073
;WIDTH:0.570953
G1 X102.11 Y106.872 E.02075
G1 X106.294 Y106.872 E.26436
;WIDTH:0.590994
G1 X106.606 Y106.882 E.0205
G1 X106.722 Y106.861 E.00774
;WIDTH:0.549258
G1 X106.838 Y106.84 E.00713
;WIDTH:0.507523
G1 X106.955 Y106.819 E.00657
;WIDTH:0.465788
G1 X107.624 Y106.796 E.03351
;WIDTH:0.42
G1 X122.376 Y106.796 E.65432
;WIDTH:0.429181
G1 X123.045 Y106.801 E.03044
;WIDTH:0.468276
G1 X123.162 Y106.82 E.00597
;WIDTH:0.507371
G1 X123.278 Y106.84 E.0065
;WIDTH:0.546466
G1 X123.394 Y106.859 E.00707
;WIDTH:0.570953
G1 X127.89 Y106.872 E.28407
;WIDTH:0.592964
G1 X128.218 Y106.883 E.02164
G1 X128.339 Y106.861 E.00811
;WIDTH:0.550089
G1 X128.461 Y106.84 E.0075
;WIDTH:0.507214
G1 X128.582 Y106.818 E.00679
;WIDTH:0.464339
G1 X129.102 Y106.796 E.02596
;WIDTH:0.42
G1 X133.992 Y106.796 E.21689
G1 X134.905 Y107.71 E.0573
G1 X135.045 Y107.898 E.0104
G1 X135.079 Y108.129 E.01036
G1 X135.071 Y115.398 E.32241
G1 X134.964 Y115.833 E.01987
G1 X134.69 Y116.316 E.02463
G1 X133.311 Y117.942 E.09457
G1 X133.466 Y117.461 E.02242
G1 X133.566 Y116.918 E.02449
G1 X133.595 Y116.367 E.02447
G1 X133.542 Y115.77 E.02658
G1 X133.436 Y115.277 E.02237
G1 X133.251 Y114.756 E.02452
G1 X133 Y114.265 E.02446
G1 X132.687 Y113.81 E.0245
G1 X132.318 Y113.4 E.02447
G1 X131.898 Y113.042 E.02448
G1 X131.435 Y112.741 E.02449
G1 X130.936 Y112.504 E.0245
G1 X130.411 Y112.334 E.02448
G1 X129.745 Y112.227 E.02992
G1 X129.226 Y112.211 E.02303
G1 X129.419 Y111.744 E.02241
G1 X129.496 Y111.196 E.02455
G1 X129.496 Y109.06 E.09474
G1 X129.368 Y108.473 E.02665
G1 X129.1 Y108.015 E.02354
G1 X128.783 Y107.734 E.01879
;WIDTH:0.463241
G1 X128.624 Y107.651 E.00892
;WIDTH:0.506482
G1 X128.466 Y107.568 E.00984
;WIDTH:0.549723
G1 X128.307 Y107.485 E.01086
;WIDTH:0.592964
G1 X128.148 Y107.402 E.01182
G1 X127.89 Y107.378 E.01708
;WIDTH:0.570953
G1 X123.706 Y107.378 E.26436
G1 X123.466 Y107.421 E.01541
;WIDTH:0.546466
G1 X123.232 Y107.541 E.01581
;WIDTH:0.50431
G1 X122.997 Y107.661 E.01448
;WIDTH:0.462155
G1 X122.763 Y107.78 E.01302
;WIDTH:0.42
G1 X122.497 Y108.028 E.01613
G1 X122.26 Y108.398 E.01949
G1 X122.145 Y108.742 E.01609
G1 X122.114 Y109.181 E.01952
G1 X122.215 Y109.675 E.02236
G1 X122.358 Y109.935 E.01316
G1 X122.738 Y110.365 E.02545
G1 X126.197 Y112.944 E.19137
G1 X126.681 Y113.182 E.02392
G1 X126.35 Y113.482 E.01981
G1 X125.992 Y113.902 E.02448
G1 X125.691 Y114.365 E.02449
G1 X125.454 Y114.864 E.0245
G1 X125.283 Y115.389 E.02449
G1 X125.242 Y115.183 E.00932
G1 X125.052 Y114.787 E.01948
G1 X124.659 Y114.361 E.02571
G1 X121.129 Y111.856 E.19199
G1 X120.732 Y111.674 E.01937
G1 X120.371 Y111.616 E.01622
G1 X119.931 Y111.685 E.01975
G1 X119.563 Y111.858 E.01804
G1 X119.258 Y112.165 E.01919
G1 X119.078 Y112.474 E.01586
G1 X118.977 Y112.969 E.02241
G1 X118.977 Y115.94 E.13178
G1 X119.073 Y116.404 E.02102
G1 X119.189 Y116.66 E.01247
G1 X119.589 Y117.067 E.02531
G1 X119.869 Y117.201 E.01377
G1 X120.333 Y117.296 E.02101
G1 X123.424 Y117.296 E.1371
G1 X123.95 Y117.267 E.02337
G1 X124.495 Y117.095 E.02535
G1 X124.941 Y116.712 E.02608
G1 X125.155 Y116.393 E.01704
G1 X125.199 Y117.033 E.02845
G1 X125.314 Y117.573 E.02449
G1 X125.499 Y118.094 E.02452
G1 X125.75 Y118.585 E.02446
G1 X126.063 Y119.04 E.0245
G1 X126.432 Y119.45 E.02447
G1 X126.852 Y119.808 E.02448
G1 X127.315 Y120.109 E.02449
G1 X127.814 Y120.346 E.0245
G1 X128.339 Y120.516 E.02448
G1 X128.882 Y120.616 E.02449
G1 X129.433 Y120.645 E.02447
G1 X129.983 Y120.601 E.02447
G1 X130.523 Y120.486 E.02449
G1 X131.044 Y120.301 E.02452
G1 X131.511 Y120.064 E.02323
G1 X129.69 Y122.212 E.1249
G1 X129.366 Y122.5 E.01923
G1 X129.521 Y122.839 F7800
G1 F1800
G1 X129.05 Y123.056 E.023
G1 X128.491 Y123.134 E.02503
G1 X101.505 Y123.134 E1.19696
G1 X100.961 Y123.058 E.02436
G1 X100.487 Y122.845 E.02305
G1 X100.063 Y122.475 E.02496
G1 X98.198 Y120.275 E.12793
;WIDTH:0.453836
G1 X98.094 Y120.126 E.00883
;WIDTH:0.487672
G1 X97.99 Y119.977 E.00959
;WIDTH:0.521508
G1 X97.886 Y119.828 E.01036
G1 X97.524 Y119.429 E.03072
;WIDTH:0.506168
G1 X96.932 Y118.714 E.05115
G1 X96.729 Y118.508 E.01594
;WIDTH:0.463084
G1 X96.527 Y118.303 E.01431
;WIDTH:0.42
G1 X95.065 Y116.578 E.1003
G1 X94.793 Y116.168 E.02182
G1 X94.639 Y115.823 E.01676
G1 X94.566 Y115.282 E.02421
G1 X94.566 Y108.129 E.31727
G1 X94.62 Y107.759 E.01659
G1 X94.779 Y107.523 E.01262
G1 X95.861 Y106.441 E.06787
G1 X134.139 Y106.441 E1.69781
G1 X135.157 Y107.459 E.06386
G1 X135.38 Y107.759 E.01658
G1 X135.434 Y108.129 E.01659
G1 X135.434 Y115.005 E.30498
G1 X135.417 Y115.548 E.0241
G1 X135.261 Y116.082 E.02468
G1 X134.977 Y116.528 E.02345
G1 X133.552 Y118.208 E.09771
;WIDTH:0.460174
G1 X133.359 Y118.404 E.01358
;WIDTH:0.500349
G1 X133.166 Y118.601 E.015
G1 X132.822 Y119.019 E.02944
;WIDTH:0.484154
G1 X132.475 Y119.429 E.02812
;WIDTH:0.520535
G1 X132.113 Y119.827 E.03061
G1 X132.009 Y119.976 E.01034
;WIDTH:0.487023
G1 X131.904 Y120.125 E.00961
;WIDTH:0.453511
G1 X131.8 Y120.273 E.00878
;WIDTH:0.42
G1 X129.945 Y122.461 E.12723
G1 X129.574 Y122.791 E.02202
G1 X129.697 Y123.144 F7800
;TYPE:External perimeter
G1 F1800
G1 X129.139 Y123.402 E.02727
G1 X128.516 Y123.49 E.02791
G1 X101.48 Y123.49 E1.19918
G1 X100.861 Y123.403 E.02773
G1 X100.48 Y123.232 E.01852
G1 X100.152 Y123.039 E.01688
G1 X99.799 Y122.714 E.02128
G1 X94.794 Y116.808 E.34337
G1 X94.494 Y116.36 E.02391
G1 X94.292 Y115.909 E.02192
G1 X94.21 Y115.306 E.02699
G1 X94.21 Y108.129 E.31833
G1 X94.285 Y107.62 E.02282
G1 X94.503 Y107.296 E.01732
G1 X95.714 Y106.085 E.07596
G1 X134.286 Y106.085 E1.71085
G1 X135.408 Y107.207 E.07038
G1 X135.715 Y107.62 E.02283
G1 X135.79 Y108.129 E.02282
G1 X135.79 Y115.005 E.30498
G1 X135.77 Y115.61 E.02685
G1 X135.588 Y116.23 E.02866
G1 X135.264 Y116.739 E.02676
G1 X130.2 Y122.71 E.34726
G1 X129.757 Y123.105 E.02633
G1 X129.325 Y123.315 F7800
G10 ; retract
G1 X122.696 Y108.356
G11 ; unretract
;TYPE:Perimeter
G1 F1800
G1 X122.74 Y108.288 E.00359
G1 X123.006 Y108.04 E.01613
G1 X123.234 Y107.915 E.01153
G1 X123.706 Y107.809 E.02146
G1 X127.89 Y107.809 E.18558
G1 X128.421 Y107.937 E.02423
G1 X128.719 Y108.133 E.01582
G1 X128.934 Y108.383 E.01463
G1 X129.025 Y108.567 E.0091
G1 X129.141 Y109.06 E.02246
G1 X129.141 Y111.196 E.09474
G1 X129.083 Y111.628 E.01933
G1 X128.944 Y111.992 E.01728
;WIDTH:0.446125
G1 X128.565 Y112.539 E.03169
G1 X128.472 Y112.63 E.0062
G1 X129.016 Y112.581 E.02601
;WIDTH:0.42
G1 X129.726 Y112.582 E.03149
G1 X130.342 Y112.683 E.02769
G1 X130.822 Y112.841 E.02241
G1 X131.277 Y113.06 E.0224
G1 X131.7 Y113.337 E.02243
G1 X132.083 Y113.667 E.02242
G1 X132.42 Y114.044 E.02243
G1 X132.705 Y114.462 E.02244
G1 X132.932 Y114.914 E.02243
G1 X133.099 Y115.391 E.02242
G1 X133.202 Y115.886 E.02243
G1 X133.24 Y116.39 E.02242
G1 X133.211 Y116.895 E.02244
G1 X133.117 Y117.392 E.02244
G1 X132.959 Y117.872 E.02241
;WIDTH:0.460174
G1 X132.867 Y118.108 E.0125
;WIDTH:0.500349
G1 X132.776 Y118.345 E.0138
G1 X132.489 Y118.768 E.0278
;WIDTH:0.484154
G1 X132.157 Y119.154 E.02666
;WIDTH:0.520535
G1 X131.789 Y119.508 E.02905
G1 X131.638 Y119.59 E.00978
;WIDTH:0.487023
G1 X131.488 Y119.672 E.00901
;WIDTH:0.453511
G1 X131.338 Y119.755 E.00832
;WIDTH:0.42
G1 X130.886 Y119.982 E.02243
G1 X130.409 Y120.149 E.02242
G1 X129.914 Y120.252 E.02243
G1 X129.41 Y120.29 E.02242
G1 X128.905 Y120.261 E.02244
G1 X128.408 Y120.167 E.02244
G1 X127.928 Y120.009 E.02241
G1 X127.473 Y119.79 E.0224
G1 X127.05 Y119.513 E.02243
G1 X126.667 Y119.183 E.02242
G1 X126.33 Y118.806 E.02243
G1 X126.045 Y118.388 E.02244
G1 X125.818 Y117.936 E.02243
G1 X125.651 Y117.459 E.02242
G1 X125.548 Y116.964 E.02243
G1 X125.51 Y116.46 E.02242
;WIDTH:0.458387
G1 X125.5 Y116.29 E.00837
;WIDTH:0.496775
G1 X125.491 Y116.121 E.00913
;WIDTH:0.535163
G1 X125.481 Y115.951 E.01
G1 X125.532 Y115.787 E.01008
;WIDTH:0.496775
G1 X125.582 Y115.623 E.00925
;WIDTH:0.458387
G1 X125.633 Y115.458 E.00849
;WIDTH:0.42
G1 X125.791 Y114.978 E.02241
G1 X126.01 Y114.523 E.0224
G1 X126.287 Y114.1 E.02243
G1 X126.617 Y113.717 E.02242
G1 X126.994 Y113.38 E.02243
;WIDTH:0.422268
G1 X127.41 Y113.092 E.02259
;WIDTH:0.452147
G1 X127.446 Y112.997 E.00491
G1 X127.354 Y112.948 E.00504
;WIDTH:0.42
G1 X126.89 Y112.875 E.02083
G1 X126.581 Y112.757 E.01467
G1 X125.987 Y112.35 E.03194
G1 X122.951 Y110.08 E.16814
G1 X122.624 Y109.697 E.02234
G1 X122.528 Y109.475 E.01073
G1 X122.456 Y109.057 E.01881
G1 X122.483 Y108.855 E.00904
G1 X122.597 Y108.51 E.01612
G1 X122.657 Y108.417 E.00491
G1 X122.982 Y108.548 F7800
;TYPE:External perimeter
G1 F1800
G1 X123.324 Y108.259 E.01986
G1 X123.706 Y108.165 E.01745
G1 X127.89 Y108.165 E.18558
G1 X128.302 Y108.272 E.01888
G1 X128.535 Y108.448 E.01295
G1 X128.682 Y108.661 E.01148
G1 X128.785 Y109.06 E.01828
G1 X128.785 Y111.198 E.09483
G1 X128.747 Y111.512 E.01403
