; generated by PrusaSlicer 2.7.0+win64 on 2023-11-27 at 00:38:05 UTC

; 

; external perimeters extrusion width = 0.45mm
; perimeters extrusion width = 0.45mm
; infill extrusion width = 0.45mm
; solid infill extrusion width = 0.45mm
; top infill extrusion width = 0.40mm
; support material extrusion width = 0.35mm
; first layer extrusion width = 0.42mm

M190 S40 ; set bed temperature and wait for it to be reached
M104 S230 ; set temperature
;TYPE:Custom
START_PRINT EXTRUDER_TEMP=230 BED_TEMP=40
M109 S230 ; set temperature and wait for it to be reached
G21 ; set units to millimeters
G90 ; use absolute coordinates
M83 ; use relative distances for extrusion
; Filament gcode
M107
;LAYER_CHANGE
;Z:0.2
;HEIGHT:0.2
;BEFORE_LAYER_CHANGE
G92 E0
;0.2


G10 ; retract
G1 Z.2 F7800
;AFTER_LAYER_CHANGE
;0.2
G1 X103.256 Y101.964
G11 ; unretract
;TYPE:Skirt/Brim
;WIDTH:0.42
G1 F1800
G1 X104.181 Y101.079 E.04014
G1 X105.074 Y100.366 E.03583
G1 X106.141 Y99.661 E.0401
G1 X107.148 Y99.119 E.03586
G1 X108.325 Y98.615 E.04015
G1 X110.056 Y98.085 E.05676
G1 X116.128 Y96.751 E.19492
G1 X117.261 Y96.599 E.03584
G1 X118.54 Y96.543 E.04014
G1 X119.681 Y96.596 E.03581
G1 X120.949 Y96.77 E.04013
G1 X122.063 Y97.026 E.03584
G1 X123.28 Y97.424 E.04015
G1 X124.329 Y97.875 E.0358
G1 X125.455 Y98.483 E.04012
G1 X126.407 Y99.114 E.03581
G1 X127.405 Y99.914 E.0401
G1 X128.229 Y100.704 E.03579
G1 X129.068 Y101.669 E.04009
G1 X129.737 Y102.593 E.03577
G1 X130.39 Y103.692 E.04008
G1 X131.105 Y105.233 E.05326
G1 X134.119 Y113.043 E.26248
G1 X134.465 Y114.101 E.0349
G1 X134.773 Y115.614 E.04841
G1 X134.876 Y117.405 E.05625
G1 X134.8 Y118.516 E.03492
G1 X134.619 Y119.615 E.03492
G1 X134.334 Y120.691 E.0349
G1 X133.947 Y121.734 E.03488
G1 X133.248 Y123.111 E.04842
G1 X132.216 Y124.579 E.05626
G1 X131.467 Y125.402 E.03489
G1 X130.642 Y126.15 E.03492
G1 X129.388 Y127.05 E.0484
G1 X128.416 Y127.592 E.03489
G1 X127.396 Y128.038 E.03491
G1 X126.338 Y128.385 E.03491
G1 X124.576 Y128.726 E.05627
G1 X123.465 Y128.8 E.03491
G1 X105.853 Y128.768 E.55221
G1 X104.337 Y128.549 E.04803
G1 X103.26 Y128.266 E.03491
G1 X102.215 Y127.881 E.03492
G1 X100.622 Y127.056 E.05625
G1 X99.705 Y126.425 E.0349
G1 X98.852 Y125.708 E.03494
G1 X98.072 Y124.914 E.0349
G1 X97.372 Y124.049 E.03489
G1 X96.758 Y123.121 E.03489
G1 X96.235 Y122.138 E.03491
G1 X95.808 Y121.11 E.0349
G1 X95.384 Y119.626 E.04839
G1 X95.201 Y118.528 E.0349
G1 X95.124 Y117.411 E.03511
G1 X95.155 Y116.298 E.03491
G1 X95.291 Y115.2 E.03469
G1 X95.532 Y114.113 E.03491
G1 X95.876 Y113.054 E.03491
G1 X96.32 Y112.033 E.03491
G1 X96.86 Y111.059 E.03492
G1 X102.505 Y102.825 E.31302
G1 X103.217 Y102.009 E.03396
G1 X103.501 Y102.257 F7800
G1 F1800
G1 X103.54 Y102.212 E.00187
G1 X104.416 Y101.374 E.03801
G1 X105.309 Y100.661 E.03583
G1 X106.32 Y99.993 E.03799
G1 X107.327 Y99.451 E.03586
G1 X108.441 Y98.974 E.038
G1 X110.138 Y98.453 E.05566
G1 X116.178 Y97.125 E.1939
G1 X117.311 Y96.973 E.03584
G1 X118.523 Y96.92 E.03804
G1 X119.663 Y96.973 E.03578
G1 X120.864 Y97.138 E.03801
G1 X121.979 Y97.394 E.03587
G1 X123.131 Y97.77 E.038
G1 X124.181 Y98.221 E.03583
G1 X125.246 Y98.798 E.03798
G1 X126.198 Y99.429 E.03581
G1 X127.144 Y100.186 E.03799
G1 X127.967 Y100.976 E.03577
G1 X128.762 Y101.89 E.03798
G1 X129.431 Y102.814 E.03577
G1 X130.05 Y103.855 E.03797
G1 X130.753 Y105.369 E.05234
G1 X133.765 Y113.17 E.26219
G1 X134.099 Y114.194 E.03377
G1 X134.4 Y115.671 E.04726
G1 X134.499 Y117.391 E.05402
G1 X134.427 Y118.466 E.03378
G1 X134.252 Y119.529 E.03378
G1 X133.976 Y120.57 E.03377
G1 X133.603 Y121.58 E.03376
G1 X132.921 Y122.924 E.04726
G1 X131.93 Y124.333 E.05401
G1 X131.205 Y125.13 E.03378
G1 X130.408 Y125.855 E.03378
G1 X129.183 Y126.734 E.04727
G1 X128.242 Y127.257 E.03376
G1 X127.255 Y127.688 E.03377
G1 X126.231 Y128.023 E.03378
G1 X124.54 Y128.351 E.05401
G1 X123.465 Y128.423 E.03378
G1 X105.889 Y128.392 E.55108
G1 X104.408 Y128.179 E.04691
G1 X103.367 Y127.904 E.03376
G1 X102.356 Y127.532 E.03378
G1 X100.827 Y126.74 E.05399
G1 X99.939 Y126.129 E.0338
G1 X99.113 Y125.437 E.03379
G1 X98.358 Y124.668 E.03379
G1 X97.68 Y123.832 E.03375
G1 X97.085 Y122.934 E.03378
G1 X96.579 Y121.983 E.03378
G1 X96.165 Y120.989 E.03376
G1 X95.751 Y119.54 E.04725
G1 X95.575 Y118.477 E.03378
G1 X95.501 Y117.397 E.03394
G1 X95.531 Y116.32 E.03378
G1 X95.664 Y115.257 E.03359
G1 X95.898 Y114.205 E.03379
G1 X96.232 Y113.181 E.03377
G1 X96.662 Y112.194 E.03376
G1 X97.184 Y111.252 E.03377
G1 X102.789 Y103.073 E.31089
G1 X103.461 Y102.302 E.03207
G1 X103.745 Y102.55 F7800
G1 F1800
G1 X103.824 Y102.46 E.00375
G1 X104.651 Y101.669 E.03588
G1 X105.544 Y100.955 E.03585
G1 X106.499 Y100.325 E.03587
G1 X107.505 Y99.783 E.03583
G1 X108.558 Y99.332 E.03592
G1 X110.221 Y98.821 E.05455
G1 X116.228 Y97.499 E.19285
G1 X117.362 Y97.347 E.03587
G1 X118.505 Y97.297 E.03587
G1 X119.646 Y97.35 E.03581
G1 X120.78 Y97.505 E.03589
G1 X121.894 Y97.761 E.03584
G1 X122.982 Y98.117 E.03589
G1 X124.032 Y98.568 E.03583
G1 X125.038 Y99.112 E.03586
G1 X125.99 Y99.743 E.03581
G1 X126.883 Y100.458 E.03587
G1 X127.706 Y101.248 E.03577
G1 X128.457 Y102.111 E.03587
G1 X129.126 Y103.035 E.03577
G1 X129.71 Y104.017 E.03582
G1 X130.401 Y105.504 E.05141
G1 X133.41 Y113.298 E.26195
G1 X133.734 Y114.287 E.03263
G1 X134.028 Y115.729 E.04614
G1 X134.122 Y117.377 E.05176
G1 X133.885 Y119.443 E.0652
G1 X133.258 Y121.426 E.06521
G1 X132.266 Y123.253 E.06518
G1 X131.363 Y124.415 E.04614
G1 X130.633 Y125.157 E.03264
G1 X129.836 Y125.827 E.03265
G1 X128.451 Y126.724 E.05174
G1 X126.537 Y127.539 E.06523
G1 X125.108 Y127.888 E.04612
G1 X124.075 Y128.017 E.03264
G1 X105.925 Y128.017 E.56908
G1 X104.48 Y127.808 E.04578
G1 X102.896 Y127.342 E.05177
G1 X101.941 Y126.927 E.03265
G1 X100.669 Y126.189 E.04611
G1 X99.064 Y124.866 E.06522
G1 X97.74 Y123.263 E.06519
G1 X96.746 Y121.436 E.06521
G1 X96.118 Y119.454 E.06519
G1 X95.948 Y118.426 E.03267
G1 X95.878 Y117.382 E.03281
G1 X96.036 Y115.314 E.06503
G1 X96.587 Y113.308 E.06523
G1 X97.003 Y112.354 E.03263
G1 X97.72 Y111.111 E.04499
G1 X103.073 Y103.321 E.29636
G1 X103.706 Y102.596 E.03018
G10 ; retract
;WIPE_START
G1 F6240
G1 X103.745 Y102.55 E-.03305
G1 X103.824 Y102.46 E-.06563
G1 X104.651 Y101.669 E-.62721
G1 X105.544 Y100.955 E-.62664
G1 X106.499 Y100.325 E-.62705
G1 X107.505 Y99.783 E-.6263
G1 X108.558 Y99.332 E-.62783
G1 X110.221 Y98.821 E-.95351
G1 X111.669 Y98.502 E-.81278
;WIPE_END
G1 X118.845 Y103.697 F7800
G11 ; unretract
;TYPE:Support material
G1 F1800
G1 X119.35 Y103.72 E.01585
G1 X120.465 Y103.976 E.03587
G1 X121.515 Y104.427 E.03583
G1 X122.467 Y105.058 E.03581
G1 X123.29 Y105.849 E.03579
G1 X123.959 Y106.773 E.03577
G1 X124.452 Y107.802 E.03578
G1 X124.754 Y108.902 E.03577
G1 X124.854 Y110.038 E.03576
G1 X124.751 Y111.173 E.03573
G1 X124.396 Y112.375 E.0393
G1 X123.467 Y112.244 E.02942
G1 X122.561 Y112.288 E.02844
G1 X121.31 Y112.637 E.04072
G1 X120.507 Y113.072 E.02863
G1 X119.764 Y113.681 E.03012
G1 X119.131 Y114.456 E.03137
G1 X118.689 Y115.289 E.02957
G1 X118.384 Y116.383 E.03561
G1 X117.006 Y116.23 E.04347
G1 X116.049 Y116.861 E.03594
G1 X115 Y117.309 E.03576
G1 X113.889 Y117.562 E.03573
G1 X112.75 Y117.614 E.03575
G1 X111.672 Y117.468 E.03411
G1 X111.658 Y116.655 E.02549
G1 X111.464 Y115.715 E.03009
G1 X111.102 Y114.848 E.02946
G1 X110.37 Y113.82 E.03957
G1 X109.682 Y113.205 E.02893
G1 X108.708 Y112.644 E.03524
G1 X107.847 Y112.363 E.0284
G1 X106.767 Y112.244 E.03407
G1 X106.692 Y111.831 E.01316
G1 X106.691 Y110.689 E.03581
G1 X106.893 Y109.565 E.03581
G1 X107.293 Y108.495 E.03582
G1 X107.879 Y107.513 E.03586
G1 X108.63 Y106.652 E.03582
G1 X109.523 Y105.939 E.03583
G1 X110.529 Y105.397 E.03583
G1 X111.616 Y105.044 E.03583
G1 X112.749 Y104.89 E.03585
G1 X113.891 Y104.942 E.03584
G1 X114.514 Y105.085 E.02004
G1 X114.981 Y104.713 E.01872
G1 X115.988 Y104.172 E.03584
G1 X117.076 Y103.819 E.03586
G1 X118.21 Y103.667 E.03587
G1 X118.789 Y103.694 E.01817
G1 X124.427 Y111.706 F7800
G1 F1800
G1 X124.418 Y108.963 E.08601
G1 X124.133 Y107.921 E.03387
G1 X123.956 Y107.551 E.01286
G1 X123.956 Y111.947 E.13783
G1 X123.484 Y111.905 E.01486
G1 X123.484 Y106.696 E.16332
G1 X123.013 Y106.053 E.02499
G1 X123.013 Y111.905 E.18349
G1 X122.542 Y111.948 E.01483
G1 X122.542 Y105.601 E.19901
G1 X122.07 Y105.203 E.01936
G1 X122.07 Y112.034 E.21418
G1 X121.599 Y112.165 E.01533
G1 X121.599 Y104.89 E.2281
G1 X121.128 Y104.63 E.01687
G1 X121.128 Y112.346 E.24193
G1 X120.656 Y112.584 E.01657
G1 X120.656 Y104.428 E.25573
G1 X120.185 Y104.26 E.01568
G1 X120.185 Y112.884 E.2704
G1 X119.713 Y113.261 E.01894
G1 X119.713 Y104.152 E.28561
G1 X119.242 Y104.055 E.01508
G1 X119.242 Y113.746 E.30385
G1 X118.771 Y114.397 E.02519
G1 X118.771 Y104.033 E.32496
G1 X118.299 Y104.011 E.01482
G1 X118.299 Y115.369 E.35612
G1 X118.103 Y116.034 E.02174
G1 X117.828 Y115.998 E.0087
G1 X117.828 Y104.061 E.37428
G1 X117.357 Y104.124 E.0149
G1 X117.357 Y115.934 E.37029
G1 X116.885 Y115.903 E.01483
G1 X116.885 Y104.238 E.36575
G1 X116.414 Y104.39 E.01552
G1 X116.414 Y116.214 E.37073
G1 X115.943 Y116.524 E.01768
G1 X115.943 Y104.581 E.37446
G1 X115.471 Y104.835 E.01681
G1 X115.471 Y116.738 E.37321
G1 X115 Y116.94 E.01607
G1 X115 Y105.132 E.37023
G1 X114.598 Y105.452 E.01611
G1 X114.529 Y105.436 E.00222
G1 X114.529 Y117.068 E.36471
G1 X114.057 Y117.176 E.01518
G1 X114.057 Y105.328 E.37149
G1 X113.586 Y105.268 E.01489
G1 X113.586 Y117.236 E.37525
G1 X113.115 Y117.257 E.01478
G1 X113.115 Y105.247 E.37657
G1 X112.643 Y105.247 E.0148
G1 X112.643 Y117.257 E.37657
G1 X112.172 Y117.193 E.0149
G1 X112.172 Y105.311 E.37255
G1 X111.701 Y105.375 E.0149
G1 X111.701 Y115.369 E.31335
G1 X111.229 Y114.397 E.03388
G1 X111.229 Y105.526 E.27814
G1 X110.758 Y105.68 E.01554
G1 X110.758 Y113.746 E.2529
G1 X110.287 Y113.261 E.0212
G1 X110.287 Y105.913 E.23039
G1 X109.815 Y106.167 E.01681
G1 X109.815 Y112.884 E.21061
G1 X109.344 Y112.584 E.01751
G1 X109.344 Y106.516 E.19026
G1 X108.872 Y106.893 E.01894
G1 X108.872 Y112.346 E.17097
G1 X108.401 Y112.165 E.01582
G1 X108.401 Y107.431 E.14843
G1 X107.93 Y108.09 E.0254
G1 X107.93 Y112.034 E.12366
G1 X107.458 Y111.948 E.01504
G1 X107.458 Y108.549 E.10657
G10 ; retract
;WIPE_START
G1 F6240
G1 X107.458 Y111.948 E-1.86291
G1 X107.93 Y112.034 E-.26295
G1 X107.93 Y108.09 E-2.16162
G1 X108.401 Y107.431 E-.44395
G1 X108.401 Y107.921 E-.26857
;WIPE_END
G1 X119.571 Y118.716 F7800
G11 ; unretract
;TYPE:External perimeter
;WIDTH:0.581144
G1 F1800
G1 X119.391 Y118.249 E.0224
;WIDTH:0.579916
G1 X119.254 Y117.495 E.03422
;WIDTH:0.574763
G1 X119.282 Y116.631 E.03823
;WIDTH:0.577122
G1 X119.41 Y116.027 E.02742
G1 X119.515 Y115.745 E.01337
;WIDTH:0.581492
G1 X119.725 Y115.272 E.02318
G1 X120.173 Y114.61 E.0358
;WIDTH:0.580872
G1 X120.724 Y114.063 E.03473
;WIDTH:0.577611
G1 X121.381 Y113.628 E.03503
;WIDTH:0.57038
G1 X122.133 Y113.328 E.03551
;WIDTH:0.58082
G1 X122.683 Y113.208 E.02518
G1 X123.126 Y113.175 E.01987
;WIDTH:0.565043
G1 X123.667 Y113.194 E.0235
;WIDTH:0.580904
G1 X124.174 Y113.276 E.02297
G1 X124.861 Y113.506 E.03241
;WIDTH:0.580135
G1 X125.498 Y113.855 E.03245
;WIDTH:0.575229
G1 X126.172 Y114.438 E.03944
;WIDTH:0.576348
G1 X126.579 Y114.943 E.02877
G1 X126.725 Y115.193 E.01284
;WIDTH:0.580586
G1 X126.961 Y115.666 E.02363
;WIDTH:0.580833
G1 X127.18 Y116.4 E.03426
G1 X127.258 Y117.162 E.03426
;WIDTH:0.577108
G1 X127.187 Y117.934 E.03444
;WIDTH:0.575305
G1 X126.991 Y118.614 E.03133
G1 X126.885 Y118.845 E.01125
;WIDTH:0.580063
G1 X126.647 Y119.298 E.02286
G1 X126.472 Y119.544 E.01348
;WIDTH:0.581099
G1 X126.145 Y119.943 E.02309
G1 X125.566 Y120.444 E.03426
;WIDTH:0.578268
G1 X124.902 Y120.828 E.03414
;WIDTH:0.571548
G1 X124.028 Y121.1 E.04023
;WIDTH:0.566324
G1 X123.203 Y121.175 E.03605
;WIDTH:0.581202
G1 X122.651 Y121.135 E.02477
G1 X121.908 Y120.949 E.03428
;WIDTH:0.579164
G1 X121.212 Y120.627 E.03419
;WIDTH:0.57322
G1 X120.511 Y120.095 E.0388
;WIDTH:0.578866
G1 X120.103 Y119.654 E.02677
G1 X119.926 Y119.4 E.0138
;WIDTH:0.581144
G1 X119.666 Y118.963 E.02276
G1 X119.592 Y118.772 E.00917
G10 ; retract
;WIPE_START
G1 F6240
G1 X119.571 Y118.716 E-.03278
G1 X119.391 Y118.249 E-.27431
;WIPE_END
G1 X121.133 Y114.44 F7800
G11 ; unretract
;WIDTH:0.567662
G1 F1800
G1 X121.532 Y114.145 E.02165
;WIDTH:0.576619
G1 X122.184 Y113.865 E.03149
;WIDTH:0.58082
G1 X122.784 Y113.736 E.02745
G1 X123.414 Y113.697 E.02823
G1 X124.035 Y113.795 E.02812
G1 X124.383 Y113.883 E.01605
;WIDTH:0.565816
G1 X125.057 Y114.199 E.03237
;WIDTH:0.570922
G1 X125.719 Y114.716 E.03688
;WIDTH:0.576348
G1 X126.161 Y115.274 E.03157
;WIDTH:0.580586
G1 X126.458 Y115.853 E.02909
G1 X126.584 Y116.176 E.0155
;WIDTH:0.563548
G1 X126.722 Y116.926 E.03301
;WIDTH:0.56747
G1 X126.687 Y117.731 E.03514
;WIDTH:0.575305
G1 X126.48 Y118.465 E.03376
;WIDTH:0.580063
G1 X126.176 Y119.041 E.02909
G1 X126.004 Y119.301 E.01392
;WIDTH:0.563171
G1 X125.476 Y119.85 E.03295
;WIDTH:0.566553
G1 X124.786 Y120.299 E.03584
;WIDTH:0.573169
G1 X124.052 Y120.562 E.03438
;WIDTH:0.579786
G1 X123.403 Y120.642 E.02919
G1 X123.128 Y120.652 E.01228
;WIDTH:0.562957
G1 X122.373 Y120.542 E.03299
;WIDTH:0.565545
G1 X121.606 Y120.243 E.03577
;WIDTH:0.571513
G1 X120.906 Y119.749 E.03766
;WIDTH:0.578866
G1 X120.499 Y119.294 E.02721
G1 X120.353 Y119.102 E.01075
;WIDTH:0.5631
G1 X120.003 Y118.426 E.03293
;WIDTH:0.564708
G1 X119.799 Y117.628 E.03574
;WIDTH:0.570406
G1 X119.786 Y116.805 E.0361
;WIDTH:0.577122
G1 X119.932 Y116.142 E.03016
;WIDTH:0.581492
G1 X120.19 Y115.543 E.02921
G1 X120.375 Y115.214 E.0169
;WIDTH:0.563281
G1 X120.87 Y114.635 E.03296
;WIDTH:0.567662
G1 X121.085 Y114.476 E.01167
G10 ; retract
;WIPE_START
G1 F6240
G1 X121.133 Y114.44 E-.03288
G1 X121.532 Y114.145 E-.27196
;WIPE_END
G1 X110.754 Y117.132 F7800
G11 ; unretract
;WIDTH:0.580869
G1 F1800
G1 X110.758 Y117.163 E.0014
;WIDTH:0.577146
G1 X110.687 Y117.934 E.03439
;WIDTH:0.575309
G1 X110.491 Y118.614 E.03133
G1 X110.385 Y118.845 E.01125
;WIDTH:0.580064
G1 X110.147 Y119.298 E.02286
G1 X109.972 Y119.544 E.01348
;WIDTH:0.581099
G1 X109.645 Y119.943 E.02309
G1 X109.066 Y120.444 E.03426
;WIDTH:0.578267
G1 X108.402 Y120.828 E.03414
;WIDTH:0.571548
G1 X107.528 Y121.1 E.04023
;WIDTH:0.566324
G1 X106.703 Y121.175 E.03605
;WIDTH:0.581202
G1 X106.151 Y121.135 E.02477
G1 X105.408 Y120.949 E.03428
;WIDTH:0.579164
G1 X104.712 Y120.627 E.03419
;WIDTH:0.573219
G1 X104.011 Y120.095 E.0388
;WIDTH:0.578868
G1 X103.603 Y119.654 E.02677
G1 X103.426 Y119.4 E.0138
;WIDTH:0.581143
G1 X103.166 Y118.963 E.02276
G1 X102.89 Y118.248 E.0343
;WIDTH:0.579896
G1 X102.754 Y117.494 E.03421
;WIDTH:0.574774
G1 X102.782 Y116.631 E.03819
;WIDTH:0.577068
G1 X102.91 Y116.027 E.02742
G1 X103 Y115.78 E.01168
;WIDTH:0.582015
G1 X103.206 Y115.306 E.02317
G1 X103.461 Y114.881 E.02222
;WIDTH:0.570186
G1 X103.978 Y114.277 E.03486
;WIDTH:0.581795
G1 X104.373 Y113.948 E.02303
G1 X104.881 Y113.628 E.0269
;WIDTH:0.570398
G1 X105.633 Y113.328 E.03551
;WIDTH:0.581293
G1 X106.195 Y113.206 E.02574
G1 X106.65 Y113.168 E.02044
;WIDTH:0.577006
G1 X107.317 Y113.207 E.02967
G1 X108.1 Y113.402 E.03583
;WIDTH:0.577993
G1 X108.65 Y113.645 E.02675
G1 X108.915 Y113.804 E.01375
;WIDTH:0.579196
G1 X109.446 Y114.206 E.0297
G1 X109.797 Y114.569 E.02252
;WIDTH:0.579029
G1 X110.225 Y115.193 E.03373
;WIDTH:0.580598
G1 X110.461 Y115.666 E.02363
;WIDTH:0.580869
G1 X110.68 Y116.4 E.03426
G1 X110.748 Y117.072 E.03021
G10 ; retract
;WIPE_START
G1 F6240
G1 X110.754 Y117.132 E-.03305
G1 X110.758 Y117.163 E-.01713
;WIPE_END
G1 X103.949 Y119.228 F7800
G11 ; unretract
;WIDTH:0.578868
G1 F1800
G1 X103.853 Y119.102 E.00706
;WIDTH:0.563099
G1 X103.503 Y118.426 E.03293
;WIDTH:0.564695
G1 X103.299 Y117.628 E.03574
;WIDTH:0.570359
G1 X103.286 Y116.805 E.0361
;WIDTH:0.577068
G1 X103.432 Y116.141 E.0302
;WIDTH:0.582015
G1 X103.696 Y115.53 E.02984
G1 X103.872 Y115.212 E.01629
;WIDTH:0.570186
G1 X104.367 Y114.633 E.0334
G1 X105.031 Y114.145 E.03613
;WIDTH:0.576608
G1 X105.684 Y113.865 E.03153
;WIDTH:0.581293
G1 X106.296 Y113.734 E.02802
G1 X106.632 Y113.693 E.01515
;WIDTH:0.577006
G1 X107.203 Y113.728 E.02541
G1 X107.825 Y113.861 E.02825
;WIDTH:0.577993
