; generated by PrusaSlicer 2.7.2+win64 on 2024-03-01 at 00:01:54 UTC

; 

; external perimeters extrusion width = 0.45mm
; perimeters extrusion width = 0.45mm
; infill extrusion width = 0.45mm
; solid infill extrusion width = 0.45mm
; top infill extrusion width = 0.40mm
; support material extrusion width = 0.35mm
; first layer extrusion width = 0.42mm

M73 P0 R46
M190 S50 ; set bed temperature and wait for it to be reached
M104 S230 ; set temperature
;TYPE:Custom
START_PRINT EXTRUDER_TEMP=230 BED_TEMP=50 Z_OFFSET=0.1
M109 S230 ; set temperature and wait for it to be reached
G21 ; set units to millimeters
G90 ; use absolute coordinates
M83 ; use relative distances for extrusion
; Filament gcode
M107
;LAYER_CHANGE
;Z:0.3
;HEIGHT:0.3
G10 ; retract
G1 Z.3 F3000
G1 X94.006 Y107.808
G11 ; unretract
;TYPE:Skirt/Brim
;WIDTH:0.42
G1 F1800
G1 X110.042 Y94.01 E.93833
G1 X112.072 Y92.787 E.10512
G1 X113.747 Y92.358 E.07669
G1 X117.311 Y91.898 E.15939
G1 X118.886 Y91.871 E.06987
G1 X120.364 Y92.012 E.06585
G1 X122.077 Y92.326 E.07725
G1 X124.298 Y93.201 E.10588
G1 X129.65 Y96.48 E.2784
G1 X130.773 Y97.31 E.06194
G1 X143.178 Y107.94 E.7246
G1 X143.9 Y108.672 E.0456
G1 X144.499 Y109.433 E.04296
G1 X145.082 Y110.373 E.04906
G1 X145.49 Y111.228 E.04202
G1 X146.068 Y113.183 E.09042
G1 X146.225 Y115.181 E.08889
G1 X146.077 Y116.672 E.06646
G1 X145.893 Y117.469 E.03628
G1 X145.325 Y119.032 E.07376
G1 X144.236 Y120.751 E.09026
G1 X143.627 Y121.523 E.04361
G1 X130.885 Y135.545 E.84037
G1 X129.948 Y136.406 E.05644
G1 X124.362 Y140.677 E.31189
G1 X123.116 Y141.491 E.06601
G1 X120.615 Y142.448 E.11878
G1 X119.741 Y142.602 E.03936
G1 X117.26 Y142.599 E.11004
G1 X116.4 Y142.444 E.03876
G1 X114.728 Y141.922 E.07769
G1 X113.05 Y140.961 E.08577
G1 X105.514 Y134.528 E.43948
G1 X93.281 Y121.4 E.79591
G1 X92.533 Y120.474 E.0528
G1 X92.029 Y119.677 E.04183
G1 X91.575 Y118.758 E.04546
G1 X91.057 Y117.163 E.07438
G1 X90.902 Y116.366 E.03601
G1 X90.824 Y114.774 E.0707
G1 X90.881 Y113.895 E.03907
G1 X91.319 Y111.825 E.09385
G1 X92.214 Y109.943 E.09243
G1 X93.364 Y108.436 E.08408
G1 X93.955 Y107.858 E.03667
G1 X93.955 Y107.858 F3000
G1 X94.203 Y108.112
G1 F1800
G1 X94.238 Y108.078 E.00216
G1 X110.274 Y94.279 E.93836
G1 X112.257 Y93.097 E.1024
G1 X113.792 Y92.711 E.0702
G1 X117.356 Y92.25 E.1594
G1 X118.853 Y92.225 E.06641
G1 X120.331 Y92.366 E.06585
G1 X122.004 Y92.674 E.07545
G1 X124.114 Y93.506 E.1006
G1 X129.445 Y96.77 E.27726
G1 X130.541 Y97.58 E.06045
G1 X142.943 Y108.207 E.72441
G1 X143.635 Y108.909 E.04372
G1 X144.211 Y109.642 E.04135
G1 X144.772 Y110.548 E.04727
G1 X145.159 Y111.359 E.03986
G1 X145.72 Y113.256 E.08774
G1 X145.869 Y115.184 E.08577
G1 X145.728 Y116.599 E.06307
G1 X145.547 Y117.388 E.0359
G1 X145.007 Y118.874 E.07013
G1 X143.942 Y120.55 E.08808
G1 X143.364 Y121.284 E.04144
G1 X130.622 Y135.306 E.84037
G1 X129.732 Y136.123 E.05359
G1 X124.146 Y140.395 E.31192
G1 X122.928 Y141.189 E.06449
G1 X120.553 Y142.098 E.11279
G1 X119.679 Y142.252 E.03936
G1 X117.323 Y142.249 E.1045
G1 X116.463 Y142.094 E.03876
G1 X114.875 Y141.599 E.07378
G1 X113.266 Y140.678 E.08223
G1 X105.774 Y134.285 E.43685
G1 X92.99 Y120.492 E.83415
G1 X92.336 Y119.496 E.05285
G1 X91.765 Y118.282 E.05951
G1 X91.26 Y116.351 E.08853
G1 X91.179 Y114.797 E.06902
G1 X91.236 Y113.917 E.03911
G1 X91.658 Y111.932 E.09001
G1 X92.521 Y110.121 E.08898
G1 X93.629 Y108.674 E.08084
G1 X94.152 Y108.163 E.03243
G1 X94.152 Y108.163 F3000
G1 X94.412 Y108.463
G1 F1800
G1 X110.506 Y94.549 E.94364
G1 X112.441 Y93.408 E.09964
G1 X113.838 Y93.063 E.06383
G1 X117.402 Y92.603 E.15939
G1 X118.819 Y92.579 E.06286
G1 X120.297 Y92.72 E.06585
G1 X121.932 Y93.022 E.07375
G1 X123.929 Y93.81 E.09522
G1 X129.24 Y97.061 E.2762
G1 X130.31 Y97.85 E.05897
G1 X142.708 Y108.474 E.72419
G1 X143.37 Y109.146 E.04184
G1 X143.923 Y109.851 E.03974
G1 X144.462 Y110.722 E.04543
G1 X144.829 Y111.491 E.03779
G1 X145.372 Y113.33 E.08505
G1 X145.514 Y115.189 E.0827
G1 X145.336 Y116.731 E.06885
G1 X144.71 Y118.673 E.0905
G1 X143.649 Y120.35 E.08802
G1 X143.101 Y121.045 E.03926
G1 X130.359 Y135.066 E.84034
G1 X129.516 Y135.841 E.05079
G1 X123.93 Y140.112 E.31189
G1 X122.74 Y140.887 E.06299
G1 X120.491 Y141.747 E.1068
G1 X119.617 Y141.902 E.03937
G1 X117.386 Y141.899 E.09896
G1 X116.526 Y141.744 E.03876
G1 X115.022 Y141.275 E.06988
G1 X113.482 Y140.396 E.07865
G1 X106.035 Y134.043 E.43418
G1 X93.27 Y120.274 E.8328
G1 X92.642 Y119.316 E.05081
G1 X92.095 Y118.148 E.05721
G1 X91.611 Y116.294 E.08499
G1 X91.534 Y114.82 E.06547
G1 X91.591 Y113.94 E.03911
G1 X91.997 Y112.039 E.08622
G1 X92.829 Y110.299 E.08555
G1 X93.893 Y108.912 E.07754
G1 X94.357 Y108.51 E.02723
G10 ; retract
G1 X94.357 Y108.51 F3000
G1 X127.038 Y121.558
G11 ; unretract
;TYPE:Support material
G1 F1800
G1 X127.375 Y121.706 E.01633
G1 X128.067 Y122.235 E.03863
G1 X128.57 Y122.787 E.03312
G1 X129.609 Y124.991 E.10808
G1 X128.233 Y126.851 E.10262
G1 X125.655 Y130.792 E.20888
G1 X122.738 Y130.074 E.13324
G1 X122.675 Y129.975 E.0052
G1 X122.462 Y129.975 E.00945
G1 X121.685 Y129.339 E.04454
G1 X120.928 Y128.493 E.05035
G1 X120.52 Y126.636 E.08433
G1 X122.404 Y123.699 E.15477
G1 X124.729 Y120.542 E.1739
G1 X126.99 Y121.537 E.10957
G1 X126.99 Y121.537 F3000
G1 X129.184 Y125.296
G1 F1800
G1 X129.184 Y124.841 E.02018
G1 X128.789 Y124.003 E.04109
G1 X128.789 Y125.561 E.0691
G1 X128.394 Y126.096 E.0295
G1 X128.394 Y123.164 E.13005
G1 X127.999 Y122.635 E.02928
G1 X127.999 Y126.631 E.17724
G1 X127.603 Y127.219 E.03144
G1 X127.603 Y122.289 E.21867
G1 X127.208 Y121.983 E.02216
G1 X127.208 Y127.81 E.25846
G1 X126.813 Y128.409 E.03183
G1 X126.813 Y121.809 E.29274
G1 X126.418 Y121.635 E.01914
G1 X126.418 Y129.021 E.3276
G1 X126.023 Y129.633 E.03231
G1 X126.023 Y121.461 E.36247
G1 X125.628 Y121.287 E.01914
G1 X125.628 Y130.245 E.39733
G1 X125.51 Y130.427 E.00962
G1 X125.233 Y130.359 E.01265
G1 X125.233 Y121.113 E.4101
G1 X124.838 Y120.939 E.01914
G1 X124.837 Y130.263 E.41356
G1 X124.442 Y130.166 E.01804
G1 X124.442 Y121.457 E.38629
G1 X124.047 Y121.984 E.02921
G1 X124.047 Y130.07 E.35865
G1 X123.652 Y129.973 E.01804
G1 X123.652 Y122.511 E.33098
G1 X123.257 Y123.052 E.02971
G1 X123.257 Y129.874 E.30259
G1 X122.94 Y129.795 E.01449
G1 X122.862 Y129.671 E.0065
G1 X122.862 Y123.607 E.26897
G1 X122.467 Y124.192 E.03131
G1 X122.467 Y129.568 E.23845
G1 X122.072 Y129.249 E.02252
G1 X122.072 Y124.809 E.19694
G1 X121.676 Y125.42 E.03229
G1 X121.676 Y128.849 E.15209
G1 X121.281 Y128.408 E.02626
G1 X121.281 Y126.042 E.10494
G1 X120.886 Y126.658 E.03246
G1 X120.886 Y127.556 E.03983
G10 ; retract
G1 X120.886 Y127.556 F3000
G1 X113.265 Y121.816
G11 ; unretract
G1 F1800
G1 X114.971 Y124.158 E.12852
G1 X116.013 Y125.801 E.0863
G1 X115.213 Y128.155 E.11028
G1 X113.045 Y129.549 E.11432
G1 X110.684 Y129.71 E.10496
G1 X108.722 Y126.74 E.15788
G1 X107.06 Y124.553 E.12184
G1 X107.398 Y122.618 E.08713
G1 X108.173 Y121.399 E.06407
G1 X111.343 Y119.34 E.16766
G1 X113.233 Y121.774 E.13669
G1 X113.233 Y121.774 F3000
G1 X115.354 Y127.251
G1 F1800
G1 X115.354 Y125.39 E.08254
G1 X114.959 Y124.797 E.0316
G1 X114.959 Y127.91 E.13808
G1 X114.564 Y128.196 E.02163
M73 P1 R46
G1 X114.564 Y124.141 E.17986
G1 X114.169 Y123.596 E.02985
G1 X114.169 Y128.452 E.21539
G1 X113.774 Y128.703 E.02076
G1 X113.774 Y123.052 E.25065
G1 X113.379 Y122.507 E.02985
G1 X113.379 Y128.956 E.28604
G1 X112.984 Y129.209 E.02081
G1 X112.984 Y121.975 E.32086
G1 X112.588 Y121.466 E.0286
G1 X112.588 Y129.26 E.3457
G1 X112.193 Y129.286 E.01756
G1 X112.193 Y120.957 E.36943
G1 X111.798 Y120.448 E.02858
G1 X111.798 Y129.313 E.39321
G1 X111.403 Y129.34 E.01756
G1 X111.403 Y119.939 E.41698
G1 X111.272 Y119.769 E.00952
G1 X111.008 Y119.942 E.014
G1 X111.008 Y129.367 E.41804
G1 X110.85 Y129.378 E.00703
G1 X110.613 Y129.014 E.01927
G1 X110.613 Y120.201 E.3909
G1 X110.218 Y120.46 E.02095
G1 X110.218 Y128.408 E.35253
G1 X109.822 Y127.82 E.03144
G1 X109.822 Y120.719 E.31496
G1 X109.427 Y120.979 E.02097
G1 X109.427 Y127.22 E.27682
G1 X109.032 Y126.629 E.03153
G1 X109.032 Y121.234 E.23929
G1 X108.637 Y121.484 E.02073
G1 X108.637 Y126.08 E.20385
G1 X108.242 Y125.544 E.02953
G1 X108.242 Y121.932 E.16021
G1 X107.847 Y122.534 E.03194
G1 X107.847 Y125.039 E.11111
G1 X107.452 Y124.534 E.02844
G1 X107.452 Y123.24 E.0574
G10 ; retract
G1 X107.452 Y123.24 F3000
G1 X118.936 Y98.976
G11 ; unretract
G1 F1800
G1 X120.632 Y99.243 E.07615
G1 X122.141 Y100.455 E.08585
G1 X122.18 Y100.745 E.01298
G1 X123.22 Y101.076 E.04841
G1 X124.575 Y101.67 E.06562
G1 X125.576 Y102.254 E.0514
G1 X126.176 Y102.677 E.03256
G1 X128.009 Y104.417 E.1121
G1 X128.417 Y106.52 E.09502
G1 X127.348 Y108.097 E.0845
G1 X125.897 Y109.33 E.08446
G1 X124.223 Y109.926 E.07882
G1 X123.007 Y109.877 E.05398
G1 X121.973 Y109.514 E.04861
G1 X120.787 Y108.84 E.06051
G1 X120.065 Y108.606 E.03366
G1 X118.851 Y108.419 E.05448
G1 X118.309 Y108.167 E.02651
G1 X118.102 Y108.162 E.00918
G1 X117.817 Y108.464 E.01842
G1 X115.811 Y108.892 E.09098
G1 X115.54 Y109.138 E.01623
G1 X114.12 Y109.701 E.06775
G1 X113.44 Y109.812 E.03056
G1 X112.23 Y109.828 E.05367
G1 X111.391 Y109.598 E.03859
G1 X110.144 Y108.921 E.06294
G1 X110.001 Y108.758 E.00962
G1 X109.388 Y108.492 E.02964
G1 X108.796 Y107.027 E.07008
G1 X108.649 Y106.369 E.0299
G1 X108.735 Y105.027 E.05965
G1 X109.52 Y103.982 E.05797
G1 X110 Y103.478 E.03087
G1 X110.883 Y102.649 E.05372
G1 X112.19 Y101.811 E.06886
G1 X113.541 Y101.158 E.06656
G1 X114.693 Y100.798 E.05353
G1 X114.652 Y99.366 E.06354
G1 X118.216 Y98.906 E.15939
G1 X118.883 Y98.971 E.02972
G1 X118.883 Y98.971 F3000
G1 X127.999 Y106.853
G1 F1800
G1 X127.999 Y106.043 E.03593
G1 X127.716 Y104.586 E.06583
G1 X127.603 Y104.488 E.00663
G1 X127.603 Y107.15 E.11807
G1 X127.208 Y107.733 E.03124
G1 X127.208 Y104.143 E.15923
G1 X126.813 Y103.756 E.02453
G1 X126.813 Y108.137 E.19432
G1 X126.418 Y108.484 E.02332
G1 X126.418 Y103.381 E.22634
G1 X126.023 Y102.982 E.0249
G1 X126.023 Y108.826 E.25921
G1 X125.628 Y109.083 E.0209
G1 X125.628 Y102.715 E.28245
G1 X125.233 Y102.432 E.02155
G1 X125.233 Y109.215 E.30086
G1 X124.838 Y109.354 E.01857
G1 X124.838 Y102.184 E.31802
G1 X124.442 Y101.962 E.02014
G1 X124.442 Y109.502 E.33444
G1 X124.047 Y109.587 E.01792
G1 X124.047 Y101.791 E.34579
G1 X123.652 Y101.618 E.01913
G1 X123.652 Y109.549 E.35178
G1 X123.257 Y109.551 E.01752
G1 X123.257 Y101.443 E.35963
G1 X122.862 Y101.298 E.01866
G1 X122.862 Y109.487 E.36322
G1 X122.467 Y109.348 E.01857
G1 X122.467 Y101.172 E.36264
G1 X122.072 Y101.046 E.01839
G1 X122.072 Y109.194 E.3614
G1 X121.676 Y108.976 E.02005
G1 X121.676 Y100.493 E.37626
G1 X121.281 Y100.176 E.02246
G1 X121.281 Y108.721 E.37901
G1 X120.886 Y108.535 E.01937
M73 P1 R45
G1 X120.886 Y99.858 E.38487
G1 X120.491 Y99.541 E.02246
G1 X120.491 Y108.427 E.39414
G1 X120.096 Y108.287 E.01859
G1 X120.096 Y99.458 E.39161
G1 X119.701 Y99.376 E.01789
G1 X119.701 Y108.226 E.39254
G1 X119.306 Y108.165 E.01773
G1 X119.306 Y99.343 E.3913
G1 X118.911 Y99.298 E.01763
G1 X118.911 Y108.089 E.38992
G1 X118.515 Y107.888 E.0197
G1 X118.515 Y99.257 E.38283
G1 X118.12 Y99.245 E.01753
G1 X118.12 Y107.842 E.38132
G1 X117.967 Y107.839 E.00679
G1 X117.725 Y108.095 E.01563
G1 X117.725 Y99.305 E.38988
G1 X117.33 Y99.349 E.01763
G1 X117.33 Y108.224 E.39365
G1 X116.935 Y108.294 E.01779
G1 X116.935 Y99.4 E.39449
G1 X116.54 Y99.45 E.01766
G1 X116.54 Y108.415 E.39764
G1 X116.145 Y108.532 E.01827
G1 X116.145 Y99.5 E.40061
G1 X115.749 Y99.55 E.0177
G1 X115.749 Y108.577 E.40039
G1 X115.354 Y108.867 E.02173
G1 X115.354 Y99.6 E.41104
G1 X114.98 Y99.647 E.01672
G1 X114.959 Y109.024 E.41592
G1 X114.564 Y109.181 E.01885
G1 X114.564 Y101.16 E.35577
G1 X114.169 Y101.273 E.01822
G1 X114.169 Y109.337 E.35768
G1 X113.774 Y109.433 E.01803
G1 X113.774 Y101.414 E.35568
G1 X113.379 Y101.611 E.01958
G1 X113.379 Y109.488 E.34938
G1 X112.984 Y109.464 E.01755
G1 X112.984 Y101.795 E.34016
G1 X112.588 Y101.97 E.0192
G1 X112.588 Y109.475 E.33288
G1 X112.193 Y109.486 E.01753
G1 X112.193 Y102.204 E.32299
G1 X111.798 Y102.428 E.02014
G1 X111.798 Y109.377 E.30822
G1 X111.403 Y109.242 E.01852
G1 X111.403 Y102.724 E.2891
G1 X111.008 Y102.971 E.02066
G1 X111.008 Y109.054 E.26981
G1 X110.613 Y108.825 E.02025
G1 X110.613 Y103.362 E.24231
G1 X110.218 Y103.716 E.02353
G1 X110.218 Y108.519 E.21304
G1 X109.822 Y108.331 E.01944
G1 X109.822 Y104.128 E.18642
G1 X109.427 Y104.639 E.02865
G1 X109.427 Y107.699 E.13573
G1 X109.032 Y106.617 E.05109
G1 X109.032 Y104.898 E.07625
G10 ; retract
G1 X109.032 Y104.898 F3000
G1 X135.975 Y115.969
G11 ; unretract
;TYPE:External perimeter
;WIDTH:0.57542
G1 F1800
G1 X135.914 Y115.948 E.00411
G1 X135.649 Y115.538 E.03112
;WIDTH:0.561883
G1 X135.548 Y114.98 E.03519
G1 X135.558 Y114.779 E.01249
;WIDTH:0.556606
G1 X135.73 Y114.251 E.03409
;WIDTH:0.574684
G1 X135.874 Y114.062 E.01512
G1 X135.965 Y114.008 E.00673
;WIDTH:0.536013
G1 X136.055 Y113.953 E.0062
;WIDTH:0.497342
G1 X136.145 Y113.899 E.00567
;WIDTH:0.458671
G1 X136.235 Y113.845 E.00516
;WIDTH:0.42
G1 X136.494 Y113.755 E.01216
;WIDTH:0.463087
G1 X136.579 Y113.713 E.00471
;WIDTH:0.506174
G1 X136.664 Y113.671 E.00522
;WIDTH:0.549261
G1 X136.749 Y113.628 E.00576
;WIDTH:0.592348
G1 X136.834 Y113.586 E.00624
G1 X137.216 Y113.617 E.02524
;WIDTH:0.583588
G1 X137.57 Y113.767 E.0249
;WIDTH:0.56533
G1 X137.943 Y114.085 E.03063
;WIDTH:0.541616
G1 X138.162 Y114.464 E.02605
;WIDTH:0.530966
G1 X138.253 Y114.982 E.03061
;WIDTH:0.520376
G1 X138.162 Y115.487 E.02918
;WIDTH:0.52103
G1 X137.861 Y115.933 E.03065
;WIDTH:0.565459
G1 X137.547 Y116.188 E.02528
;WIDTH:0.586519
G1 X136.89 Y116.355 E.04415
G1 X136.765 Y116.295 E.00903
;WIDTH:0.544889
G1 X136.639 Y116.236 E.00834
;WIDTH:0.503259
G1 X136.513 Y116.176 E.00764
;WIDTH:0.461629
G1 X136.387 Y116.116 E.00691
;WIDTH:0.458855
G1 X136.269 Y116.074 E.00616
;WIDTH:0.49771
G1 X136.151 Y116.032 E.00677
;WIDTH:0.536565
G1 X136.043 Y115.993 E.00676
G1 X135.722 Y115.636 F3000
G10 ; retract
G1 X133.561 Y117.542
G11 ; unretract
;WIDTH:0.752901
G1 F1800
G1 X133.787 Y117.472 E.02032
G10 ; retract
G1 X133.787 Y117.472 F3000
G1 X135.515 Y113.415
G11 ; unretract
;WIDTH:0.433676
G1 F1800
G1 X135.441 Y113.181 E.0113
;WIDTH:0.418867
G1 X135.294 Y113.082 E.00784
;WIDTH:0.419202
G1 X133.821 Y112.972 E.06537
G1 X133.415 Y112.897 E.01827
;WIDTH:0.410127
G1 X133.413 Y112.612 E.01229
;WIDTH:0.419202
G1 X133.849 Y112.618 E.0193
G1 X135.319 Y112.735 E.06526
;WIDTH:0.414201
G1 X135.491 Y112.752 E.00754
;WIDTH:0.42
G1 X136.121 Y112.876 E.02848
;WIDTH:0.466323
G1 X136.37 Y112.936 E.01284
;WIDTH:0.512647
G1 X136.62 Y112.996 E.01437
;WIDTH:0.548083
G1 X136.911 Y113.041 E.01776
;WIDTH:0.58352
G1 X137.202 Y113.086 E.01907
G1 X137.689 Y113.247 E.03321
;WIDTH:0.576511
G1 X137.87 Y113.366 E.01384
;WIDTH:0.565319
G1 X138.241 Y113.688 E.03069
;WIDTH:0.553062
G1 X138.548 Y114.164 E.03452
;WIDTH:0.536609
G1 X138.687 Y114.721 E.03381
;WIDTH:0.534288
G1 X138.701 Y115.02 E.01754
;WIDTH:0.516985
G1 X138.615 Y115.544 E.02998
;WIDTH:0.518248
G1 X138.516 Y115.78 E.01449
;WIDTH:0.55281
G1 X138.072 Y116.401 E.04651
G1 X137.837 Y116.586 E.01822
;WIDTH:0.595488
G1 X137.358 Y116.791 E.03451
G1 X136.997 Y116.866 E.02442
;WIDTH:0.586519
G1 X136.894 Y116.902 E.00711
;WIDTH:0.552476
G1 X136.791 Y116.937 E.00662
;WIDTH:0.518433
G1 X136.689 Y116.973 E.00613
;WIDTH:0.48439
G1 X136.404 Y117.04 E.01534
;WIDTH:0.452195
G1 X136.119 Y117.107 E.01416
;WIDTH:0.42
G1 X135.61 Y117.212 E.02305
;WIDTH:0.41716
G1 X134.87 Y117.366 E.03326
;WIDTH:0.425351
G1 X134.293 Y117.51 E.02677
;WIDTH:0.472143
G1 X134.221 Y117.504 E.00367
;WIDTH:0.518936
G1 X134.148 Y117.499 E.00415
;WIDTH:0.565729
G1 X134.076 Y117.494 E.00451
;WIDTH:0.612522
G1 X134.004 Y117.488 E.00494
;WIDTH:0.659315
G1 X133.932 Y117.483 E.00536
;WIDTH:0.706108
G1 X133.86 Y117.478 E.00578
;WIDTH:0.752901
G1 X133.787 Y117.472 E.00629
G1 X133.848 Y117.427 E.00651
;WIDTH:0.706108
G1 X133.908 Y117.383 E.00596
;WIDTH:0.659315
G1 X133.968 Y117.338 E.00557
;WIDTH:0.612522
G1 X134.028 Y117.293 E.00513
;WIDTH:0.565729
G1 X134.089 Y117.248 E.00474
;WIDTH:0.518936
G1 X134.149 Y117.203 E.00425
;WIDTH:0.472143
G1 X134.209 Y117.159 E.00378
