; generated by PrusaSlicer 2.7.1+win64 on 2024-02-25 at 22:19:14 UTC

; 

; external perimeters extrusion width = 0.45mm
; perimeters extrusion width = 0.45mm
; infill extrusion width = 0.45mm
; solid infill extrusion width = 0.45mm
; top infill extrusion width = 0.40mm
; support material extrusion width = 0.35mm
; first layer extrusion width = 0.42mm

M73 P0 R61
M190 S50 ; set bed temperature and wait for it to be reached
M104 S230 ; set temperature
;TYPE:Custom
START_PRINT EXTRUDER_TEMP=230 BED_TEMP=50 Z_OFFSET=0.1
M109 S230 ; set temperature and wait for it to be reached
G21 ; set units to millimeters
G90 ; use absolute coordinates
M83 ; use relative distances for extrusion
; Filament gcode
M107
;LAYER_CHANGE
;Z:0.3
;HEIGHT:0.3
;BEFORE_LAYER_CHANGE
G92 E0
;0.3


G10 ; retract
G1 Z.3 F7800
;AFTER_LAYER_CHANGE
;0.3
G1 X97.818 Y100.371
G11 ; unretract
;TYPE:Skirt/Brim
;WIDTH:0.42
G1 F1800
G1 X98.814 Y99.407 E.06148
G1 X99.964 Y98.504 E.06485
G1 X112.996 Y89.053 E.71404
G1 X113.843 Y88.514 E.04453
G1 X115.103 Y87.921 E.06177
G1 X116.837 Y87.443 E.07978
G1 X118.745 Y87.309 E.08484
G1 X119.625 Y87.365 E.03911
G1 X121.298 Y87.679 E.0755
G1 X123.105 Y88.425 E.08671
G1 X123.576 Y88.698 E.02415
G1 X125.084 Y89.849 E.08414
G1 X126.097 Y90.981 E.06738
G1 X130.695 Y97.392 E.34993
G1 X137.45 Y107.702 E.54671
G1 X137.904 Y108.505 E.04092
G1 X138.403 Y109.543 E.05108
G1 X138.849 Y110.729 E.0562
G1 X139.155 Y111.84 E.05111
G1 X139.381 Y113.087 E.05621
G1 X139.485 Y114.234 E.05108
G1 X139.485 Y115.501 E.0562
G1 X139.381 Y116.649 E.05113
G1 X139.155 Y117.895 E.05617
G1 X138.849 Y119.006 E.05111
G1 X138.403 Y120.192 E.0562
G1 X133.173 Y130.61 E.51705
G1 X132.553 Y131.77 E.05834
G1 X131.783 Y132.92 E.06139
G1 X130.759 Y134.14 E.07065
G1 X125.43 Y139.827 E.34568
G1 X124.283 Y140.84 E.06788
G1 X123.146 Y141.566 E.05984
G1 X121.975 Y142.1 E.05709
G1 X120.337 Y142.553 E.07538
G1 X118.338 Y142.709 E.08893
G1 X116.848 Y142.561 E.06641
G1 X116.05 Y142.378 E.03631
G1 X114.531 Y141.832 E.0716
G1 X113.853 Y141.455 E.03441
G1 X105.517 Y136.15 E.43826
G1 X99.722 Y131.32 E.33461
G1 X98.95 Y130.562 E.04799
G1 X98.191 Y129.694 E.05114
G1 X97.447 Y128.669 E.05618
G1 X91.964 Y119.495 E.47405
G1 X91.072 Y117.1 E.11336
G1 X90.917 Y116.226 E.03937
G1 X90.921 Y113.744 E.11009
G1 X91.075 Y112.885 E.03871
G1 X91.736 Y110.907 E.0925
G1 X95.706 Y103.426 E.37565
G1 X96.281 Y102.392 E.05248
G1 X97.07 Y101.253 E.06146
G1 X97.771 Y100.426 E.04809
G1 X98.042 Y100.656 F7800
G1 F1800
G1 X98.089 Y100.601 E.00321
G1 X99.035 Y99.686 E.05838
G1 X100.172 Y98.792 E.06415
G1 X113.204 Y89.341 E.71404
G1 X114.023 Y88.821 E.04303
G1 X115.237 Y88.25 E.05951
G1 X116.908 Y87.792 E.07685
G1 X118.723 Y87.664 E.0807
G1 X119.602 Y87.72 E.03907
G1 X121.191 Y88.018 E.07171
G1 X122.927 Y88.733 E.08328
G1 X123.398 Y89.006 E.02415
G1 X124.846 Y90.113 E.08084
G1 X125.808 Y91.189 E.06402
G1 X130.406 Y97.599 E.3499
G1 X137.152 Y107.896 E.54601
G1 X137.583 Y108.659 E.03887
G1 X138.083 Y109.697 E.0511
G1 X138.506 Y110.824 E.05339
G1 X138.812 Y111.935 E.05111
G1 X139.027 Y113.119 E.05337
G1 X139.13 Y114.266 E.05108
G1 X139.13 Y115.469 E.05336
G1 X139.027 Y116.617 E.05112
G1 X138.812 Y117.801 E.05337
G1 X138.506 Y118.911 E.05107
G1 X138.083 Y120.038 E.05339
G1 X132.856 Y130.45 E.51675
G1 X132.24 Y131.602 E.05794
G1 X131.508 Y132.694 E.05831
G1 X130.5 Y133.897 E.06961
G1 X125.171 Y139.583 E.34565
G1 X124.074 Y140.553 E.06495
G1 X122.972 Y141.257 E.058
G1 X121.844 Y141.77 E.05496
G1 X120.263 Y142.205 E.07273
G1 X118.336 Y142.354 E.08573
G1 X116.92 Y142.213 E.06312
G1 X116.131 Y142.031 E.03591
G1 X114.689 Y141.513 E.06796
G1 X114.043 Y141.154 E.03278
G1 X105.739 Y135.872 E.43652
G1 X99.951 Y131.047 E.33423
G1 X99.217 Y130.328 E.04557
G1 X98.459 Y129.46 E.05111
G1 X97.752 Y128.487 E.05335
G1 X92.27 Y119.312 E.47406
G1 X91.422 Y117.038 E.10765
G1 X91.267 Y116.164 E.03937
G1 X91.271 Y113.807 E.10454
G1 X91.425 Y112.948 E.03871
G1 X92.06 Y111.054 E.0886
G1 X96.017 Y103.599 E.37436
G1 X96.592 Y102.565 E.05248
G1 X97.341 Y101.483 E.05837
G1 X97.996 Y100.711 E.04491
G1 X98.267 Y100.941 F7800
G1 F1800
G1 X98.36 Y100.831 E.00639
G1 X99.256 Y99.964 E.0553
G1 X100.381 Y99.08 E.06346
G1 X113.413 Y89.629 E.71404
G1 X114.203 Y89.127 E.04152
G1 X115.371 Y88.579 E.05723
G1 X116.979 Y88.14 E.07393
G1 X118.7 Y88.018 E.07653
G1 X119.579 Y88.075 E.03907
G1 X121.084 Y88.357 E.06792
G1 X122.749 Y89.041 E.07984
G1 X123.22 Y89.314 E.02415
G1 X124.608 Y90.378 E.07757
G1 X125.519 Y91.396 E.06059
G1 X130.117 Y97.806 E.3499
G1 X136.855 Y108.091 E.54537
G1 X137.263 Y108.814 E.03682
G1 X137.763 Y109.852 E.0511
G1 X138.163 Y110.918 E.0505
G1 X138.47 Y112.029 E.05112
G1 X138.673 Y113.15 E.05053
G1 X138.776 Y114.298 E.05112
G1 X138.776 Y115.437 E.05052
G1 X138.673 Y116.585 E.05112
G1 X138.47 Y117.706 E.05053
G1 X138.163 Y118.817 E.05112
G1 X137.763 Y119.884 E.05054
G1 X132.538 Y130.289 E.51643
G1 X131.927 Y131.434 E.05756
G1 X131.233 Y132.468 E.05524
G1 X130.241 Y133.654 E.06858
G1 X124.911 Y139.34 E.34568
G1 X123.866 Y140.265 E.0619
G1 X122.797 Y140.947 E.05624
G1 X121.712 Y141.439 E.05284
G1 X120.189 Y141.857 E.07005
G1 X118.331 Y141.998 E.08265
G1 X116.788 Y141.82 E.06889
G1 X116.213 Y141.685 E.0262
G1 X114.803 Y141.173 E.06654
G1 X106.53 Y135.998 E.43282
G1 X104.927 Y134.768 E.08962
G1 X100.18 Y130.775 E.27514
G1 X99.485 Y130.094 E.04316
G1 X98.727 Y129.226 E.05111
G1 X98.057 Y128.304 E.05055
G1 X92.575 Y119.13 E.47403
G1 X91.772 Y116.976 E.10196
G1 X91.617 Y116.102 E.03937
G1 X91.621 Y113.87 E.099
G1 X91.775 Y113.011 E.03871
G1 X92.383 Y111.201 E.08469
G1 X96.328 Y103.771 E.37313
G1 X96.903 Y102.738 E.05244
G1 X97.612 Y101.713 E.05528
G1 X98.22 Y100.996 E.0417
G10 ; retract
G1 X98.22 Y100.996 F7800
G1 X115.348 Y98.205
G11 ; unretract
;TYPE:Support material
G1 F1800
G1 X115.054 Y99.357 E.05273
G1 X114.608 Y100.589 E.05812
G1 X114.949 Y101.075 E.02633
G1 X116.514 Y101.069 E.06942
G1 X116.804 Y100.856 E.01596
G1 X117.296 Y99.243 E.0748
G1 X118.053 Y99.491 E.03533
G1 X118.594 Y99.522 E.02404
G1 X119.64 Y99.311 E.04733
G1 X119.707 Y100.737 E.06332
G1 X120.041 Y101.073 E.02101
G1 X121.554 Y101.06 E.06711
G1 X121.875 Y100.688 E.02179
G1 X121.784 Y99.321 E.06077
G1 X122.283 Y99.45 E.02286
G1 X123.306 Y99.95 E.0505
G1 X124.208 Y100.647 E.05056
G1 X124.953 Y101.511 E.0506
G1 X125.508 Y102.507 E.05057
G1 X125.852 Y103.595 E.05061
G1 X125.969 Y104.731 E.05065
G1 X125.856 Y105.868 E.05068
G1 X125.516 Y106.958 E.05064
G1 X124.962 Y107.958 E.05071
G1 X124.388 Y108.629 E.03917
G1 X125.731 Y108.447 E.06011
G1 X126.882 Y108.499 E.0511
G1 X128.005 Y108.755 E.05109
G1 X129.065 Y109.208 E.05113
G1 X130.026 Y109.843 E.05109
G1 X130.859 Y110.639 E.0511
G1 X131.537 Y111.571 E.05112
G1 X132.036 Y112.609 E.05108
G1 X132.343 Y113.72 E.05112
G1 X132.446 Y114.868 E.05112
G1 X132.343 Y116.015 E.05108
G1 X132.036 Y117.126 E.05112
G1 X131.537 Y118.164 E.05108
G1 X130.859 Y119.096 E.05112
G1 X130.026 Y119.893 E.05114
G1 X129.065 Y120.527 E.05107
G1 X128.005 Y120.98 E.05113
G1 X126.882 Y121.237 E.0511
G1 X125.77 Y121.287 E.04937
G1 X126.334 Y121.976 E.03949
G1 X126.87 Y122.981 E.05052
G1 X127.199 Y124.072 E.05054
G1 X127.309 Y125.205 E.05049
G1 X127.196 Y126.338 E.0505
G1 X126.864 Y127.427 E.0505
G1 X126.326 Y128.429 E.05044
G1 X125.603 Y129.308 E.05048
G1 X124.723 Y130.028 E.05043
G1 X123.72 Y130.563 E.05042
G1 X122.633 Y130.892 E.05037
G1 X121.734 Y130.981 E.04007
G1 X121.87 Y129.292 E.07516
G1 X121.532 Y128.93 E.02197
G1 X120.056 Y128.93 E.06547
G1 X119.726 Y129.24 E.02008
G1 X119.639 Y130.704 E.06505
G1 X118.509 Y130.475 E.05114
G1 X117.689 Y130.61 E.03686
G1 X117.297 Y130.77 E.01878
G1 X116.808 Y129.15 E.07506
G1 X116.514 Y128.932 E.01623
G1 X114.949 Y128.928 E.06942
G1 X114.609 Y129.411 E.0262
G1 X115.257 Y131.41 E.09321
G1 X114.32 Y131.624 E.04263
G1 X113.17 Y131.676 E.05106
G1 X112.029 Y131.522 E.05107
G1 X110.934 Y131.167 E.05106
G1 X109.919 Y130.622 E.0511
G1 X109.018 Y129.904 E.0511
G1 X108.259 Y129.037 E.05111
G1 X107.667 Y128.048 E.05113
G1 X107.483 Y127.559 E.02317
G1 X106.187 Y127.176 E.05994
G1 X105.172 Y126.63 E.05112
G1 X104.271 Y125.911 E.05113
G1 X103.513 Y125.044 E.05108
G1 X102.922 Y124.055 E.0511
G1 X102.62 Y123.251 E.03809
G1 X102.322 Y122.821 E.0232
G1 X101.88 Y121.79 E.04976
G1 X101.655 Y120.691 E.04976
G1 X101.655 Y119.569 E.04977
G1 X101.787 Y118.923 E.02925
G1 X103.013 Y119.496 E.06003
G1 X103.544 Y119.16 E.02787
G1 X103.544 Y117.57 E.07052
G1 X103.362 Y117.288 E.01489
G1 X102.339 Y116.824 E.04982
G1 X102.729 Y116.382 E.02615
G1 X102.978 Y115.759 E.02976
G1 X103.073 Y115.19 E.02559
G1 X103.003 Y114.337 E.03796
G1 X102.777 Y113.718 E.02923
G1 X102.398 Y113.153 E.03018
G1 X103.362 Y112.716 E.04695
G1 X103.544 Y112.434 E.01489
G1 X103.544 Y110.842 E.07061
G1 X103.02 Y110.506 E.02761
G1 X101.585 Y111.164 E.07002
G1 X101.665 Y110.777 E.01753
G1 X101.511 Y110.264 E.02376
G1 X101.413 Y109.265 E.04452
G1 X101.503 Y108.124 E.05077
G1 X101.883 Y106.859 E.05859
G1 X102.458 Y105.826 E.05244
G1 X103.206 Y104.944 E.0513
G1 X104.112 Y104.225 E.0513
G1 X105.141 Y103.697 E.0513
G1 X106.396 Y103.369 E.05754
G1 X106.768 Y102.943 E.02509
G1 X107.669 Y102.224 E.05113
G1 X108.183 Y101.948 E.02588
G1 X108.887 Y100.981 E.05305
G1 X109.712 Y100.226 E.0496
G1 X110.41 Y99.792 E.03646
G1 X111.765 Y99.244 E.06483
G1 X113.082 Y99.101 E.05876
G1 X113.454 Y98.83 E.02041
G1 X115.382 Y97.967 E.09369
G1 X115.355 Y98.153 E.00834
G10 ; retract
G1 X115.355 Y98.153 F7800
G1 X117.227 Y109.846
G11 ; unretract
G1 F1800
G1 X117.327 Y109.484 E.01666
G1 X117.838 Y109.804 E.02674
G1 X118.91 Y110.202 E.05072
G1 X120.04 Y110.376 E.05071
G1 X121.508 Y110.302 E.0652
G1 X120.82 Y111.09 E.0464
G1 X120.229 Y112.079 E.0511
G1 X119.824 Y113.158 E.05112
G1 X119.618 Y114.292 E.05112
G1 X119.618 Y115.444 E.0511
G1 X119.824 Y116.577 E.05108
G1 X120.229 Y117.656 E.05112
G1 X120.82 Y118.645 E.0511
G1 X121.472 Y119.392 E.04398
G1 X120.367 Y119.501 E.04925
G1 X119.276 Y119.832 E.05057
G1 X118.271 Y120.37 E.05056
G1 X117.915 Y120.663 E.02045
G1 X117.468 Y120.235 E.02745
G1 X116.507 Y119.599 E.05111
G1 X115.448 Y119.144 E.05112
G1 X114.714 Y118.976 E.0334
G1 X114.23 Y117.97 E.04952
G1 X113.506 Y116.993 E.05394
G1 X113.39 Y115.762 E.05484
G1 X113.07 Y114.659 E.05094
G1 X112.647 Y113.826 E.04144
G1 X113.196 Y113.701 E.02497
G1 X114.256 Y113.248 E.05113
G1 X115.217 Y112.613 E.05109
G1 X116.05 Y111.817 E.0511
G1 X116.727 Y110.885 E.05109
G1 X117.204 Y109.895 E.04874
G10 ; retract
G1 X117.204 Y109.895 F7800
G1 X131.991 Y116.69
G11 ; unretract
G1 F1800
G1 X131.991 Y113.647 E.13497
G1 X131.596 Y112.431 E.05671
G1 X131.596 Y117.304 E.21614
G1 X131.2 Y118.082 E.03872
G1 X131.2 Y111.653 E.28516
G1 X130.805 Y111.109 E.02982
G1 X130.805 Y118.626 E.33342
G1 X130.41 Y119.083 E.02679
G1 X130.41 Y110.652 E.37396
G1 X130.015 Y110.275 E.02422
G1 X130.015 Y119.461 E.40744
M73 P0 R60
G1 X129.62 Y119.777 E.02244
G1 X129.62 Y109.958 E.43552
G1 X129.225 Y109.697 E.021
G1 X129.225 Y120.038 E.45867
G1 X128.83 Y120.28 E.02055
G1 X128.83 Y109.456 E.4801
G1 X128.434 Y109.287 E.0191
G1 X128.434 Y120.449 E.49509
G1 X128.039 Y120.618 E.01906
G1 X128.039 Y109.118 E.51008
G1 X127.644 Y109.001 E.01827
G1 X127.644 Y120.734 E.52042
G1 X127.249 Y120.824 E.01797
G1 X127.249 Y108.911 E.5284
G1 X126.854 Y108.821 E.01797
G1 X126.854 Y120.915 E.53643
G1 X126.459 Y120.935 E.01754
G1 X126.459 Y108.8 E.53825
G1 X126.064 Y108.782 E.01754
G1 X126.064 Y120.953 E.53984
G1 X125.669 Y120.971 E.01754
G1 X125.669 Y108.778 E.54082
G1 X125.273 Y108.832 E.01773
G1 X125.273 Y129.164 E.90182
G1 X124.878 Y129.487 E.02263
G1 X124.878 Y108.886 E.91375
G1 X124.483 Y108.939 E.01768
G1 X124.483 Y129.793 E.92498
G1 X124.088 Y130.004 E.01986
G1 X124.088 Y108.831 E.93912
G1 X126.854 Y126.91 F7800
G1 F1800
G1 X126.854 Y124.036 E.12748
G1 X126.459 Y122.89 E.05377
G1 X126.459 Y127.504 E.20465
G1 X126.064 Y128.241 E.03709
G1 X126.064 Y122.151 E.27012
G1 X125.669 Y121.668 E.02768
G1 X125.669 Y128.976 E.32414
G10 ; retract
G1 X125.669 Y128.976 F7800
G1 X125.273 Y107.066
G11 ; unretract
G1 F1800
G1 X125.273 Y102.827 E.18802
G1 X124.878 Y102.034 E.0393
G1 X124.878 Y107.449 E.24018
G1 X124.483 Y108.026 E.03102
G1 X124.483 Y101.456 E.29141
G1 X124.088 Y100.997 E.02686
G1 X124.088 Y108.733 E.34313
G1 X123.693 Y130.396 F7800
G1 F1800
M73 P1 R60
G1 X123.693 Y100.653 E1.31925
G1 X123.298 Y100.348 E.02214
G1 X123.298 Y130.356 E1.331
G1 X122.903 Y130.476 E.01831
G1 X122.903 Y100.109 E1.34692
G1 X122.508 Y99.916 E.0195
G1 X122.508 Y130.583 E1.36023
G1 X122.112 Y130.622 E.01765
G1 X122.112 Y100.902 E1.31823
G1 X121.717 Y101.361 E.02686
G1 X121.717 Y109.971 E.38189
G1 X121.322 Y109.99 E.01754
G1 X121.322 Y101.391 E.38141
G1 X120.927 Y101.393 E.01752
G1 X120.927 Y110.01 E.38221
G1 X120.532 Y110.03 E.01754
G1 X120.532 Y101.393 E.38309
G1 X120.137 Y101.393 E.01752
G1 X120.137 Y110.05 E.38398
G1 X119.742 Y110.006 E.01763
G1 X119.742 Y101.226 E.38944
G1 X119.386 Y100.868 E.02239
G1 X119.346 Y99.766 E.04891
G1 X119.346 Y109.945 E.45149
G1 X118.99 Y109.89 E.01598
G1 X118.951 Y99.82 E.44666
G1 X118.556 Y99.841 E.01754
G1 X118.556 Y109.729 E.43858
G1 X118.161 Y109.582 E.01869
G1 X118.161 Y99.818 E.43308
G1 X117.766 Y99.738 E.01788
G1 X117.766 Y109.381 E.42771
G1 X117.371 Y109.134 E.02066
G1 X117.371 Y100.158 E.39813
G1 X117.075 Y101.055 E.0419
G1 X116.976 Y101.127 E.00543
G1 X116.976 Y109.554 E.37378
G1 X116.581 Y110.451 E.04347
G1 X116.581 Y101.388 E.40199
G1 X116.185 Y101.395 E.01757
G1 X116.185 Y111.086 E.42984
G1 X115.79 Y111.622 E.02953
G1 X115.79 Y101.395 E.45362
G1 X115.395 Y101.395 E.01752
G1 X115.395 Y112 E.47038
G1 X115 Y112.373 E.0241
G1 X115 Y101.395 E.48693
G1 X114.782 Y101.395 E.00967
G1 X114.605 Y101.142 E.0137
G1 X114.605 Y112.634 E.50973
G1 X114.21 Y112.894 E.02097
G1 X114.21 Y98.842 E.62327
G1 X114.605 Y98.665 E.0192
G1 X114.605 Y100.128 E.06489
G10 ; retract
G1 X114.605 Y100.128 F7800
G1 X121.717 Y128.894
G11 ; unretract
G1 F1800
G1 X121.717 Y119.689 E.40829
G1 X121.322 Y119.728 E.01761
G1 X121.322 Y128.61 E.39396
G1 X120.927 Y128.61 E.01752
G1 X120.927 Y119.767 E.39223
G1 X120.532 Y119.806 E.01761
G1 X120.532 Y128.61 E.3905
G1 X120.137 Y128.61 E.01752
G1 X120.137 Y119.905 E.38611
G1 X119.742 Y120.025 E.01831
G1 X119.742 Y128.786 E.38859
G1 X119.415 Y129.094 E.01992
G1 X119.346 Y130.237 E.05079
G1 X119.346 Y120.158 E.44705
G1 X118.951 Y120.369 E.01986
G1 X118.951 Y130.22 E.43694
G1 X118.556 Y130.157 E.01774
G1 X118.556 Y120.581 E.42474
G1 X118.161 Y120.875 E.02184
G1 X118.161 Y130.198 E.41352
G1 X117.766 Y130.269 E.0178
G1 X117.766 Y120.963 E.41277
G1 X117.371 Y120.584 E.02428
G1 X117.371 Y129.847 E.41086
G1 X117.081 Y128.954 E.04165
G1 X116.976 Y128.876 E.0058
G1 X116.976 Y120.292 E.38074
G1 X116.581 Y120.031 E.021
G1 X116.581 Y128.613 E.38065
G1 X116.185 Y128.608 E.01757
G1 X116.185 Y119.809 E.39028
G1 X115.79 Y119.64 E.01906
G1 X115.79 Y128.608 E.39777
G1 X115.395 Y128.608 E.01752
G1 X115.395 Y119.47 E.40531
G1 X115 Y119.37 E.01807
G1 X115 Y128.608 E.40975
G1 X114.783 Y128.608 E.00962
G1 X114.605 Y128.861 E.01372
G1 X114.605 Y119.28 E.42496
G1 X114.493 Y119.254 E.0051
G1 X114.21 Y118.666 E.02894
G1 X114.21 Y131.308 E.56073
G1 X113.815 Y131.326 E.01754
G1 X113.815 Y117.943 E.5936
G1 X113.419 Y117.399 E.02984
G1 X113.419 Y131.344 E.61853
G1 X113.024 Y131.333 E.01753
G1 X113.024 Y115.65 E.69562
G1 X112.629 Y114.497 E.05406
G1 X112.629 Y131.28 E.74441
G1 X112.234 Y131.226 E.01768
G1 X112.234 Y99.496 E1.40738
G1 X112.629 Y99.436 E.01772
G1 X112.629 Y113.502 E.62389
G1 X113.024 Y113.412 E.01797
G1 X113.024 Y99.419 E.62066
G1 X113.182 Y99.423 E.00701
G1 X113.419 Y99.251 E.01299
G1 X113.419 Y113.257 E.62123
G1 X113.815 Y113.088 E.0191
G1 X113.815 Y98.843 E.63183
G10 ; retract
G1 X113.815 Y98.843 F7800
G1 X121.717 Y119.43
G11 ; unretract
G1 F1800
G1 X121.717 Y110.549 E.39392
G1 X121.322 Y111.001 E.02663
G1 X121.322 Y118.734 E.343
G1 X120.927 Y118.201 E.02943
G1 X120.927 Y111.534 E.29571
G1 X120.532 Y112.196 E.03419
G1 X120.532 Y117.54 E.23703
G1 X120.137 Y116.501 E.0493
G1 X120.137 Y112.779 E.16509
G10 ; retract
G1 X120.137 Y112.779 F7800
