; generated by PrusaSlicer 2.7.1+win64 on 2024-02-05 at 22:39:23 UTC

; 

; external perimeters extrusion width = 0.45mm
; perimeters extrusion width = 0.45mm
; infill extrusion width = 0.45mm
; solid infill extrusion width = 0.45mm
; top infill extrusion width = 0.40mm
; support material extrusion width = 0.35mm
; first layer extrusion width = 0.42mm

M73 P0 R39
M190 S50 ; set bed temperature and wait for it to be reached
M104 S230 ; set temperature
;TYPE:Custom
START_PRINT EXTRUDER_TEMP=230 BED_TEMP=50 Z_OFFSET=0.1
M109 S230 ; set temperature and wait for it to be reached
G21 ; set units to millimeters
G90 ; use absolute coordinates
M83 ; use relative distances for extrusion
; Filament gcode
M107
;LAYER_CHANGE
;Z:0.3
;HEIGHT:0.3
;BEFORE_LAYER_CHANGE
G92 E0
;0.3


G10 ; retract
G1 Z.3 F7800
;AFTER_LAYER_CHANGE
;0.3
G1 X93.071 Y104.705
G11 ; unretract
;TYPE:Skirt/Brim
;WIDTH:0.42
G1 F1800
G1 X93.972 Y103.986 E.05113
G1 X95.029 Y103.288 E.05618
G1 X96.044 Y102.742 E.05112
G1 X97.209 Y102.244 E.0562
G1 X98.305 Y101.888 E.05111
G1 X99.54 Y101.606 E.05619
G1 X101.358 Y101.393 E.08119
G1 X115.496 Y100.887 E.62749
G1 X130.114 Y101.697 E.64937
G1 X132.417 Y102.119 E.10385
G1 X133.622 Y102.511 E.0562
G1 X134.682 Y102.964 E.05113
G1 X135.797 Y103.564 E.05616
G1 X136.759 Y104.199 E.05113
G1 X137.75 Y104.989 E.05621
G1 X138.582 Y105.785 E.05107
G1 X139.416 Y106.739 E.0562
G1 X140.093 Y107.671 E.05109
G1 X140.743 Y108.759 E.05621
G1 X141.243 Y109.797 E.0511
G1 X141.688 Y110.983 E.05619
G1 X141.995 Y112.094 E.05112
G1 X142.221 Y113.34 E.05617
G1 X142.324 Y114.488 E.05112
G1 X142.324 Y115.755 E.0562
G1 X142.221 Y116.902 E.05108
G1 X141.995 Y118.149 E.05621
G1 X141.688 Y119.26 E.05112
G1 X141.243 Y120.446 E.05619
G1 X140.743 Y121.484 E.0511
G1 X140.093 Y122.572 E.05621
G1 X139.416 Y123.504 E.05109
G1 X138.582 Y124.458 E.0562
G1 X137.75 Y125.254 E.05107
G1 X136.759 Y126.044 E.05621
G1 X135.797 Y126.679 E.05113
G1 X134.682 Y127.279 E.05616
G1 X133.622 Y127.732 E.05113
G1 X132.417 Y128.124 E.0562
G1 X131.294 Y128.38 E.05109
G1 X130.038 Y128.55 E.05622
G1 X114.503 Y129.11 E.6895
G1 X101.225 Y128.351 E.5899
G1 X99.54 Y128.144 E.0753
G1 X98.305 Y127.862 E.05619
G1 X97.209 Y127.506 E.05111
G1 X96.044 Y127.008 E.0562
G1 X95.029 Y126.462 E.05112
G1 X93.972 Y125.764 E.05618
G1 X93.071 Y125.046 E.0511
G1 X92.155 Y124.17 E.05622
G1 X91.397 Y123.302 E.05111
G1 X90.652 Y122.278 E.05617
G1 X90.061 Y121.288 E.05114
G1 X89.512 Y120.147 E.05616
G1 X89.107 Y119.068 E.05112
G1 X88.77 Y117.847 E.05618
G1 X88.564 Y116.713 E.05112
G1 X88.45 Y115.451 E.0562
G1 X88.45 Y114.299 E.0511
G1 X88.564 Y113.037 E.0562
G1 X88.77 Y111.904 E.05108
G1 X89.107 Y110.682 E.05622
G1 X89.512 Y109.603 E.05112
G1 X90.061 Y108.462 E.05616
G1 X90.652 Y107.473 E.0511
G1 X91.397 Y106.448 E.0562
G1 X92.155 Y105.58 E.05111
G1 X93.019 Y104.754 E.05302
G1 X93.264 Y105.01 F7800
G1 F1800
G1 X93.293 Y104.983 E.00176
G1 X94.193 Y104.264 E.05109
G1 X95.198 Y103.601 E.0534
G1 X96.212 Y103.055 E.05108
G1 X97.319 Y102.583 E.05338
G1 X98.414 Y102.226 E.05108
G1 X99.587 Y101.959 E.05336
G1 X101.372 Y101.748 E.07972
G1 X115.487 Y101.243 E.62647
G1 X130.094 Y102.052 E.64888
G1 X132.338 Y102.466 E.10121
G1 X133.482 Y102.838 E.05336
G1 X134.542 Y103.291 E.05113
G1 X135.601 Y103.861 E.05334
G1 X136.563 Y104.496 E.05113
G1 X137.504 Y105.246 E.05337
G1 X138.337 Y106.042 E.0511
G1 X139.128 Y106.948 E.05335
G1 X139.806 Y107.88 E.05112
G1 X140.423 Y108.913 E.05337
G1 X140.923 Y109.951 E.0511
G1 X141.345 Y111.078 E.05338
G1 X141.652 Y112.188 E.05108
G1 X141.867 Y113.372 E.05337
G1 X141.97 Y114.52 E.05112
G1 X141.97 Y115.723 E.05336
G1 X141.867 Y116.871 E.05112
G1 X141.652 Y118.055 E.05337
G1 X141.345 Y119.165 E.05108
G1 X140.923 Y120.292 E.05338
G1 X140.423 Y121.33 E.0511
G1 X139.806 Y122.363 E.05337
G1 X139.128 Y123.295 E.05112
G1 X138.337 Y124.201 E.05335
G1 X137.504 Y124.997 E.0511
G1 X136.563 Y125.747 E.05337
G1 X135.601 Y126.382 E.05113
G1 X134.542 Y126.952 E.05334
G1 X133.482 Y127.405 E.05113
G1 X132.338 Y127.777 E.05336
G1 X131.215 Y128.033 E.05109
G1 X130.023 Y128.195 E.05336
G1 X114.839 Y128.762 E.67395
G1 X101.245 Y127.996 E.60392
G1 X99.587 Y127.792 E.07409
G1 X98.414 Y127.524 E.05337
G1 X97.319 Y127.168 E.05107
G1 X96.212 Y126.695 E.0534
G1 X95.198 Y126.149 E.05108
G1 X94.193 Y125.486 E.0534
G1 X93.293 Y124.768 E.05107
G1 X92.423 Y123.936 E.05339
G1 X91.665 Y123.068 E.05111
G1 X90.958 Y122.095 E.05335
G1 X90.367 Y121.106 E.0511
G1 X89.845 Y120.022 E.05336
G1 X89.44 Y118.943 E.05112
G1 X89.12 Y117.783 E.05337
G1 X88.914 Y116.65 E.05108
G1 X88.806 Y115.451 E.0534
G1 X88.806 Y114.299 E.0511
G1 X88.914 Y113.101 E.05335
G1 X89.12 Y111.967 E.05112
G1 X89.44 Y110.807 E.05337
G1 X89.845 Y109.728 E.05112
G1 X90.367 Y108.644 E.05336
G1 X90.958 Y107.655 E.0511
G1 X91.665 Y106.682 E.05335
G1 X92.423 Y105.814 E.05111
G1 X93.212 Y105.06 E.04841
G1 X93.456 Y105.316 F7800
G1 F1800
G1 X93.514 Y105.261 E.00355
G1 X94.415 Y104.542 E.05113
G1 X95.366 Y103.915 E.05052
G1 X96.381 Y103.369 E.05112
G1 X97.428 Y102.921 E.05051
G1 X98.524 Y102.565 E.05111
G1 X99.635 Y102.311 E.05055
G1 X101.385 Y102.104 E.07816
G1 X115.479 Y101.598 E.62554
G1 X130.074 Y102.407 E.64835
G1 X132.259 Y102.813 E.09857
G1 X133.343 Y103.165 E.05055
G1 X134.402 Y103.618 E.05109
G1 X135.406 Y104.158 E.05056
G1 X136.367 Y104.792 E.05107
G1 X137.258 Y105.503 E.05056
G1 X138.091 Y106.299 E.0511
G1 X138.841 Y107.157 E.05055
G1 X139.518 Y108.089 E.05109
G1 X140.102 Y109.067 E.05052
G1 X140.602 Y110.106 E.05114
G1 X141.003 Y111.172 E.05052
G1 X141.309 Y112.283 E.05111
G1 X141.513 Y113.404 E.05054
G1 X141.616 Y114.552 E.05112
G1 X141.616 Y115.691 E.05052
G1 X141.513 Y116.839 E.05112
G1 X141.309 Y117.96 E.05054
G1 X141.003 Y119.071 E.05111
G1 X140.602 Y120.137 E.05052
G1 X140.102 Y121.175 E.0511
G1 X139.518 Y122.154 E.05056
G1 X138.841 Y123.086 E.05109
G1 X138.091 Y123.944 E.05055
G1 X137.258 Y124.74 E.0511
G1 X136.367 Y125.451 E.05056
G1 X135.406 Y126.085 E.05107
G1 X134.402 Y126.625 E.05056
G1 X133.343 Y127.078 E.05109
G1 X132.259 Y127.43 E.05055
G1 X131.136 Y127.687 E.0511
G1 X130.007 Y127.84 E.05053
G1 X114.839 Y128.407 E.67324
G1 X101.266 Y127.641 E.60299
G1 X99.635 Y127.439 E.0729
G1 X98.524 Y127.186 E.05054
G1 X97.428 Y126.83 E.05111
G1 X96.381 Y126.382 E.05051
G1 X95.366 Y125.836 E.05112
G1 X94.415 Y125.208 E.05055
G1 X93.514 Y124.49 E.0511
G1 X92.691 Y123.702 E.05054
G1 X91.933 Y122.834 E.05111
G1 X91.263 Y121.913 E.05052
G1 X90.672 Y120.924 E.0511
G1 X90.178 Y119.897 E.05055
G1 X89.773 Y118.818 E.05112
G1 X89.47 Y117.72 E.05052
G1 X89.264 Y116.586 E.05112
G1 X89.162 Y115.451 E.05055
G1 X89.162 Y114.299 E.0511
G1 X89.264 Y113.164 E.05055
G1 X89.47 Y112.031 E.05108
G1 X89.773 Y110.932 E.05056
G1 X90.178 Y109.853 E.05112
G1 X90.672 Y108.827 E.05051
G1 X91.263 Y107.838 E.0511
G1 X91.933 Y106.916 E.05055
G1 X92.691 Y106.048 E.05111
G1 X93.404 Y105.366 E.04376
G10 ; retract
G1 X93.404 Y105.366 F7800
G1 X129.251 Y108.731
G11 ; unretract
;TYPE:Support material
G1 F1800
G1 X129.721 Y108.753 E.02087
G1 X130.845 Y109.009 E.05113
G1 X131.904 Y109.462 E.05109
G1 X132.866 Y110.097 E.05113
G1 X133.699 Y110.893 E.0511
G1 X134.376 Y111.825 E.05109
G1 X134.876 Y112.863 E.0511
G1 X135.182 Y113.974 E.05111
G1 X135.286 Y115.121 E.05108
G1 X135.182 Y116.269 E.05113
G1 X134.876 Y117.38 E.05111
G1 X134.376 Y118.418 E.0511
G1 X133.699 Y119.35 E.05109
G1 X132.866 Y120.146 E.0511
G1 X131.904 Y120.781 E.05113
G1 X130.845 Y121.234 E.05109
G1 X129.721 Y121.49 E.05113
G1 X128.57 Y121.542 E.0511
G1 X127.429 Y121.387 E.05107
G1 X126.333 Y121.031 E.05111
G1 X125.318 Y120.485 E.05112
G1 X124.417 Y119.767 E.0511
G1 X123.659 Y118.899 E.05111
G1 X123.068 Y117.91 E.0511
G1 X122.663 Y116.831 E.05112
G1 X122.538 Y116.14 E.03115
G1 X122.623 Y115.155 E.04385
G1 X122.557 Y113.998 E.0514
G1 X122.663 Y113.412 E.02641
G1 X123.068 Y112.333 E.05112
G1 X123.659 Y111.344 E.0511
G1 X124.417 Y110.476 E.05111
G1 X125.318 Y109.758 E.0511
G1 X126.333 Y109.212 E.05112
G1 X127.429 Y108.856 E.05111
G1 X128.57 Y108.701 E.05107
G1 X129.198 Y108.729 E.02788
G1 X134.757 Y117.211 F7800
G1 F1800
G1 X134.757 Y113.634 E.15866
G1 X134.575 Y112.976 E.03028
G1 X134.361 Y112.532 E.02186
G1 X134.361 Y117.71 E.22967
G1 X133.966 Y118.437 E.0367
G1 X133.966 Y111.806 E.29412
G1 X133.571 Y111.262 E.02982
G1 X133.571 Y118.981 E.34237
G1 X133.176 Y119.407 E.02577
G1 X133.176 Y110.836 E.38017
G1 X132.781 Y110.458 E.02425
G1 X132.781 Y119.785 E.4137
G1 X132.386 Y120.08 E.02187
G1 X132.386 Y110.163 E.43987
G1 X131.991 Y109.902 E.021
G1 X131.991 Y120.341 E.46302
G1 X131.596 Y120.565 E.02014
G1 X131.596 Y109.678 E.48289
G1 X131.2 Y109.509 E.0191
G1 X131.2 Y120.734 E.49788
G1 X130.805 Y120.903 E.01906
G1 X130.805 Y109.34 E.51287
G1 X130.745 Y109.315 E.00288
G1 X130.41 Y109.238 E.01525
G1 X130.41 Y121.005 E.52192
G1 X130.015 Y121.095 E.01797
G1 X130.015 Y109.148 E.52991
G1 X129.62 Y109.068 E.01788
G1 X129.62 Y121.175 E.537
G1 X129.225 Y121.192 E.01754
G1 X129.225 Y109.051 E.53851
G1 X128.83 Y109.033 E.01754
G1 X128.83 Y121.21 E.54011
G1 X128.434 Y121.201 E.01757
G1 X128.434 Y109.042 E.53931
G1 X128.039 Y109.096 E.01768
M73 P1 R39
G1 X128.039 Y121.147 E.53452
G1 X127.644 Y121.094 E.01768
G1 X127.644 Y109.149 E.52982
G1 X127.249 Y109.25 E.01808
G1 X127.249 Y120.993 E.52086
G1 X126.854 Y120.864 E.01843
G1 X126.854 Y109.379 E.50942
G1 X126.459 Y109.507 E.01842
G1 X126.459 Y120.736 E.49806
G1 X126.064 Y120.523 E.01991
G1 X126.064 Y109.72 E.47917
G1 X125.669 Y109.932 E.01988
G1 X125.669 Y120.31 E.46031
G1 X125.273 Y120.04 E.02126
G1 X125.273 Y110.203 E.43632
G1 X124.878 Y110.518 E.02241
G1 X124.878 Y119.725 E.40837
G1 X124.483 Y119.356 E.02398
G1 X124.483 Y110.887 E.37564
G1 X124.088 Y111.339 E.02663
G1 X124.088 Y118.904 E.33554
G1 X123.693 Y118.332 E.03083
G1 X123.693 Y111.911 E.2848
G1 X123.298 Y112.632 E.03646
G1 X123.298 Y117.611 E.22084
G1 X122.903 Y116.358 E.05827
G1 X122.903 Y113.229 E.13879
G10 ; retract
G1 X122.903 Y113.229 F7800
G1 X102.311 Y108.485
G11 ; unretract
G1 F1800
G1 X102.781 Y108.506 E.02087
G1 X103.905 Y108.763 E.05114
G1 X104.964 Y109.216 E.05109
G1 X105.926 Y109.85 E.0511
G1 X106.759 Y110.647 E.05114
G1 X107.436 Y111.579 E.05109
G1 X107.83 Y112.398 E.04031
G1 X107.528 Y113.485 E.05004
G1 X107.377 Y114.842 E.06056
G1 X107.469 Y116.187 E.0598
G1 X107.782 Y117.454 E.05789
G1 X107.436 Y118.172 E.03535
G1 X106.759 Y119.104 E.05109
G1 X105.926 Y119.9 E.0511
G1 X104.964 Y120.535 E.05113
G1 X103.905 Y120.988 E.05109
G1 X102.781 Y121.244 E.05113
G1 X101.63 Y121.296 E.0511
G1 X100.488 Y121.141 E.05112
G1 X99.392 Y120.785 E.05111
G1 X98.378 Y120.239 E.05108
G1 X97.477 Y119.521 E.0511
G1 X97.167 Y119.166 E.0209
G1 X96.719 Y118.653 E.03021
G1 X96.128 Y117.664 E.0511
G1 X95.723 Y116.585 E.05112
G1 X95.517 Y115.451 E.05112
G1 X95.517 Y114.299 E.0511
G1 X95.723 Y113.165 E.05112
G1 X96.128 Y112.087 E.05108
G1 X96.719 Y111.097 E.05114
G1 X97.477 Y110.23 E.05108
G1 X98.378 Y109.511 E.05113
G1 X99.392 Y108.965 E.05108
G1 X100.488 Y108.609 E.05111
G1 X101.63 Y108.455 E.05111
G1 X102.257 Y108.483 E.02784
G1 X107.097 Y118.365 F7800
G1 F1800
G1 X107.097 Y111.657 E.29753
G1 X106.702 Y111.114 E.02978
M73 P1 R38
G1 X106.702 Y118.637 E.33368
G1 X106.307 Y119.093 E.02676
G1 X106.307 Y110.658 E.37413
G1 X105.912 Y110.28 E.02425
G1 X105.912 Y119.47 E.40762
G1 X105.517 Y119.786 E.02244
G1 X105.517 Y109.964 E.43565
G1 X105.122 Y109.703 E.021
G1 X105.122 Y120.047 E.45881
G1 X104.727 Y120.288 E.02052
G1 X104.727 Y109.462 E.48019
G1 X104.331 Y109.293 E.0191
G1 X104.331 Y120.457 E.49518
G1 X103.936 Y120.626 E.01906
G1 X103.936 Y109.124 E.51017
G1 X103.541 Y109.008 E.01826
G1 X103.541 Y120.742 E.52046
G1 X103.146 Y120.833 E.01798
G1 X103.146 Y108.918 E.52849
G1 X102.751 Y108.828 E.01797
G1 X102.751 Y120.923 E.53647
G1 X102.356 Y120.943 E.01754
G1 X102.356 Y108.808 E.53825
G1 X101.961 Y108.79 E.01754
G1 X101.961 Y120.961 E.53984
G1 X101.566 Y120.964 E.01752
G1 X101.566 Y108.786 E.54015
G1 X101.17 Y108.84 E.01773
G1 X101.17 Y120.911 E.53541
G1 X100.775 Y120.857 E.01768
G1 X100.775 Y108.893 E.53066
G1 X100.38 Y108.981 E.01795
G1 X100.38 Y120.769 E.52285
G1 X99.985 Y120.641 E.01842
G1 X99.985 Y109.109 E.5115
G1 X99.59 Y109.238 E.01843
G1 X99.59 Y120.513 E.5001
G1 X99.195 Y120.315 E.0196
G1 X99.195 Y109.435 E.48258
G1 X98.8 Y109.648 E.01991
G1 X98.8 Y120.103 E.46373
G1 X98.404 Y119.851 E.02082
G1 X98.404 Y109.899 E.44142
G1 X98.009 Y110.215 E.02244
G1 X98.009 Y119.536 E.41343
G1 X97.614 Y119.191 E.02326
G1 X97.614 Y110.559 E.38287
G1 X97.219 Y111.011 E.02663
G1 X97.219 Y118.739 E.34277
G1 X96.824 Y118.205 E.02946
G1 X96.824 Y111.546 E.29536
G1 X96.429 Y112.207 E.03415
G1 X96.429 Y117.543 E.23668
G1 X96.034 Y116.502 E.04939
G1 X96.034 Y112.793 E.16451
G10 ; retract
G1 X96.034 Y112.793 F7800
G1 X108.773 Y112.678
G11 ; unretract
;TYPE:External perimeter
;WIDTH:0.42
G1 F1800
G1 X108.968 Y112.216 E.02224
G1 X109.261 Y111.653 E.02815
G1 X109.604 Y111.123 E.028
G1 X110.212 Y110.404 E.04176
G1 X110.723 Y109.923 E.03113
G1 X111.281 Y109.514 E.03069
G1 X111.705 Y109.231 E.02261
G1 X112.261 Y108.946 E.02771
G1 X112.848 Y108.714 E.028
G1 X113.545 Y108.52 E.03209
G1 X114.073 Y108.42 E.02384
G1 X114.702 Y108.362 E.02802
G1 X115.413 Y108.371 E.03154
G1 X116.06 Y108.444 E.02888
G1 X116.583 Y108.547 E.02364
G1 X117.188 Y108.726 E.02798
G1 X117.773 Y108.962 E.02798
G1 X118.334 Y109.252 E.02801
G1 X118.864 Y109.595 E.028
G1 X119.359 Y109.986 E.02798
G1 X119.815 Y110.422 E.02798
G1 X120.228 Y110.9 E.02802
G1 X120.706 Y111.609 E.03793
G1 X121.036 Y112.243 E.0317
G1 X121.295 Y112.9 E.03132
G1 X121.444 Y113.384 E.02246
G1 X121.563 Y113.967 E.02639
G1 X121.629 Y114.57 E.02691
G1 X121.641 Y115.169 E.02657
G1 X121.6 Y115.759 E.02623
G1 X121.506 Y116.343 E.02624
G1 X121.354 Y116.937 E.0272
G1 X121.157 Y117.508 E.02679
G1 X120.826 Y118.191 E.03366
G1 X120.496 Y118.73 E.02803
G1 X120.114 Y119.239 E.02823
G1 X119.686 Y119.706 E.0281
G1 X118.965 Y120.328 E.04224
G1 X118.446 Y120.678 E.02777
G1 X117.89 Y120.98 E.02806
G1 X117.307 Y121.228 E.0281
G1 X116.704 Y121.419 E.02806
G1 X116.085 Y121.552 E.02808
G1 X115.457 Y121.626 E.02805
G1 X114.822 Y121.639 E.02817
G1 X114.191 Y121.592 E.02807
G1 X113.51 Y121.47 E.03069
G1 X112.956 Y121.319 E.02547
G1 X112.364 Y121.096 E.02806
G1 X111.796 Y120.818 E.02805
G1 X111.234 Y120.469 E.02934
G1 X110.671 Y120.033 E.03158
G1 X110.199 Y119.583 E.02893
G1 X109.861 Y119.208 E.02239
G1 X109.483 Y118.699 E.02812
G1 X109.156 Y118.157 E.02808
G1 X108.804 Y117.398 E.03711
G1 X108.566 Y116.651 E.03477
G1 X108.437 Y116.028 E.02822
G1 X108.371 Y115.427 E.02682
G1 X108.359 Y114.828 E.02657
G1 X108.406 Y114.206 E.02767
G1 X108.616 Y113.184 E.04628
G1 X108.75 Y112.747 E.02027
G1 X108.932 Y112.302 F7800
G10 ; retract
G1 X120.324 Y117.405
G11 ; unretract
G1 F1800
G1 X120.142 Y117.801 E.01933
G1 X119.855 Y118.273 E.0245
G1 X119.523 Y118.72 E.0247
G1 X119.16 Y119.125 E.02412
G1 X118.795 Y119.469 E.02225
G1 X118.297 Y119.848 E.02776
G1 X117.754 Y120.176 E.02814
G1 X117.031 Y120.489 E.03494
G1 X116.515 Y120.656 E.02406
G1 X115.975 Y120.773 E.02451
G1 X115.426 Y120.84 E.02453
G1 X114.871 Y120.856 E.02463
G1 X114.357 Y120.827 E.02283
G1 X113.749 Y120.728 E.02732
G1 X112.833 Y120.447 E.0425
G1 X112.263 Y120.185 E.02783
G1 X111.719 Y119.859 E.02813
G1 X111.251 Y119.505 E.02603
G1 X110.845 Y119.129 E.02454
G1 X110.476 Y118.718 E.0245
G1 X110.145 Y118.273 E.0246
G1 X109.869 Y117.808 E.02398
G1 X109.555 Y117.175 E.03134
G1 X109.351 Y116.572 E.02824
G1 X109.223 Y115.909 E.02995
G1 X109.157 Y115.397 E.0229
G1 X109.142 Y114.876 E.02312
G1 X109.169 Y114.37 E.02248
G1 X109.325 Y113.552 E.03694
G1 X109.504 Y112.969 E.02705
G1 X109.814 Y112.261 E.03428
G1 X110.141 Y111.716 E.02819
G1 X110.594 Y111.151 E.03212
G1 X110.965 Y110.755 E.02407
G1 X111.374 Y110.399 E.02405
G1 X112.087 Y109.917 E.03817
G1 X112.572 Y109.669 E.02416
G1 X113.076 Y109.475 E.02395
G1 X113.733 Y109.274 E.03047
G1 X114.351 Y109.171 E.02779
G1 X115.306 Y109.143 E.04238
G1 X115.847 Y109.2 E.02413
G1 X116.387 Y109.308 E.02443
G1 X116.916 Y109.465 E.02448
G1 X117.428 Y109.669 E.02445
