;FLAVOR:Marlin
;TIME:5363
;Filament used: 1.00816m
;Layer height: 0.1
;MINX:97.894
;MINY:101.892
;MINZ:0.3
;MAXX:152.125
;MAXY:135.315
;MAXZ:20
;TARGET_MACHINE.NAME:Creality Ender-3 Pro
;Generated with Cura_SteamEngine 5.5.0
M82 ;absolute extrusion mode
START_PRINT BED_TEMP=40.0 EXTRUDER_TEMP=230
G92 E0
G92 E0
G1 F1500 E-6.5
;LAYER_COUNT:198
;LAYER:0
M107
G0 F6000 X102.854 Y106.151 Z0.3
;TYPE:SKIRT
G1 F1500 E0
G1 F1200 X103.682 Y105.437 E0.05455
G1 X104.372 Y104.899 E0.0982
G1 X105.089 Y104.413 E0.14141
G1 X105.448 Y104.188 E0.16255
G1 X106.055 Y103.835 E0.19758
G1 X106.406 Y103.646 E0.21747
G1 X107.194 Y103.263 E0.26118
G1 X107.593 Y103.09 E0.28288
G1 X108.756 Y102.664 E0.34467
G1 X109.319 Y102.496 E0.37398
G1 X110 Y102.318 E0.4091
G1 X110.326 Y102.244 E0.42578
G1 X111.034 Y102.109 E0.46174
G1 X111.348 Y102.06 E0.47759
G1 X112.053 Y101.975 E0.51302
G1 X112.417 Y101.943 E0.53125
G1 X113.124 Y101.903 E0.56658
G1 X113.665 Y101.892 E0.59357
G1 X114.567 Y101.913 E0.63859
G1 X116.725 Y102.05 E0.74647
G1 X120.338 Y102.172 E0.92682
G1 X121.904 Y102.196 E1.00496
G1 X123.7 Y102.246 E1.0946
G1 X126.191 Y102.246 E1.21887
G1 X128.756 Y102.173 E1.34689
G1 X131.22 Y102.034 E1.47002
G1 X132.441 Y101.934 E1.53114
G1 X133.065 Y101.904 E1.56231
G1 X133.675 Y101.892 E1.59275
G1 X134.567 Y101.913 E1.63726
G1 X136.727 Y102.05 E1.74524
G1 X140.337 Y102.172 E1.92545
G1 X141.321 Y102.189 E1.97455
G1 X142.294 Y102.25 E2.02318
G1 X143.255 Y102.397 E2.07169
G1 X144.203 Y102.628 E2.12037
G1 X145.092 Y102.93 E2.16721
G1 X146.014 Y103.336 E2.21747
G1 X146.806 Y103.771 E2.26255
G1 X147.673 Y104.355 E2.3147
G1 X148.429 Y104.969 E2.36329
G1 X149.127 Y105.649 E2.41191
G1 X149.762 Y106.386 E2.46044
G1 X150.311 Y107.149 E2.50734
G1 X150.824 Y108.016 E2.5576
G1 X151.244 Y108.895 E2.6062
G1 X151.584 Y109.808 E2.65481
G1 X151.834 Y110.712 E2.7016
G1 X152.017 Y111.714 E2.75242
G1 X152.111 Y112.856 E2.80958
G1 X152.125 Y113.505 E2.84197
G1 X152.124 Y115.649 E2.94893
G1 X152.111 Y116.413 E2.98706
G1 X152.051 Y117.377 E3.03524
G1 X151.948 Y118.113 E3.07232
G1 X151.896 Y118.409 E3.08731
G1 X151.687 Y119.364 E3.13609
G1 X151.288 Y120.622 E3.20193
G1 X150.891 Y121.57 E3.25321
G1 X150.329 Y122.618 E3.31253
G1 X149.238 Y124.411 E3.41725
G1 X147.862 Y126.737 E3.55207
G1 X146.802 Y128.633 E3.66045
G1 X146.508 Y129.134 E3.68943
G1 X145.972 Y129.945 E3.73793
G1 X145.412 Y130.653 E3.78296
G1 X144.795 Y131.313 E3.82804
G1 X144.24 Y131.844 E3.86636
G1 X143.859 Y132.184 E3.89183
G1 X143.132 Y132.778 E3.93867
G1 X142.296 Y133.344 E3.98904
G1 X141.444 Y133.815 E4.03761
G1 X140.56 Y134.207 E4.08585
G1 X139.839 Y134.462 E4.12401
G1 X139.137 Y134.674 E4.16059
G1 X138.503 Y134.845 E4.19335
G1 X137.551 Y135.057 E4.24201
G1 X136.552 Y135.186 E4.29227
G1 X135.693 Y135.251 E4.33525
G1 X134.854 Y135.295 E4.37716
G1 X134.381 Y135.308 E4.40077
G1 X133.26 Y135.315 E4.4567
G1 X132.695 Y135.302 E4.48489
G1 X131.631 Y135.249 E4.53804
G1 X130.632 Y135.173 E4.58802
G1 X128.06 Y135.011 E4.7166
G1 X125.537 Y134.924 E4.84254
G1 X123.007 Y134.908 E4.96877
G1 X120.545 Y134.963 E5.09163
G1 X117.069 Y135.154 E5.26531
G1 X115.921 Y135.237 E5.32273
G1 X114.854 Y135.295 E5.37604
G1 X114.382 Y135.308 E5.3996
G1 X113.26 Y135.315 E5.45558
G1 X112.693 Y135.302 E5.48387
G1 X111.528 Y135.241 E5.54208
G1 X110.393 Y135.143 E5.59891
G1 X109.463 Y135.02 E5.64571
G1 X108.462 Y134.795 E5.6969
G1 X107.191 Y134.362 E5.76389
G1 X106.58 Y134.108 E5.7969
G1 X105.7 Y133.692 E5.84546
G1 X104.858 Y133.198 E5.89417
G1 X104.069 Y132.637 E5.94247
G1 X103.45 Y132.15 E5.98176
G1 X102.714 Y131.513 E6.03032
G1 X102.084 Y130.866 E6.07538
G1 X101.434 Y130.067 E6.12676
G1 X101.111 Y129.608 E6.15476
G1 X100.499 Y128.678 E6.21031
G1 X100.12 Y128.066 E6.24622
G1 X99.646 Y127.216 E6.29477
G1 X99.249 Y126.325 E6.34344
G1 X98.933 Y125.405 E6.39197
G1 X98.713 Y124.529 E6.43703
G1 X98.583 Y123.775 E6.4752
G1 X98.424 Y122.603 E6.53421
G1 X98.322 Y121.759 E6.57662
G1 X98.037 Y119.811 E6.67485
G1 X97.956 Y119.066 E6.71223
G1 X97.925 Y118.647 E6.73319
G1 X97.897 Y117.942 E6.76839
G1 X97.894 Y117.5 E6.79045
G1 X97.921 Y116.684 E6.83118
G1 X97.957 Y116.176 E6.85659
G1 X98.128 Y114.891 E6.92126
G1 X98.218 Y114.433 E6.94455
G1 X98.377 Y113.755 E6.97929
G1 X98.478 Y113.378 E6.99876
G1 X98.685 Y112.7 E7.03413
G1 X98.822 Y112.301 E7.05518
G1 X99.128 Y111.508 E7.09758
G1 X99.302 Y111.107 E7.11939
G1 X99.907 Y109.918 E7.18595
G1 X100.247 Y109.341 E7.21936
G1 X100.739 Y108.583 E7.26444
G1 X101.124 Y108.074 E7.29629
G1 X101.454 Y107.662 E7.32262
G1 X101.879 Y107.165 E7.35525
G1 X102.218 Y106.792 E7.38039
G1 X102.854 Y106.151 E7.42544
G0 F6000 X103.138 Y106.433
G1 F1200 X103.928 Y105.752 E7.47748
G1 X104.596 Y105.23 E7.51977
G1 X105.301 Y104.752 E7.56227
G1 X105.649 Y104.534 E7.58275
G1 X106.245 Y104.187 E7.61716
G1 X106.581 Y104.006 E7.6362
G1 X107.354 Y103.63 E7.67909
G1 X107.731 Y103.466 E7.6996
G1 X108.894 Y103.04 E7.76139
G1 X109.42 Y102.883 E7.78878
G1 X110.088 Y102.708 E7.82323
G1 X110.401 Y102.637 E7.83924
G1 X111.096 Y102.504 E7.87454
G1 X111.396 Y102.457 E7.88969
G1 X112.088 Y102.373 E7.92447
G1 X112.439 Y102.342 E7.94205
G1 X113.132 Y102.303 E7.97668
G1 X113.656 Y102.292 E8.00283
G1 X114.542 Y102.312 E8.04704
G1 X116.712 Y102.45 E8.15552
G1 X120.325 Y102.572 E8.33588
G1 X121.893 Y102.596 E8.41412
G1 X123.689 Y102.646 E8.50375
G1 X126.202 Y102.646 E8.62913
G1 X128.767 Y102.573 E8.75715
G1 X131.252 Y102.432 E8.88132
G1 X132.461 Y102.334 E8.94184
G1 X133.073 Y102.304 E8.97241
G1 X133.666 Y102.292 E9.002
G1 X134.542 Y102.312 E9.04571
G1 X136.713 Y102.45 E9.15424
G1 X140.323 Y102.572 E9.33445
G1 X141.297 Y102.588 E9.38305
G1 X142.234 Y102.645 E9.42988
G1 X143.161 Y102.786 E9.47666
G1 X144.074 Y103.007 E9.52353
G1 X144.963 Y103.309 E9.57037
G1 X145.821 Y103.687 E9.61715
G1 X146.613 Y104.122 E9.66223
G1 X147.421 Y104.666 E9.71082
G1 X148.15 Y105.256 E9.75761
G1 X148.824 Y105.91 E9.80447
G1 X149.437 Y106.62 E9.85126
G1 X149.986 Y107.383 E9.89816
G1 X150.463 Y108.189 E9.94489
G1 X150.869 Y109.035 E9.9917
G1 X151.198 Y109.915 E10.03857
G1 X151.448 Y110.819 E10.08537
G1 X151.618 Y111.747 E10.13244
G1 X151.712 Y112.889 E10.1896
G1 X151.725 Y113.505 E10.22034
G1 X151.724 Y115.643 E10.32701
G1 X151.712 Y116.389 E10.36423
G1 X151.655 Y117.322 E10.41086
G1 X151.554 Y118.044 E10.44724
G1 X151.505 Y118.323 E10.46137
G1 X151.296 Y119.278 E10.51014
G1 X150.919 Y120.467 E10.57237
G1 X150.522 Y121.415 E10.62365
G1 X149.987 Y122.41 E10.68001
G1 X148.896 Y124.203 E10.78472
G1 X147.518 Y126.533 E10.91977
G1 X146.457 Y128.431 E11.02825
G1 X146.174 Y128.914 E11.05618
G1 X145.658 Y129.697 E11.10297
G1 X145.098 Y130.405 E11.148
G1 X144.519 Y131.024 E11.19029
G1 X143.973 Y131.546 E11.22798
G1 X143.606 Y131.874 E11.25253
G1 X142.879 Y132.468 E11.29937
G1 X142.102 Y132.994 E11.34618
G1 X141.281 Y133.45 E11.39303
G1 X140.427 Y133.83 E11.43967
G1 X139.723 Y134.079 E11.47692
G1 X139.032 Y134.288 E11.51294
G1 X138.416 Y134.455 E11.54478
G1 X137.499 Y134.66 E11.59166
G1 X136.522 Y134.787 E11.64081
G1 X135.672 Y134.852 E11.68334
G1 X134.843 Y134.895 E11.72476
G1 X134.378 Y134.908 E11.74797
G1 X133.269 Y134.915 E11.8033
G1 X132.715 Y134.903 E11.83094
G1 X131.661 Y134.85 E11.88359
G1 X130.662 Y134.774 E11.93358
G1 X128.074 Y134.611 E12.06295
G1 X125.551 Y134.524 E12.1889
G1 X123.001 Y134.508 E12.31612
G1 X120.536 Y134.563 E12.43913
G1 X117.04 Y134.755 E12.61381
G1 X115.899 Y134.838 E12.67088
G1 X114.843 Y134.895 E12.72364
G1 X114.379 Y134.908 E12.7468
G1 X113.269 Y134.915 E12.80218
G1 X112.714 Y134.903 E12.82988
G1 X111.562 Y134.842 E12.88743
G1 X110.445 Y134.746 E12.94336
G1 X109.515 Y134.623 E12.99016
G1 X108.591 Y134.416 E13.03741
G1 X107.32 Y133.983 E13.1044
G1 X106.75 Y133.746 E13.13519
G1 X105.902 Y133.347 E13.18195
G1 X105.09 Y132.872 E13.22888
G1 X104.301 Y132.311 E13.27718
G1 X103.711 Y131.847 E13.31463
G1 X103.001 Y131.234 E13.36143
G1 X102.371 Y130.587 E13.40648
G1 X101.761 Y129.837 E13.45471
G1 X101.445 Y129.388 E13.4821
G1 X100.839 Y128.467 E13.53711
G1 X100.469 Y127.871 E13.57211
G1 X100.011 Y127.052 E13.61892
G1 X99.627 Y126.195 E13.66577
G1 X99.321 Y125.308 E13.71258
G1 X99.101 Y124.432 E13.75764
G1 X98.979 Y123.721 E13.79364
G1 X98.821 Y122.555 E13.85234
G1 X98.719 Y121.711 E13.89475
G1 X98.435 Y119.767 E13.99277
G1 X98.355 Y119.036 E14.02946
G1 X98.325 Y118.631 E14.04972
G1 X98.297 Y117.939 E14.08427
G1 X98.294 Y117.513 E14.10552
G1 X98.32 Y116.712 E14.14551
G1 X98.354 Y116.229 E14.16966
G1 X98.521 Y114.968 E14.23312
G1 X98.608 Y114.524 E14.2557
G1 X98.763 Y113.859 E14.28976
G1 X98.861 Y113.494 E14.30862
G1 X99.063 Y112.83 E14.34324
G1 X99.195 Y112.445 E14.36355
G1 X99.495 Y111.667 E14.40515
G1 X99.669 Y111.266 E14.42696
G1 X100.252 Y110.121 E14.49106
G1 X100.583 Y109.559 E14.5236
G1 X101.075 Y108.801 E14.56868
G1 X101.436 Y108.324 E14.59853
G1 X101.758 Y107.922 E14.62423
G1 X102.175 Y107.434 E14.65625
G1 X102.502 Y107.074 E14.68051
G1 X103.138 Y106.433 E14.72556
G0 F6000 X103.422 Y106.715
G1 F1200 X104.175 Y106.067 E14.77513
G1 X104.821 Y105.561 E14.81607
G1 X105.514 Y105.091 E14.85784
G1 X105.85 Y104.88 E14.87763
G1 X106.435 Y104.539 E14.91142
G1 X106.756 Y104.366 E14.92961
G1 X107.514 Y103.997 E14.97167
G1 X107.869 Y103.842 E14.99099
G1 X109.032 Y103.416 E15.05279
G1 X109.521 Y103.27 E15.07825
G1 X110.177 Y103.098 E15.11208
G1 X110.476 Y103.03 E15.12738
G1 X111.158 Y102.899 E15.16203
G1 X111.445 Y102.854 E15.17652
G1 X112.123 Y102.771 E15.2106
G1 X112.461 Y102.741 E15.22753
G1 X113.141 Y102.703 E15.26151
G1 X113.647 Y102.692 E15.28676
G1 X114.517 Y102.711 E15.33017
G1 X116.699 Y102.85 E15.43925
G1 X120.312 Y102.972 E15.61961
G1 X121.882 Y102.996 E15.69795
G1 X123.678 Y103.046 E15.78758
G1 X126.213 Y103.046 E15.91405
G1 X128.778 Y102.973 E16.04207
G1 X131.284 Y102.83 E16.1673
G1 X132.481 Y102.734 E16.22721
G1 X133.081 Y102.704 E16.25718
G1 X133.657 Y102.692 E16.28593
G1 X134.517 Y102.711 E16.32884
G1 X136.699 Y102.85 E16.43792
G1 X140.309 Y102.972 E16.61813
G1 X141.273 Y102.987 E16.66623
G1 X142.175 Y103.041 E16.71131
G1 X143.068 Y103.175 E16.75636
G1 X143.946 Y103.386 E16.80141
G1 X144.802 Y103.675 E16.84649
G1 X145.628 Y104.038 E16.8915
G1 X146.42 Y104.473 E16.93658
G1 X147.17 Y104.977 E16.98166
G1 X147.872 Y105.544 E17.02668
G1 X148.522 Y106.172 E17.07178
G1 X149.113 Y106.854 E17.1168
G1 X149.642 Y107.587 E17.1619
G1 X150.103 Y108.363 E17.20693
G1 X150.495 Y109.176 E17.25196
G1 X150.813 Y110.022 E17.29705
G1 X151.055 Y110.892 E17.3421
G1 X151.219 Y111.78 E17.38715
G1 X151.312 Y112.898 E17.44312
G1 X151.325 Y113.505 E17.47341
G1 X151.324 Y115.637 E17.57978
G1 X151.313 Y116.365 E17.6161
G1 X151.259 Y117.267 E17.66118
G1 X151.16 Y117.975 E17.69685
G1 X151.114 Y118.237 E17.71012
G1 X150.905 Y119.192 E17.75889
G1 X150.55 Y120.312 E17.81751
G1 X150.153 Y121.26 E17.86879
G1 X149.645 Y122.202 E17.92218
G1 X148.554 Y123.995 E18.02689
G1 X147.174 Y126.329 E18.16217
G1 X146.112 Y128.229 E18.27076
G1 X145.84 Y128.694 E18.29764
G1 X145.344 Y129.449 E18.34271
G1 X144.784 Y130.157 E18.38774
G1 X144.243 Y130.735 E18.42724
G1 X143.706 Y131.248 E18.46429
G1 X143.352 Y131.565 E18.488
G1 X142.654 Y132.137 E18.53302
G1 X141.907 Y132.645 E18.57809
G1 X141.118 Y133.085 E18.62316
G1 X140.294 Y133.453 E18.66818
G1 X139.607 Y133.696 E18.70454
G1 X138.927 Y133.902 E18.73999
G1 X138.328 Y134.065 E18.77096
G1 X137.447 Y134.263 E18.81601
G1 X136.491 Y134.388 E18.86411
G1 X135.652 Y134.453 E18.90609
G1 X134.832 Y134.495 E18.94705
G1 X134.375 Y134.508 E18.96986
G1 X133.277 Y134.515 E19.02464
G1 X132.735 Y134.504 E19.05169
G1 X131.691 Y134.451 E19.10384
G1 X130.692 Y134.375 E19.15383
G1 X128.088 Y134.211 E19.284
G1 X125.565 Y134.124 E19.40995
G1 X122.994 Y134.108 E19.53822
G1 X120.527 Y134.163 E19.66133
G1 X117.011 Y134.356 E19.837
G1 X115.878 Y134.439 E19.89368
G1 X114.832 Y134.495 E19.94594
G1 X114.376 Y134.508 E19.9687
G1 X113.277 Y134.515 E20.02353
G1 X112.735 Y134.504 E20.05058
G1 X111.596 Y134.443 E20.10748
G1 X110.497 Y134.349 E20.16251
G1 X109.601 Y134.232 E20.20759
G1 X108.72 Y134.037 E20.25261
G1 X107.449 Y133.604 E20.3196
G1 X106.92 Y133.384 E20.34818
G1 X106.103 Y133.001 E20.3932
G1 X105.322 Y132.546 E20.43829
G1 X104.533 Y131.985 E20.48659
G1 X103.972 Y131.544 E20.52219
G1 X103.288 Y130.955 E20.56723
G1 X102.658 Y130.308 E20.61228
G1 X102.088 Y129.607 E20.65736
G1 X101.779 Y129.168 E20.68414
G1 X101.179 Y128.256 E20.7386
G1 X100.818 Y127.675 E20.77273
G1 X100.376 Y126.888 E20.81776
G1 X100.005 Y126.064 E20.86285
G1 X99.709 Y125.211 E20.90789
G1 X99.489 Y124.335 E20.95295
G1 X99.375 Y123.667 E20.98676
G1 X99.218 Y122.507 E21.04516
G1 X99.116 Y121.663 E21.08758
G1 X98.833 Y119.723 E21.18539
G1 X98.754 Y119.006 E21.22137
G1 X98.725 Y118.614 E21.24099
G1 X98.697 Y117.936 E21.27484
G1 X98.694 Y117.526 E21.2953
G1 X98.719 Y116.74 E21.33453
G1 X98.751 Y116.282 E21.35743
G1 X98.918 Y115.021 E21.4209
G1 X98.998 Y114.615 E21.44154
G1 X99.153 Y113.95 E21.47561
G1 X99.244 Y113.61 E21.49317
G1 X99.442 Y112.959 E21.52711
G1 X99.568 Y112.589 E21.54661
G1 X99.862 Y111.826 E21.58741
G1 X100.026 Y111.447 E21.60801
G1 X100.597 Y110.324 E21.67086
G1 X100.919 Y109.777 E21.70253
G1 X101.411 Y109.019 E21.74762
G1 X101.748 Y108.574 E21.77546
G1 X102.062 Y108.182 E21.80052
G1 X102.471 Y107.703 E21.83195
G1 X102.786 Y107.356 E21.85533
G1 X103.422 Y106.715 E21.90038
G1 F1500 E15.40038
G0 F6000 X111.886 Y117.193
G1 F1500 E21.90038
G1 F1200 X112.143 Y117.097 E21.91406
G1 X112.786 Y116.947 E21.94701
G1 X113.131 Y116.9 E21.96438
G1 X113.368 Y116.901 E21.9762
G1 X114.2 Y116.948 E22.01778
G1 X114.603 Y117.031 E22.0383
G1 X115.065 Y117.165 E22.0623
G1 X115.385 Y117.278 E22.07923
G1 X115.417 Y117.469 E22.08889
G1 X115.415 Y117.823 E22.10656
G1 X115.393 Y118.202 E22.1255
G1 X115.393 Y118.219 E22.12634
G1 X115.401 Y118.538 E22.14226
G1 X115.374 Y118.592 E22.14528
G1 X115.281 Y118.744 E22.15417
G1 X115.182 Y118.878 E22.16248
G1 X115.074 Y119.002 E22.17068
G1 X114.95 Y119.123 E22.17933
G1 X114.808 Y119.236 E22.18838
G1 X114.675 Y119.326 E22.19639
G1 X114.516 Y119.415 E22.20548
G1 X114.297 Y119.514 E22.21747
G1 X114.046 Y119.579 E22.23041
G1 X113.879 Y119.608 E22.23887
G1 X113.631 Y119.63 E22.25129
G1 X113.376 Y119.609 E22.26405
G1 X113.212 Y119.58 E22.27236
G1 X113.025 Y119.532 E22.28199
G1 X112.893 Y119.486 E22.28897
G1 X112.724 Y119.41 E22.29821
G1 X112.501 Y119.284 E22.31099
G1 X112.301 Y119.123 E22.3238
G1 X112.177 Y119.003 E22.33241
G1 X112.073 Y118.887 E22.34018
G1 X111.977 Y118.758 E22.3482
G1 X111.882 Y118.6 E22.3574
G1 X111.815 Y118.471 E22.36465
G1 X111.832 Y118.198 E22.3783
G1 X111.832 Y118.188 E22.3788
G1 X111.835 Y117.915 E22.39242
G1 X111.831 Y117.875 E22.39442
G1 X111.816 Y117.797 E22.39839
G1 X111.837 Y117.382 E22.41912
G1 X111.886 Y117.193 E22.42886
G0 F6000 X112.231 Y117.492
G1 F1200 X112.265 Y117.479 E22.43068
G1 X112.846 Y117.343 E22.46044
G1 X113.162 Y117.3 E22.47636
G1 X113.362 Y117.301 E22.48633
G1 X114.144 Y117.345 E22.52541
G1 X114.514 Y117.422 E22.54426
G1 X114.935 Y117.543 E22.56612
G1 X115.016 Y117.572 E22.57041
G1 X115.015 Y117.809 E22.58223
G1 X114.994 Y118.179 E22.60072
G1 X114.993 Y118.229 E22.60322
G1 X114.998 Y118.44 E22.61375
G1 X114.948 Y118.522 E22.61854
G1 X114.879 Y118.616 E22.62436
G1 X114.78 Y118.73 E22.63189
G1 X114.686 Y118.821 E22.63842
G1 X114.568 Y118.915 E22.64594
G1 X114.464 Y118.986 E22.65223
G1 X114.341 Y119.055 E22.65926
G1 X114.159 Y119.137 E22.66922
G1 X113.963 Y119.188 E22.67933
G1 X113.836 Y119.21 E22.68576
G1 X113.628 Y119.228 E22.69617
G1 X113.426 Y119.212 E22.70628
G1 X113.291 Y119.188 E22.71312
G1 X113.145 Y119.15 E22.72065
G1 X113.037 Y119.112 E22.72636
G1 X112.906 Y119.054 E22.73351
G1 X112.725 Y118.952 E22.74387
G1 X112.565 Y118.822 E22.75416
G1 X112.478 Y118.738 E22.76019
G1 X112.379 Y118.628 E22.76758
G1 X112.307 Y118.53 E22.77364
G1 X112.23 Y118.403 E22.78105
G1 X112.221 Y118.386 E22.78201
G1 X112.231 Y118.223 E22.79016
G1 X112.232 Y118.193 E22.79166
G1 X112.235 Y117.92 E22.80528
G1 X112.224 Y117.8 E22.81129
G1 X112.218 Y117.767 E22.81296
G1 X112.231 Y117.492 E22.8267
G0 F6000 X112.624 Y117.806
