; generated by PrusaSlicer 2.7.1+win64 on 2024-02-26 at 00:25:23 UTC

; 

; external perimeters extrusion width = 0.45mm
; perimeters extrusion width = 0.45mm
; infill extrusion width = 0.45mm
; solid infill extrusion width = 0.45mm
; top infill extrusion width = 0.40mm
; first layer extrusion width = 0.42mm

; external perimeters extrusion width = 0.45mm
; perimeters extrusion width = 0.45mm
; infill extrusion width = 0.45mm
; solid infill extrusion width = 0.45mm
; top infill extrusion width = 0.40mm
; first layer extrusion width = 0.42mm

M73 P0 R14
M190 S50 ; set bed temperature and wait for it to be reached
M104 S230 ; set temperature
;TYPE:Custom
START_PRINT EXTRUDER_TEMP=230 BED_TEMP=50 Z_OFFSET=0.1
M109 S230 ; set temperature and wait for it to be reached
G21 ; set units to millimeters
G90 ; use absolute coordinates
M83 ; use relative distances for extrusion
; Filament gcode
M107
;LAYER_CHANGE
;Z:0.3
;HEIGHT:0.3
;BEFORE_LAYER_CHANGE
G92 E0
;0.3


G10 ; retract
G1 Z.3 F7800
;AFTER_LAYER_CHANGE
;0.3
G1 X79.009 Y91.88
G11 ; unretract
;TYPE:Skirt/Brim
;WIDTH:0.42
G1 F1800
G1 X80.37 Y90.83 E.07624
G1 X81.839 Y90.134 E.0721
G1 X83.372 Y89.706 E.0706
G1 X120.082 Y86.656 E1.63388
G1 X121.579 Y86.693 E.06642
G1 X122.433 Y86.805 E.0382
G1 X124.221 Y87.283 E.08209
G1 X125.017 Y87.613 E.03822
G1 X126.617 Y88.538 E.08197
G1 X127.3 Y89.064 E.03824
G1 X151.424 Y110.056 E1.41841
G1 X152.415 Y111.375 E.07318
G1 X153.353 Y113.28 E.09418
G1 X153.662 Y114.381 E.05072
G1 X153.844 Y115.926 E.069
G1 X153.808 Y117.393 E.06509
G1 X153.387 Y119.275 E.08554
G1 X153.034 Y120.165 E.04247
G1 X152.108 Y121.724 E.08043
G1 X151.3 Y122.73 E.05723
G1 X149.907 Y123.926 E.08144
G1 X148.802 Y124.581 E.05698
G1 X147.352 Y125.174 E.06949
G1 X87.482 Y142.705 E2.76703
G1 X85.796 Y143.043 E.07627
G1 X84.138 Y143.038 E.07354
G1 X83.214 Y142.912 E.04136
G1 X82.306 Y142.693 E.04143
G1 X81.427 Y142.367 E.04158
G1 X80.344 Y141.807 E.05408
G1 X79.581 Y141.287 E.04095
G1 X78.616 Y140.434 E.05713
G1 X77.694 Y139.282 E.06545
G1 X76.893 Y137.882 E.07154
G1 X76.529 Y136.924 E.04546
G1 X76.278 Y135.815 E.05043
G1 X76.147 Y134.667 E.05125
G1 X76.154 Y98.062 E1.62361
G1 X76.301 Y96.634 E.06367
G1 X76.641 Y95.433 E.05536
G1 X77.04 Y94.462 E.04656
G1 X77.978 Y92.974 E.07802
G1 X78.96 Y91.933 E.06348
G1 X79.218 Y92.177 F7800
G1 F1800
G1 X79.259 Y92.133 E.00267
G1 X80.551 Y91.136 E.07239
G1 X81.97 Y90.464 E.06964
G1 X83.435 Y90.056 E.06745
G1 X120.111 Y87.011 E1.63235
G1 X121.533 Y87.045 E.06309
M73 P1 R14
G1 X122.387 Y87.157 E.0382
G1 X124.084 Y87.612 E.07793
G1 X124.881 Y87.942 E.03826
G1 X126.4 Y88.82 E.07782
G1 X127.083 Y89.345 E.03821
G1 X151.164 Y110.3 E1.41589
G1 X152.109 Y111.556 E.06972
G1 X153.016 Y113.394 E.09091
G1 X153.314 Y114.456 E.04892
G1 X153.489 Y115.95 E.06672
G1 X153.455 Y117.355 E.06234
G1 X153.05 Y119.161 E.08209
G1 X152.711 Y120.016 E.0408
G1 X151.812 Y121.528 E.07802
G1 X151.04 Y122.487 E.05461
G1 X149.705 Y123.633 E.07804
G1 X148.634 Y124.268 E.05523
G1 X147.252 Y124.833 E.06622
G1 X87.382 Y142.364 E2.76703
G1 X85.755 Y142.689 E.07359
G1 X84.181 Y142.685 E.06981
G1 X83.279 Y142.562 E.04038
G1 X82.412 Y142.353 E.03956
G1 X81.573 Y142.042 E.03969
G1 X80.529 Y141.503 E.05211
G1 X79.8 Y141.006 E.03913
G1 X78.869 Y140.184 E.05509
G1 X77.993 Y139.09 E.06216
G1 X77.217 Y137.737 E.06918
G1 X76.868 Y136.817 E.04364
G1 X76.63 Y135.764 E.04788
G1 X76.502 Y134.646 E.04991
G1 X76.51 Y98.062 E1.62268
G1 X76.649 Y96.706 E.06046
G1 X76.975 Y95.557 E.05298
G1 X77.361 Y94.615 E.04515
G1 X78.255 Y93.198 E.07431
G1 X79.169 Y92.229 E.05908
G1 X79.427 Y92.473 F7800
G1 F1800
G1 X79.509 Y92.386 E.0053
G1 X80.733 Y91.442 E.06856
G1 X82.1 Y90.795 E.06708
G1 X83.498 Y90.406 E.06436
G1 X120.14 Y87.365 E1.63084
G1 X121.487 Y87.398 E.05976
G1 X122.341 Y87.51 E.0382
G1 X123.948 Y87.94 E.07379
G1 X124.744 Y88.27 E.03822
G1 X126.184 Y89.102 E.07377
G1 X126.867 Y89.627 E.03821
G1 X150.905 Y110.543 E1.41331
G1 X151.803 Y111.737 E.06627
M73 P2 R14
G1 X152.679 Y113.507 E.0876
G1 X152.967 Y114.532 E.04722
G1 X153.134 Y115.975 E.06443
G1 X153.101 Y117.317 E.05954
G1 X152.714 Y119.048 E.07867
G1 X152.078 Y120.459 E.06865
G1 X151.516 Y121.331 E.04601
G1 X150.781 Y122.243 E.05195
G1 X149.504 Y123.34 E.07467
G1 X148.466 Y123.954 E.05349
G1 X147.152 Y124.491 E.06296
G1 X87.282 Y142.023 E2.76704
G1 X85.715 Y142.336 E.07088
G1 X84.224 Y142.332 E.06613
G1 X83.344 Y142.213 E.03939
G1 X82.518 Y142.014 E.03769
G1 X81.718 Y141.718 E.03783
G1 X80.713 Y141.199 E.05017
G1 X80.018 Y140.726 E.03729
G1 X79.122 Y139.934 E.05304
G1 X78.293 Y138.898 E.05885
G1 X77.542 Y137.592 E.06682
G1 X77.208 Y136.711 E.04179
G1 X76.982 Y135.714 E.04534
G1 X76.857 Y134.625 E.04862
G1 X76.865 Y98.062 E1.62175
G1 X76.997 Y96.778 E.05725
G1 X77.309 Y95.68 E.05063
G1 X77.682 Y94.768 E.0437
G1 X78.531 Y93.422 E.07059
G1 X79.378 Y92.525 E.05472
G10 ; retract
G1 X79.378 Y92.525 F7800
G1 X104.753 Y121.072
G11 ; unretract
;TYPE:Perimeter
;WIDTH:0.42
G1 F1800
G1 X104.257 Y121.157 E.02232
G1 X103.639 Y121.185 E.02744
G1 X103.084 Y121.139 E.0247
G1 X102.635 Y121.071 E.02014
G1 X102.044 Y120.891 E.0274
G1 X101.235 Y120.513 E.03961
G1 X100.788 Y120.196 E.02431
G1 X100.367 Y119.869 E.02364
G1 X99.895 Y119.352 E.03105
G1 X99.555 Y118.87 E.02616
G1 X99.306 Y118.404 E.02343
G1 X99.019 Y117.627 E.03674
G1 X98.916 Y117.032 E.02678
G1 X98.841 Y116.399 E.02827
G1 X98.894 Y115.655 E.03308
G1 X98.932 Y115.372 E.01267
G1 X99.124 Y114.68 E.03185
G1 X99.395 Y114.105 E.02819
G1 X99.641 Y113.649 E.02298
G1 X100.04 Y113.124 E.02925
G1 X100.4 Y112.772 E.02233
G1 X100.786 Y112.432 E.02282
G1 X101.339 Y112.073 E.02924
G1 X102.244 Y111.684 E.04369
G1 X103.085 Y111.5 E.03818
G1 X103.66 Y111.482 E.02552
G1 X104.272 Y111.5 E.02716
G1 X104.841 Y111.592 E.02557
G1 X105.674 Y111.873 E.03899
G1 X106.446 Y112.302 E.03917
G1 X107.121 Y112.856 E.03873
G1 X107.601 Y113.418 E.03278
G1 X107.774 Y113.652 E.01291
G1 X108.121 Y114.276 E.03167
G1 X108.416 Y115.097 E.03869
G1 X108.514 Y115.658 E.02526
G1 X108.568 Y116.15 E.02195
G1 X108.531 Y116.955 E.03574
G1 X108.375 Y117.665 E.03224
G1 X108.287 Y117.968 E.01399
G1 X107.998 Y118.621 E.03167
G1 X107.525 Y119.341 E.03821
G1 X106.917 Y119.982 E.03919
G1 X106.21 Y120.499 E.03885
G1 X105.418 Y120.88 E.03898
G1 X104.839 Y121.057 E.02685
G1 X104.824 Y121.059 E.00067
G1 X104.773 Y120.705 F7800
G1 F1800
G1 X104.741 Y120.715 E.00149
G1 X104.201 Y120.805 E.02428
G1 X103.626 Y120.83 E.02553
G1 X102.732 Y120.729 E.03991
G1 X102.194 Y120.569 E.0249
G1 X101.385 Y120.191 E.03961
G1 X100.634 Y119.629 E.0416
G1 X100.16 Y119.114 E.03105
G1 X99.849 Y118.669 E.02408
G1 X99.605 Y118.205 E.02325
G1 X99.353 Y117.507 E.03292
G1 X99.197 Y116.415 E.04893
G1 X99.275 Y115.467 E.04219
G1 X99.467 Y114.775 E.03185
G1 X99.712 Y114.265 E.0251
G1 X99.944 Y113.838 E.02155
G1 X100.323 Y113.34 E.02776
G1 X100.907 Y112.786 E.0357
G1 X101.533 Y112.371 E.03331
G1 X102.379 Y112.013 E.04075
G1 X103.154 Y111.849 E.03514
G1 X104.215 Y111.851 E.04706
G1 X104.784 Y111.943 E.02557
G1 X105.555 Y112.208 E.03616
G1 X106.268 Y112.61 E.03631
G1 X106.891 Y113.127 E.03591
G1 X107.463 Y113.825 E.04003
G1 X107.811 Y114.449 E.03169
G1 X108.079 Y115.211 E.03583
G1 X108.212 Y116.134 E.04136
G1 X108.176 Y116.939 E.03574
G1 X107.962 Y117.824 E.04039
G1 X107.673 Y118.477 E.03167
G1 X107.231 Y119.141 E.03538
G1 X106.664 Y119.732 E.03633
G1 X106.005 Y120.208 E.03606
G1 X105.269 Y120.557 E.03613
G1 X104.842 Y120.685 E.01977
G1 X104.674 Y120.364 F7800
;TYPE:External perimeter
G1 F1800
G1 X104.632 Y120.376 E.00194
G1 X104.123 Y120.456 E.02285
G1 X103.54 Y120.477 E.02588
G1 X102.856 Y120.393 E.03057
G1 X102.371 Y120.257 E.02234
G1 X101.536 Y119.869 E.04084
G1 X100.851 Y119.347 E.0382
G1 X100.424 Y118.876 E.0282
G1 X100.138 Y118.462 E.02232
G1 X99.838 Y117.803 E.03212
G1 X99.679 Y117.351 E.02125
G1 X99.553 Y116.463 E.03978
G1 X99.618 Y115.562 E.04007
G1 X99.809 Y114.871 E.0318
G1 X100.191 Y114.107 E.03789
G1 X100.606 Y113.555 E.03063
G1 X101.149 Y113.047 E.03298
G1 X101.726 Y112.669 E.0306
G1 X102.514 Y112.342 E.03784
G1 X103.224 Y112.198 E.03213
G1 X104.132 Y112.2 E.04027
G1 X104.727 Y112.294 E.02672
G1 X105.436 Y112.543 E.03333
G1 X106.091 Y112.918 E.03348
G1 X106.66 Y113.398 E.03302
G1 X107.051 Y113.87 E.02719
G1 X107.5 Y114.622 E.03885
G1 X107.743 Y115.326 E.03303
G1 X107.857 Y116.118 E.03549
G1 X107.821 Y116.923 E.03574
G1 X107.684 Y117.497 E.02617
M73 P3 R14
G1 X107.347 Y118.333 E.03998
G1 X106.937 Y118.941 E.03253
G1 X106.41 Y119.483 E.03353
G1 X105.8 Y119.917 E.03321
G1 X105.12 Y120.234 E.03328
G1 X104.743 Y120.344 E.01742
G1 X104.271 Y120.431 F7800
G10 ; retract
G1 X143.093 Y116.85
G11 ; unretract
;TYPE:Perimeter
G1 F1800
G1 X143.189 Y117.097 E.01175
G1 X143.415 Y117.412 E.0172
G1 X138.813 Y117.486 E.20415
G1 X133.558 Y117.635 E.23318
G1 X132.059 Y117.688 E.06653
G1 X129.067 Y117.838 E.13288
G1 X127.064 Y117.975 E.08905
G1 X123.267 Y118.331 E.16915
G1 X122.116 Y118.471 E.05143
G1 X120.206 Y118.745 E.08558
G1 X118.704 Y118.994 E.06753
G1 X116.431 Y119.443 E.10277
G1 X114.529 Y119.896 E.08672
G1 X113.019 Y120.302 E.06935
G1 X111.58 Y120.74 E.06672
G1 X109.148 Y121.597 E.11437
G1 X105.188 Y122.447 E.17965
G1 X104.666 Y122.576 E.02385
G1 X104.366 Y122.786 E.01624
G1 X104.213 Y123.01 E.01203
G1 X104.126 Y123.399 E.01768
G1 X104.131 Y124.296 E.03979
G1 X103.748 Y124.24 E.01717
G1 X103.354 Y124.299 E.01767
G1 X103.374 Y123.535 E.0339
G1 X103.237 Y123.066 E.02167
G1 X103.059 Y122.861 E.01204
G1 X102.747 Y122.691 E.01576
G1 X102.262 Y122.557 E.02232
G1 X101.87 Y122.56 E.01739
G1 X101.51 Y122.736 E.01777
G1 X101.31 Y122.968 E.01359
G1 X99.01 Y126.799 E.19819
G1 X91.863 Y131.402 E.37706
G1 X89.584 Y132.754 E.11753
G1 X88.059 Y133.519 E.07567
G1 X86.494 Y134.223 E.07612
G1 X86.417 Y133.805 E.01885
G1 X86.255 Y133.482 E.01603
G1 X86.747 Y133.338 E.02274
G1 X87.829 Y132.875 E.0522
G1 X89.133 Y132.205 E.06503
G1 X90.687 Y131.3 E.07976
G1 X91.802 Y130.569 E.05914
G1 X92.462 Y130.099 E.03594
G1 X93.211 Y129.525 E.04186
G1 X93.986 Y128.865 E.04515
G1 X94.895 Y128.004 E.05553
G1 X95.694 Y127.108 E.05325
G1 X96.106 Y126.587 E.02946
G1 X96.64 Y125.795 E.04237
G1 X97.165 Y124.817 E.04923
G1 X97.55 Y123.834 E.04683
G1 X97.771 Y122.979 E.03917
G1 X97.875 Y122.241 E.03306
G1 X97.895 Y121.725 E.0229
G1 X97.839 Y120.943 E.03477
G1 X97.677 Y120.185 E.03438
G1 X97.53 Y119.707 E.02218
G1 X97.223 Y119.029 E.03301
G1 X96.762 Y118.345 E.03659
G1 X96.3 Y117.893 E.02867
G1 X95.805 Y117.458 E.02923
G1 X95.156 Y117.068 E.03358
G1 X94.842 Y116.93 E.01521
G1 X94.286 Y116.716 E.02642
G1 X93.413 Y116.503 E.03986
;WIDTH:0.459842
G1 X93.244 Y116.461 E.00859
;WIDTH:0.499684
G1 X93.075 Y116.42 E.00944
;WIDTH:0.539526
G1 X92.907 Y116.379 E.01025
;WIDTH:0.579368
G1 X92.738 Y116.337 E.01119
G1 X92.829 Y116.3 E.00631
;WIDTH:0.54583
G1 X92.921 Y116.264 E.00593
;WIDTH:0.512293
G1 X93.283 Y116.184 E.02071
;WIDTH:0.466146
G1 X93.646 Y116.104 E.01863
;WIDTH:0.42
G1 X94.789 Y115.752 E.05305
G1 X95.572 Y115.352 E.039
G1 X96.057 Y114.987 E.02692
G1 X96.462 Y114.644 E.02354
G1 X96.817 Y114.237 E.02395
G1 X97.094 Y113.804 E.0228
G1 X97.413 Y113.246 E.02851
G1 X97.661 Y112.566 E.0321
G1 X97.765 Y112.111 E.0207
G1 X97.858 Y111.582 E.02382
G1 X97.893 Y110.756 E.03667
G1 X97.854 Y110.227 E.02353
G1 X97.694 Y109.321 E.04081
G1 X97.502 Y108.67 E.0301
G1 X97.144 Y107.801 E.04169
G1 X96.766 Y107.072 E.03642
G1 X96.143 Y106.136 E.04987
G1 X95.639 Y105.479 E.03673
G1 X95.145 Y104.924 E.03296
G1 X94.693 Y104.459 E.02876
G1 X93.658 Y103.504 E.06246
G1 X92.988 Y102.957 E.03836
G1 X92.074 Y102.278 E.0505
G1 X91.084 Y101.609 E.053
G1 X90.115 Y101.008 E.05058
G1 X89.061 Y100.411 E.05373
G1 X87.741 Y99.742 E.06564
G1 X86.309 Y99.171 E.06838
G1 X86.437 Y98.852 E.01525
G1 X86.495 Y98.424 E.01916
G1 X88.808 Y99.493 E.11302
G1 X89.689 Y99.961 E.04425
G1 X90.915 Y100.677 E.06297
G1 X92.587 Y101.715 E.08729
G1 X95.974 Y103.917 E.17919
G1 X99.008 Y105.856 E.15971
G1 X101.31 Y109.689 E.19832
G1 X101.551 Y109.952 E.01582
G1 X102 Y110.118 E.02123
G1 X102.172 Y110.115 E.00763
G1 X102.722 Y109.974 E.02518
G1 X103.057 Y109.797 E.01681
G1 X103.236 Y109.592 E.01207
G1 X103.364 Y109.246 E.01636
G1 X103.354 Y108.359 E.03935
G1 X103.748 Y108.418 E.01767
G1 X104.131 Y108.361 E.01717
G1 X104.126 Y109.258 E.03979
G1 X104.214 Y109.649 E.01778
G1 X104.368 Y109.873 E.01206
G1 X104.557 Y110.026 E.01079
G1 X104.828 Y110.132 E.01291
G1 X109.15 Y111.061 E.19608
G1 X110.707 Y111.627 E.07348
G1 X112.768 Y112.278 E.09587
G1 X113.505 Y112.489 E.034
G1 X115.995 Y113.114 E.11387
G1 X116.689 Y113.268 E.03153
G1 X118.739 Y113.669 E.09265
G1 X121.77 Y114.138 E.13604
G1 X123.625 Y114.365 E.08289
G1 X125.561 Y114.56 E.08631
G1 X127.441 Y114.71 E.08365
G1 X130.159 Y114.878 E.12079
G1 X136.08 Y115.107 E.26282
G1 X139.24 Y115.181 E.1402
G1 X143.43 Y115.241 E.18587
G1 X143.118 Y115.7 E.02462
G1 X143.025 Y116.002 E.01402
G1 X142.985 Y116.293 E.01303
G1 X143.036 Y116.703 E.01833
G1 X143.067 Y116.783 E.00381
G1 X143.417 Y116.73 F7800
G1 F1800
G1 X143.48 Y116.892 E.00771
G1 X143.695 Y117.198 E.01659
G1 X143.906 Y117.375 E.01222
;WIDTH:0.461867
G1 X144.049 Y117.448 E.00796
;WIDTH:0.503734
G1 X144.193 Y117.521 E.00885
;WIDTH:0.545601
G1 X144.336 Y117.594 E.00964
;WIDTH:0.587469
G1 X144.479 Y117.666 E.01045
G1 X144.315 Y117.69 E.01081
;WIDTH:0.545601
G1 X144.152 Y117.714 E.00989
;WIDTH:0.503734
G1 X143.988 Y117.737 E.00907
;WIDTH:0.461867
G1 X143.824 Y117.761 E.00822
;WIDTH:0.42
G1 X138.823 Y117.841 E.22185
G1 X133.568 Y117.991 E.23318
G1 X132.077 Y118.043 E.06617
G1 X129.091 Y118.193 E.13261
G1 X127.097 Y118.329 E.08865
G1 X123.31 Y118.684 E.16871
G1 X122.166 Y118.823 E.05112
G1 X120.256 Y119.097 E.08558
G1 X118.772 Y119.343 E.06672
G1 X116.513 Y119.789 E.10213
G1 X114.596 Y120.246 E.08741
G1 X113.122 Y120.642 E.0677
G1 X111.698 Y121.076 E.06603
G1 X109.244 Y121.94 E.1154
G1 X105.263 Y122.795 E.1806
G1 X104.747 Y122.933 E.02369
G1 X104.534 Y123.163 E.0139
G1 X104.481 Y123.397 E.01064
G1 X104.485 Y124.075 E.03007
G1 X104.517 Y124.865 E.03507
G1 X104.209 Y124.677 E.01601
G1 X103.749 Y124.595 E.02072
G1 X103.357 Y124.66 E.01762
G1 X102.965 Y124.877 E.01987
M73 P4 R14
G1 X102.987 Y124.709 E.00752
G1 X103.018 Y123.554 E.05125
G1 X102.936 Y123.256 E.01371
G1 X102.829 Y123.133 E.00723
G1 X102.627 Y123.026 E.01014
G1 X102.035 Y122.893 E.02691
G1 X101.735 Y123.012 E.01432
G1 X101.615 Y123.151 E.00814
G1 X99.272 Y127.053 E.20188
G1 X92.05 Y131.704 E.38101
G1 X89.755 Y133.066 E.11837
G1 X88.212 Y133.84 E.07657
G1 X86.055 Y134.818 E.10505
G1 X86.15 Y134.45 E.01686
G1 X86.148 Y134.176 E.01215
G1 X86.073 Y133.898 E.01277
G1 X85.913 Y133.577 E.01591
G1 X85.616 Y133.288 E.01838
G1 X86.607 Y133.011 E.04564
G1 X87.663 Y132.56 E.05093
G1 X88.954 Y131.898 E.06435
G1 X90.508 Y130.993 E.07976
G1 X91.596 Y130.279 E.05772
G1 X92.246 Y129.817 E.03537
G1 X92.981 Y129.254 E.04107
G1 X93.738 Y128.61 E.04408
G1 X94.597 Y127.801 E.05234
G1 X95.429 Y126.871 E.05535
G1 X95.812 Y126.387 E.02738
G1 X96.327 Y125.625 E.04079
G1 X96.834 Y124.687 E.04729
G1 X97.218 Y123.704 E.04681
G1 X97.419 Y122.927 E.0356
G1 X97.515 Y122.278 E.0291
G1 X97.54 Y121.745 E.02367
G1 X97.492 Y121.017 E.03236
G1 X97.329 Y120.26 E.03435
G1 X97.204 Y119.847 E.01914
G1 X96.928 Y119.228 E.03006
G1 X96.405 Y118.476 E.04063
G1 X95.72 Y117.839 E.04149
G1 X95.322 Y117.583 E.02099
G1 X94.71 Y117.26 E.03069
G1 X94.2 Y117.061 E.02428
G1 X93.362 Y116.855 E.03828
G1 X92.614 Y116.766 E.03341
G1 X91.9 Y116.727 E.03172
G1 X91.19 Y116.754 E.03151
G1 X91.19 Y115.906 E.03761
G1 X91.959 Y115.924 E.03412
G1 X92.864 Y115.866 E.04022
G1 X93.546 Y115.763 E.03059
G1 X94.535 Y115.472 E.04573
G1 X95.502 Y114.976 E.0482
G1 X96.194 Y114.41 E.03965
G1 X96.547 Y114.005 E.02383
G1 X97.079 Y113.124 E.04565
G1 X97.362 Y112.33 E.03739
G1 X97.503 Y111.563 E.03459
G1 X97.54 Y110.81 E.03344
G1 X97.503 Y110.287 E.02326
G1 X97.353 Y109.42 E.03903
G1 X97.172 Y108.805 E.02844
G1 X96.827 Y107.963 E.04036
G1 X96.47 Y107.269 E.03462
G1 X95.847 Y106.333 E.04987
G1 X95.373 Y105.715 E.03455
G1 X94.889 Y105.172 E.03226
G1 X94.452 Y104.721 E.02785
G1 X93.417 Y103.765 E.06249
