; generated by PrusaSlicer 2.7.1+win64 on 2024-01-29 at 13:20:47 UTC

; 

; external perimeters extrusion width = 0.45mm
; perimeters extrusion width = 0.45mm
; infill extrusion width = 0.45mm
; solid infill extrusion width = 0.45mm
; top infill extrusion width = 0.40mm
; support material extrusion width = 0.35mm
; first layer extrusion width = 0.42mm

M73 P0 R31
M190 S50 ; set bed temperature and wait for it to be reached
M104 S230 ; set temperature
;TYPE:Custom
START_PRINT EXTRUDER_TEMP=230 BED_TEMP=50 Z_OFFSET=0.1
M109 S230 ; set temperature and wait for it to be reached
G21 ; set units to millimeters
G90 ; use absolute coordinates
M83 ; use relative distances for extrusion
; Filament gcode
M107
;LAYER_CHANGE
;Z:0.3
;HEIGHT:0.3
;BEFORE_LAYER_CHANGE
G92 E0
;0.3


G10 ; retract
G1 Z.3 F7800
;AFTER_LAYER_CHANGE
;0.3
G1 X105.817 Y105.72
G11 ; unretract
;TYPE:Skirt/Brim
;WIDTH:0.42
G1 F1800
G1 X107.079 Y104.627 E.07405
G1 X108.485 Y103.679 E.07521
G1 X109.93 Y102.965 E.07149
G1 X111.574 Y102.403 E.07706
G1 X113.207 Y102.071 E.07391
G1 X115.169 Y101.938 E.08722
G1 X116.53 Y102.027 E.0605
G1 X118.19 Y102.335 E.07489
G1 X120.068 Y102.97 E.08793
G1 X121.337 Y103.588 E.06261
G1 X122.523 Y104.325 E.06193
G1 X123.978 Y105.51 E.08323
G1 X125.075 Y106.702 E.07185
G1 X126.377 Y108.585 E.10154
G1 X127.371 Y110.82 E.1085
G1 X127.722 Y112.03 E.05588
G1 X127.94 Y113.245 E.05475
G1 X128.054 Y114.507 E.0562
G1 X128.379 Y125.243 E.47641
G1 X128.25 Y127.198 E.0869
G1 X128.046 Y128.35 E.05189
G1 X127.349 Y130.556 E.10261
G1 X126.333 Y132.545 E.09907
G1 X125.711 Y133.466 E.04929
G1 X124.921 Y134.439 E.05559
G1 X124.111 Y135.273 E.05157
G1 X123.072 Y136.153 E.06039
G1 X122.142 Y136.799 E.05023
G1 X120.237 Y137.82 E.09587
G1 X119.211 Y138.225 E.04893
G1 X116.99 Y138.754 E.10127
G1 X115.803 Y138.871 E.0529
G1 X114.538 Y138.887 E.05611
G1 X112.554 Y138.722 E.0883
G1 X111.414 Y138.5 E.05151
G1 X109.812 Y137.982 E.07468
G1 X109.044 Y137.648 E.03715
G1 X108.173 Y137.196 E.04353
G1 X106.585 Y136.148 E.08439
G1 X104.843 Y134.556 E.10467
G1 X103.948 Y133.474 E.06228
G1 X103.09 Y132.15 E.06998
G1 X102.143 Y130.124 E.0992
G1 X101.776 Y128.997 E.05257
G1 X101.496 Y127.728 E.05764
G1 X101.292 Y125.561 E.09654
G1 X102.011 Y113.615 E.53082
G1 X102.717 Y110.557 E.1392
G1 X103.62 Y108.59 E.096
G1 X104.804 Y106.83 E.09409
G1 X105.769 Y105.774 E.06345
G1 X106.031 Y106.013 F7800
G1 F1800
G1 X106.067 Y105.974 E.00235
G1 X107.306 Y104.901 E.0727
G1 X108.671 Y103.982 E.07299
G1 X110.059 Y103.297 E.06865
G1 X111.656 Y102.749 E.07489
G1 X113.253 Y102.424 E.07229
G1 X115.166 Y102.293 E.08505
G1 X116.489 Y102.381 E.05881
G1 X118.112 Y102.682 E.07322
G1 X119.942 Y103.303 E.08572
G1 X121.155 Y103.893 E.05983
G1 X122.32 Y104.617 E.06084
G1 X123.734 Y105.768 E.08087
G1 X124.803 Y106.932 E.0701
G1 X126.115 Y108.846 E.10293
G1 X127.126 Y111.22 E.11445
G1 X127.395 Y112.194 E.04482
G1 X127.652 Y113.825 E.07324
G1 X128.023 Y125.254 E.5072
G1 X127.896 Y127.165 E.08495
G1 X127.702 Y128.259 E.04928
G1 X127.026 Y130.408 E.09992
G1 X126.038 Y132.346 E.09649
G1 X125.417 Y133.267 E.04927
G1 X124.666 Y134.191 E.05281
G1 X123.856 Y135.025 E.05157
G1 X122.869 Y135.861 E.05737
G1 X121.939 Y136.507 E.05023
G1 X120.081 Y137.501 E.09346
G1 X119.107 Y137.885 E.04644
G1 X116.926 Y138.404 E.09944
G1 X115.798 Y138.515 E.05027
G1 X114.533 Y138.532 E.05611
G1 X112.594 Y138.368 E.08631
G1 X111.511 Y138.157 E.04894
G1 X109.954 Y137.655 E.07256
G1 X109.185 Y137.322 E.03717
G1 X107.773 Y136.535 E.0717
G1 X106.791 Y135.858 E.0529
G1 X105.094 Y134.303 E.10209
G1 X104.244 Y133.276 E.05913
G1 X103.401 Y131.978 E.06865
G1 X102.478 Y130.007 E.09653
G1 X102.121 Y128.909 E.05121
G1 X101.848 Y127.679 E.05588
G1 X101.648 Y125.571 E.09392
G1 X102.364 Y113.658 E.52935
G1 X103.053 Y110.673 E.13588
G1 X103.926 Y108.77 E.09287
G1 X105.081 Y107.053 E.09178
G1 X105.982 Y106.066 E.05928
G1 X106.244 Y106.306 F7800
G1 F1800
G1 X106.317 Y106.227 E.00477
G1 X107.532 Y105.175 E.07128
G1 X108.856 Y104.286 E.07074
G1 X110.187 Y103.628 E.06586
G1 X111.737 Y103.095 E.0727
G1 X113.299 Y102.776 E.07071
G1 X115.163 Y102.649 E.08287
G1 X116.449 Y102.734 E.05716
G1 X118.035 Y103.029 E.07155
G1 X119.815 Y103.635 E.0834
G1 X120.972 Y104.198 E.05707
G1 X122.117 Y104.909 E.05978
G1 X123.49 Y106.027 E.07853
G1 X124.532 Y107.162 E.06834
G1 X125.805 Y109.02 E.0999
G1 X126.785 Y111.32 E.11089
G1 X127.048 Y112.273 E.04385
G1 X127.297 Y113.854 E.07099
G1 X127.668 Y125.265 E.5064
G1 X127.542 Y127.132 E.083
G1 X127.358 Y128.168 E.04667
G1 X126.703 Y130.259 E.09719
G1 X125.743 Y132.147 E.09395
G1 X125.122 Y133.069 E.04931
G1 X124.411 Y133.944 E.05001
G1 X123.601 Y134.777 E.05154
G1 X122.667 Y135.569 E.05432
G1 X121.736 Y136.215 E.05026
G1 X119.925 Y137.181 E.09104
G1 X119.003 Y137.545 E.04397
G1 X116.861 Y138.055 E.09766
G1 X114.529 Y138.176 E.10357
G1 X112.633 Y138.015 E.0844
G1 X111.607 Y137.815 E.04636
G1 X110.095 Y137.329 E.07044
G1 X109.327 Y136.996 E.03713
G1 X107.958 Y136.232 E.06954
G1 X106.997 Y135.568 E.05181
G1 X105.344 Y134.051 E.09951
G1 X104.539 Y133.078 E.05601
G1 X103.713 Y131.806 E.06727
G1 X102.814 Y129.889 E.09391
G1 X102.465 Y128.821 E.04984
G1 X102.2 Y127.629 E.05416
G1 X102.003 Y125.582 E.09121
G1 X102.717 Y113.7 E.52797
G1 X103.389 Y110.79 E.13247
G1 X104.233 Y108.951 E.08975
G1 X105.358 Y107.276 E.0895
G1 X106.196 Y106.359 E.0551
G10 ; retract
G1 X106.196 Y106.359 F7800
G1 X111.302 Y120.424
G11 ; unretract
;TYPE:Support material
G1 F1800
G1 X112.223 Y120.942 E.04687
G1 X113.172 Y121.309 E.04513
G1 X114.494 Y121.544 E.05956
G1 X115.216 Y121.567 E.03204
G1 X116.311 Y121.437 E.04891
G1 X117.154 Y121.201 E.03883
G1 X118.438 Y120.591 E.06305
G1 X118.822 Y120.32 E.02085
G1 X119.901 Y121.343 E.06595
G1 X120.525 Y122.307 E.05093
G1 X120.962 Y123.304 E.04828
G1 X121.23 Y124.364 E.0485
G1 X121.315 Y125.457 E.04863
G1 X121.214 Y126.541 E.04829
G1 X120.928 Y127.606 E.04891
G1 X120.475 Y128.593 E.04817
G1 X119.853 Y129.514 E.04929
G1 X119.043 Y130.348 E.05157
G1 X118.112 Y130.994 E.05026
G1 X117.138 Y131.469 E.04807
G1 X115.71 Y131.804 E.06506
G1 X114.445 Y131.821 E.05611
G1 X113.332 Y131.698 E.04967
G1 X112.625 Y131.499 E.03258
G1 X111.856 Y131.165 E.03719
G1 X110.675 Y130.385 E.06278
G1 X109.814 Y129.533 E.05373
G1 X109.049 Y128.321 E.06357
G1 X108.623 Y127.248 E.05121
G1 X108.356 Y125.764 E.06688
G1 X108.387 Y124.706 E.04695
G1 X108.526 Y123.912 E.03575
G1 X108.826 Y122.973 E.04372
G1 X109.255 Y122.109 E.04279
G1 X109.729 Y121.4 E.03783
G1 X110.7 Y120.405 E.06167
G1 X111 Y120.194 E.01627
G1 X111.259 Y120.392 E.01446
G1 X120.927 Y126.999 F7800
G1 F1800
G1 X120.913 Y124.416 E.11457
G1 X120.532 Y123.12 E.05992
G1 X120.532 Y127.701 E.20319
G1 X120.137 Y128.521 E.04037
G1 X120.137 Y122.296 E.27611
G1 X119.742 Y121.686 E.03223
G1 X119.742 Y129.107 E.32916
G1 X119.346 Y129.576 E.02723
G1 X119.346 Y121.235 E.36996
G1 X118.951 Y120.831 E.02506
G1 X118.951 Y129.983 E.40594
G1 X118.556 Y130.296 E.02235
G1 X118.556 Y120.89 E.4172
G1 X118.161 Y121.081 E.01946
G1 X118.161 Y130.57 E.42088
G1 X117.766 Y130.807 E.02043
G1 X117.766 Y121.273 E.42288
G1 X117.371 Y121.461 E.0194
G1 X117.371 Y130.999 E.42306
G1 X116.976 Y131.184 E.01935
G1 X116.976 Y121.587 E.42567
G1 X116.581 Y121.698 E.0182
G1 X116.581 Y131.305 E.42612
G1 X116.185 Y131.391 E.01797
G1 X116.185 Y121.779 E.42634
G1 X115.79 Y121.827 E.01765
G1 X115.79 Y131.464 E.42745
G1 X115.395 Y131.488 E.01755
G1 X115.395 Y121.874 E.42643
G1 X115 Y121.88 E.01752
G1 X115 Y131.494 E.42643
G1 X114.605 Y131.499 E.01752
M73 P1 R31
G1 X114.605 Y121.867 E.42723
G1 X114.21 Y121.825 E.01762
G1 X114.21 Y131.473 E.42794
G1 X113.815 Y131.429 E.01763
G1 X113.815 Y121.754 E.42913
G1 X113.419 Y121.684 E.01784
G1 X113.419 Y131.386 E.43033
G1 X113.024 Y131.279 E.01815
G1 X113.024 Y121.599 E.42935
G1 X112.629 Y121.453 E.01868
G1 X112.629 Y131.152 E.4302
G1 X112.234 Y130.98 E.01911
G1 X112.234 Y121.297 E.42949
G1 X111.839 Y121.099 E.0196
G1 X111.839 Y130.78 E.4294
G1 X111.447 Y130.54 E.02039
G1 X111.444 Y120.889 E.42807
G1 X111.049 Y120.634 E.02085
G1 X111.049 Y130.258 E.42687
G1 X110.654 Y129.913 E.02326
G1 X110.654 Y120.889 E.40026
G1 X110.258 Y121.289 E.02497
G1 X110.258 Y129.522 E.36517
G1 X109.863 Y129.032 E.02792
G1 X109.863 Y121.775 E.32188
G1 X109.468 Y122.4 E.03279
G1 X109.468 Y128.419 E.26697
G1 X109.073 Y127.564 E.04177
G1 X109.073 Y123.251 E.1913
G1 X108.838 Y123.989 E.03435
G1 X108.706 Y124.738 E.03373
G1 X108.678 Y126.816 E.09218
G10 ; retract
G1 X108.678 Y126.816 F7800
G1 X109.519 Y113.663
G11 ; unretract
;TYPE:External perimeter
;WIDTH:0.632481
G1 F1800
G1 X109.725 Y112.937 E.05347
;WIDTH:0.642299
G1 X110.002 Y112.315 E.04908
;WIDTH:0.660599
G1 X110.57 Y111.465 E.07602
G1 X110.678 Y111.333 E.01268
;WIDTH:0.638809
G1 X111.131 Y110.865 E.04667
;WIDTH:0.675941
G1 X111.78 Y110.349 E.06324
G1 X112.322 Y110.003 E.04905
;WIDTH:0.660229
G1 X113.166 Y109.639 E.06831
;WIDTH:0.635969
G1 X113.652 Y109.496 E.03612
;WIDTH:0.634745
G1 X114.244 Y109.392 E.04276
;WIDTH:0.638295
G1 X115.179 Y109.334 E.06706
;WIDTH:0.669095
G1 X115.688 Y109.381 E.03855
G1 X116.56 Y109.551 E.06701
;WIDTH:0.663413
G1 X117.417 Y109.878 E.06853
;WIDTH:0.672925
G1 X118.216 Y110.348 E.07036
G1 X119.084 Y111.074 E.08589
;WIDTH:0.662917
G1 X119.42 Y111.474 E.039
G1 X119.976 Y112.294 E.07396
;WIDTH:0.664241
G1 X120.357 Y113.177 E.07195
G1 X120.56 Y113.897 E.05597
;WIDTH:0.664931
G1 X120.63 Y114.396 E.03774
;WIDTH:0.664969
G1 X120.653 Y115.359 E.07216
G1 X120.565 Y116.039 E.05136
;WIDTH:0.652707
G1 X120.329 Y116.94 E.06835
G1 X119.981 Y117.703 E.06154
;WIDTH:0.648297
G1 X119.469 Y118.482 E.06789
;WIDTH:0.659888
G1 X119.242 Y118.73 E.02497
;WIDTH:0.692273
G1 X119.015 Y118.977 E.02627
G1 X118.709 Y119.249 E.03206
;WIDTH:0.654452
G1 X118.403 Y119.521 E.03013
;WIDTH:0.621653
G1 X117.843 Y119.896 E.04684
;WIDTH:0.658027
G1 X117.384 Y120.101 E.03722
;WIDTH:0.694401
G1 X116.925 Y120.306 E.0395
G1 X116.135 Y120.552 E.06502
;WIDTH:0.686889
G1 X115.203 Y120.652 E.07278
G1 X114.981 Y120.657 E.01724
;WIDTH:0.657288
G1 X114.759 Y120.662 E.01642
;WIDTH:0.627687
G1 X114.261 Y120.613 E.03516
;WIDTH:0.655555
G1 X113.807 Y120.509 E.03434
;WIDTH:0.69265
G1 X113.353 Y120.405 E.0365
G1 X112.609 Y120.13 E.06216
;WIDTH:0.694257
G1 X111.941 Y119.753 E.06026
G1 X111.246 Y119.243 E.06772
;WIDTH:0.663109
G1 X110.934 Y118.91 E.03408
;WIDTH:0.635233
G1 X110.622 Y118.577 E.03249
;WIDTH:0.639603
G1 X110.465 Y118.375 E.01836
;WIDTH:0.671849
G1 X110.309 Y118.173 E.01934
G1 X110.038 Y117.743 E.03851
;WIDTH:0.652897
G1 X109.697 Y117.009 E.05941
;WIDTH:0.636603
G1 X109.425 Y116.004 E.07431
;WIDTH:0.634509
G1 X109.331 Y114.934 E.07638
;WIDTH:0.635925
G1 X109.361 Y114.418 E.03685
G1 X109.48 Y113.799 E.04493
;WIDTH:0.632481
G1 X109.499 Y113.732 E.00493
G1 X109.63 Y113.271 F7800
;LAYER_CHANGE
;Z:0.4
;HEIGHT:0.1
;BEFORE_LAYER_CHANGE
G92 E0
;0.4


G10 ; retract
G1 Z.4 F7800
;AFTER_LAYER_CHANGE
;0.4
G1 X113.172 Y123.139
G11 ; unretract
;TYPE:Support material
;WIDTH:0.35
G1 F2400
G1 X113.62 Y122.862 E.00719
G1 X114.713 Y122.666 E.01517
G1 X114.734 Y122.317 E.00478
G1 X115.282 Y122.34 E.00749
G1 X115.899 Y122.462 E.00859
G1 X116.419 Y122.663 E.00761
G1 X117.144 Y123.266 E.01288
G1 X117.597 Y123.858 E.01018
G1 X117.947 Y124.889 E.01487
G1 X117.989 Y125.428 E.00738
G1 X117.8 Y126.49 E.01473
G1 X117.574 Y126.987 E.00746
G1 X117.26 Y127.435 E.00747
G1 X116.396 Y128.154 E.01535
G1 X115.907 Y128.368 E.00729
G1 X115.288 Y128.482 E.0086
G1 X114.063 Y128.427 E.01675
G1 X113.46 Y128.257 E.00856
G1 X112.92 Y127.923 E.00867
G1 X112.435 Y127.471 E.00906
G1 X112.075 Y126.973 E.00839
G1 X111.828 Y126.397 E.00856
G1 X111.672 Y125.496 E.01249
G1 X111.738 Y124.759 E.01011
G1 X112.068 Y123.854 E.01316
G1 X112.368 Y123.417 E.00724
G1 X112.919 Y122.889 E.01042
G1 X113.482 Y122.537 E.00907
G1 X114.059 Y122.379 E.00817
G1 X114.685 Y122.314 E.0086
G1 X114.955 Y121.979 F7800
G1 F2400
G1 X115.996 Y122.125 E.01436
G1 X116.534 Y122.328 E.00785
G1 X117.394 Y123.02 E.01508
G1 X117.904 Y123.686 E.01146
G1 X118.147 Y124.245 E.00833
G1 X118.294 Y124.832 E.00827
G1 X118.34 Y125.431 E.00821
G1 X118.177 Y126.437 E.01392
G1 X117.879 Y127.161 E.01069
G1 X117.528 Y127.662 E.00836
G1 X117.086 Y128.095 E.00845
G1 X116.575 Y128.456 E.00855
G1 X115.999 Y128.707 E.00858
G1 X115.325 Y128.831 E.00936
G1 X114.681 Y128.847 E.0088
G1 X113.995 Y128.772 E.00943
G1 X113.337 Y128.586 E.00934
G1 X112.71 Y128.204 E.01003
G1 X112.168 Y127.699 E.01012
G1 X111.769 Y127.146 E.00931
G1 X111.494 Y126.505 E.00953
G1 X111.353 Y125.882 E.00872
G1 X111.323 Y125.282 E.00821
G1 X111.498 Y124.296 E.01368
G1 X111.76 Y123.685 E.00908
G1 X112.474 Y122.808 E.01545
G1 X113.343 Y122.213 E.01439
G1 X113.994 Y122.034 E.00922
G1 X114.905 Y121.976 E.01247
G10 ; retract
G1 X114.905 Y121.976 F7800
G1 X109.515 Y113.673
G11 ; unretract
;TYPE:External perimeter
;WIDTH:0.630524
G1 F900
G1 X109.725 Y112.939 E.01933
;WIDTH:0.642378
G1 X110.002 Y112.315 E.01762
;WIDTH:0.660422
G1 X110.567 Y111.469 E.02703
G1 X110.673 Y111.338 E.00448
;WIDTH:0.639276
G1 X111.138 Y110.859 E.01715
;WIDTH:0.67571
G1 X111.775 Y110.352 E.02214
G1 X112.321 Y110.004 E.01761
;WIDTH:0.6603
G1 X113.172 Y109.637 E.02461
;WIDTH:0.636104
G1 X113.657 Y109.495 E.01291
;WIDTH:0.634404
G1 X114.257 Y109.391 E.01552
;WIDTH:0.638344
G1 X115.182 Y109.335 E.02377
;WIDTH:0.668752
G1 X115.694 Y109.382 E.01384
G1 X116.56 Y109.552 E.02375
;WIDTH:0.663648
G1 X117.41 Y109.875 E.02428
;WIDTH:0.671768
G1 X118.21 Y110.344 E.02507
G1 X119.08 Y111.07 E.03064
;WIDTH:0.663292
G1 X119.423 Y111.477 E.0142
G1 X119.978 Y112.298 E.02644
;WIDTH:0.664282
G1 X120.356 Y113.173 E.02547
G1 X120.56 Y113.9 E.02018
;WIDTH:0.664552
G1 X120.631 Y114.406 E.01366
;WIDTH:0.665448
G1 X120.653 Y115.355 E.02542
G1 X120.567 Y116.031 E.01825
;WIDTH:0.65233
G1 X120.329 Y116.94 E.02465
G1 X119.981 Y117.704 E.02202
;WIDTH:0.648438
G1 X119.467 Y118.483 E.02433
;WIDTH:0.659923
G1 X119.242 Y118.729 E.00885
;WIDTH:0.691966
G1 X119.017 Y118.975 E.00929
G1 X118.714 Y119.245 E.01131
;WIDTH:0.65439
G1 X118.411 Y119.514 E.01066
;WIDTH:0.623546
G1 X117.85 Y119.891 E.01692
;WIDTH:0.660074
G1 X117.391 Y120.097 E.01336
;WIDTH:0.696602
G1 X116.932 Y120.302 E.01411
G1 X116.135 Y120.552 E.02345
;WIDTH:0.686146
G1 X115.205 Y120.653 E.02585
G1 X114.979 Y120.657 E.00625
;WIDTH:0.656861
G1 X114.754 Y120.661 E.00594
;WIDTH:0.627576
G1 X114.25 Y120.612 E.01276
;WIDTH:0.655953
G1 X113.8 Y120.508 E.01218
;WIDTH:0.692806
G1 X113.349 Y120.404 E.01292
G1 X112.599 Y120.125 E.02234
;WIDTH:0.693552
G1 X111.943 Y119.755 E.02104
G1 X111.245 Y119.242 E.0242
;WIDTH:0.664798
G1 X110.932 Y118.908 E.01224
;WIDTH:0.636449
G1 X110.619 Y118.574 E.0117
;WIDTH:0.639712
G1 X110.465 Y118.374 E.00649
;WIDTH:0.671324
G1 X110.31 Y118.175 E.00682
G1 X110.042 Y117.75 E.01358
;WIDTH:0.654252
G1 X109.696 Y117.007 E.02156
;WIDTH:0.637072
G1 X109.425 Y116 E.02669
;WIDTH:0.63426
G1 X109.331 Y114.939 E.02714
;WIDTH:0.637356
G1 X109.361 Y114.416 E.01341
G1 X109.481 Y113.791 E.0163
;WIDTH:0.630524
G1 X109.495 Y113.742 E.00129
G1 X109.627 Y113.281 F7800
;LAYER_CHANGE
;Z:0.5
;HEIGHT:0.1
;BEFORE_LAYER_CHANGE
G92 E0
;0.5


G10 ; retract
G1 Z.5 F7800
;AFTER_LAYER_CHANGE
;0.5
G1 X113.25 Y123.086
G11 ; unretract
;TYPE:Support material
;WIDTH:0.35
G1 F2400
G1 X113.626 Y122.879 E.00586
G1 X114.166 Y122.73 E.00765
G1 X114.819 Y122.673 E.00895
G1 X114.835 Y122.324 E.00477
G1 X115.232 Y122.342 E.00543
G1 X115.851 Y122.464 E.00862
G1 X116.526 Y122.738 E.00995
G1 X117.264 Y123.396 E.01351
G1 X117.588 Y123.856 E.00769
G1 X117.814 Y124.346 E.00737
G1 X117.947 Y124.882 E.00754
G1 X117.989 Y125.427 E.00747
G1 X117.798 Y126.5 E.01489
G1 X117.574 Y126.988 E.00733
G1 X117.247 Y127.439 E.00761
G1 X116.399 Y128.154 E.01515
G1 X115.855 Y128.363 E.00796
G1 X115.239 Y128.477 E.00856
G1 X114.11 Y128.424 E.01544
G1 X113.508 Y128.254 E.00854
G1 X112.984 Y127.974 E.00812
G1 X112.479 Y127.513 E.00934
G1 X112.097 Y127 E.00874
G1 X111.857 Y126.492 E.00767
G1 X111.707 Y125.883 E.00857
G1 X111.672 Y125.331 E.00755
G1 X111.845 Y124.354 E.01355
G1 X112.093 Y123.813 E.00813
G1 X112.696 Y123.085 E.01291
