; generated by PrusaSlicer 2.7.1+win64 on 2024-02-05 at 22:57:15 UTC

; 

; external perimeters extrusion width = 0.45mm
; perimeters extrusion width = 0.45mm
; infill extrusion width = 0.45mm
; solid infill extrusion width = 0.45mm
; top infill extrusion width = 0.40mm
; support material extrusion width = 0.35mm
; first layer extrusion width = 0.42mm

; external perimeters extrusion width = 0.45mm
; perimeters extrusion width = 0.45mm
; infill extrusion width = 0.45mm
; solid infill extrusion width = 0.45mm
; top infill extrusion width = 0.40mm
; support material extrusion width = 0.35mm
; first layer extrusion width = 0.42mm

M73 P0 R38
M190 S50 ; set bed temperature and wait for it to be reached
M104 S230 ; set temperature
;TYPE:Custom
START_PRINT EXTRUDER_TEMP=230 BED_TEMP=50 Z_OFFSET=0.1
M109 S230 ; set temperature and wait for it to be reached
G21 ; set units to millimeters
G90 ; use absolute coordinates
M83 ; use relative distances for extrusion
; Filament gcode
M107
;LAYER_CHANGE
;Z:0.3
;HEIGHT:0.3
;BEFORE_LAYER_CHANGE
G92 E0
;0.3


G10 ; retract
G1 Z.3 F7800
;AFTER_LAYER_CHANGE
;0.3
G1 X107.837 Y79.12
G11 ; unretract
;TYPE:Skirt/Brim
;WIDTH:0.42
G1 F1800
G1 X108.77 Y78.033 E.06354
G1 X109.587 Y77.257 E.04998
G1 X110.72 Y76.38 E.06355
G1 X111.677 Y75.785 E.04998
G1 X112.964 Y75.155 E.06356
G1 X114.021 Y74.765 E.04997
G1 X115.408 Y74.408 E.06353
G1 X116.523 Y74.239 E.05002
G1 X117.954 Y74.169 E.06355
G1 X119.077 Y74.228 E.04988
G1 X132.973 Y74.972 E.61724
G1 X135.175 Y75.351 E.09911
G1 X136.584 Y75.807 E.06569
G1 X137.633 Y76.273 E.05091
G1 X138.916 Y77.012 E.06567
G1 X139.845 Y77.686 E.05091
G1 X140.945 Y78.677 E.06567
G1 X141.713 Y79.529 E.05088
G1 X142.583 Y80.727 E.06567
G1 X143.156 Y81.721 E.05089
G1 X143.688 Y82.871 E.0562
G1 X145.945 Y89.178 E.29712
G1 X146.385 Y90.597 E.0659
G1 X146.656 Y91.957 E.06151
G1 X146.767 Y93.092 E.05058
G1 X146.767 Y94.479 E.06152
G1 X146.655 Y95.613 E.05054
G1 X146.384 Y96.974 E.06155
G1 X144.108 Y104.178 E.3351
G1 X143.507 Y105.528 E.06554
G1 X142.765 Y106.798 E.06524
G1 X123.498 Y136.798 E1.58143
G1 X122.043 Y138.553 E.10112
G1 X120.946 Y139.541 E.06548
G1 X120.026 Y140.209 E.05043
G1 X118.747 Y140.948 E.06552
G1 X116.72 Y141.765 E.09694
G1 X101.712 Y145.923 E.69075
G1 X100.526 Y146.145 E.05352
G1 X99.392 Y146.258 E.05055
G1 X98.005 Y146.259 E.06152
G1 X96.87 Y146.148 E.05058
G1 X95.51 Y145.879 E.06149
G1 X94.418 Y145.549 E.0506
G1 X93.137 Y145.019 E.06149
G1 X92.131 Y144.482 E.05058
G1 X90.977 Y143.711 E.06156
G1 X90.096 Y142.988 E.05055
G1 X89.115 Y142.007 E.06154
G1 X88.392 Y141.126 E.05055
G1 X87.622 Y139.972 E.06153
G1 X86.755 Y138.259 E.08516
G1 X84.108 Y131.629 E.31664
G1 X83.721 Y130.443 E.05533
G1 X83.45 Y129.277 E.0531
G1 X83.247 Y127.262 E.08983
G1 X83.247 Y123.16 E.18194
G1 X83.45 Y121.145 E.08983
G1 X83.892 Y119.416 E.07916
G1 X86.788 Y112.333 E.33941
G1 X87.781 Y110.262 E.10187
G1 X107.798 Y79.18 E1.63979
G1 X108.096 Y79.373 F7800
G1 F1800
G1 X108.129 Y79.323 E.00266
G1 X109.015 Y78.291 E.06033
G1 X109.832 Y77.515 E.04998
G1 X110.908 Y76.682 E.06036
G1 X111.865 Y76.087 E.04998
G1 X113.087 Y75.489 E.06034
G1 X114.144 Y75.099 E.04997
G1 X115.462 Y74.759 E.06037
G1 X116.577 Y74.59 E.05002
G1 X117.935 Y74.524 E.0603
G1 X119.058 Y74.583 E.04988
G1 X132.954 Y75.327 E.61724
G1 X135.102 Y75.699 E.09669
G1 X136.44 Y76.132 E.06238
G1 X137.489 Y76.598 E.05091
G1 X138.707 Y77.3 E.06235
G1 X139.636 Y77.974 E.05091
G1 X140.681 Y78.915 E.06237
G1 X141.449 Y79.767 E.05088
G1 X142.275 Y80.905 E.06237
G1 X142.848 Y81.898 E.05085
G1 X143.353 Y82.991 E.0534
G1 X145.611 Y89.298 E.29713
G1 X146.045 Y90.7 E.0651
G1 X146.302 Y91.992 E.05843
G1 X146.414 Y93.127 E.05059
G1 X146.413 Y94.444 E.05842
G1 X146.301 Y95.578 E.05054
G1 X146.044 Y96.87 E.05843
G1 X143.77 Y104.068 E.33482
G1 X143.199 Y105.35 E.06225
G1 X142.465 Y106.606 E.06453
G1 X123.199 Y136.606 E1.58141
G1 X121.779 Y138.315 E.09855
G1 X120.737 Y139.253 E.06219
G1 X119.817 Y139.922 E.05045
G1 X118.602 Y140.623 E.06222
G1 X116.625 Y141.423 E.0946
G1 X101.617 Y145.58 E.69074
G1 X99.357 Y145.904 E.10127
G1 X98.039 Y145.905 E.05846
G1 X96.905 Y145.795 E.05053
G1 X95.613 Y145.539 E.05842
G1 X94.521 Y145.208 E.05061
G1 X93.304 Y144.705 E.05841
G1 X92.298 Y144.168 E.05058
G1 X91.203 Y143.436 E.05842
G1 X90.321 Y142.713 E.05058
G1 X89.39 Y141.782 E.0584
G1 X88.667 Y140.9 E.05058
G1 X87.935 Y139.805 E.05842
G1 X87.086 Y138.127 E.08341
G1 X84.438 Y131.498 E.31662
G1 X84.061 Y130.339 E.05406
G1 X83.799 Y129.205 E.05162
G1 X83.602 Y127.262 E.08662
G1 X83.602 Y123.16 E.18194
G1 X83.798 Y121.217 E.08662
M73 P0 R37
G1 X84.232 Y119.52 E.07769
G1 X87.115 Y112.473 E.33771
G1 X88.08 Y110.455 E.09922
G1 X108.057 Y79.433 E1.63659
G1 X108.356 Y79.626 F7800
G1 F1800
G1 X108.42 Y79.526 E.00527
G1 X109.26 Y78.549 E.05715
G1 X110.077 Y77.772 E.05001
G1 X111.096 Y76.984 E.05714
G1 X112.053 Y76.389 E.04998
G1 X113.21 Y75.822 E.05715
G1 X114.267 Y75.432 E.04997
G1 X115.515 Y75.111 E.05716
G1 X116.63 Y74.942 E.05002
G1 X117.917 Y74.879 E.05715
G1 X119.04 Y74.938 E.04988
G1 X132.935 Y75.683 E.6172
G1 X135.028 Y76.047 E.09423
G1 X136.295 Y76.457 E.05907
G1 X137.345 Y76.923 E.05095
G1 X138.498 Y77.588 E.05904
G1 X139.427 Y78.262 E.05091
G1 X140.417 Y79.152 E.05905
G1 X141.184 Y80.005 E.05088
G1 X141.967 Y81.082 E.05906
G1 X142.54 Y82.076 E.05089
G1 X143.019 Y83.11 E.05054
G1 X145.276 Y89.418 E.29716
G1 X145.704 Y90.803 E.0643
G1 X145.948 Y92.027 E.05536
G1 X146.06 Y93.162 E.05059
G1 X146.059 Y94.409 E.05531
G1 X145.947 Y95.544 E.05059
G1 X145.704 Y96.767 E.05531
G1 X143.431 Y103.958 E.33451
G1 X142.891 Y105.172 E.05893
G1 X142.166 Y106.414 E.06379
G1 X122.9 Y136.414 E1.58141
G1 X121.515 Y138.077 E.09599
G1 X120.528 Y138.966 E.05892
G1 X119.608 Y139.634 E.05043
G1 X118.457 Y140.298 E.05894
G1 X116.53 Y141.08 E.09224
G1 X101.522 Y145.238 E.69075
G1 X99.321 Y145.55 E.0986
G1 X98.074 Y145.551 E.05531
G1 X96.939 Y145.441 E.05058
G1 X95.716 Y145.198 E.05531
G1 X94.624 Y144.868 E.0506
G1 X93.472 Y144.391 E.0553
G1 X92.466 Y143.854 E.05058
G1 X91.428 Y143.161 E.05536
G1 X90.547 Y142.438 E.05055
G1 X89.665 Y141.556 E.05533
G1 X88.942 Y140.675 E.05055
G1 X88.249 Y139.637 E.05536
G1 X87.416 Y137.995 E.08167
G1 X84.769 Y131.366 E.3166
G1 X84.402 Y130.236 E.0527
G1 X84.147 Y129.133 E.05021
G1 X83.958 Y127.262 E.08341
G1 X83.989 Y122.537 E.20958
G1 X84.147 Y121.288 E.05584
G1 X84.572 Y119.623 E.07622
G1 X87.442 Y112.613 E.33598
G1 X88.379 Y110.647 E.0966
G1 X108.317 Y79.686 E1.63338
G10 ; retract
G1 X108.317 Y79.686 F7800
G1 X98.867 Y111.255
G11 ; unretract
;TYPE:Support material
G1 F1800
G1 X99.44 Y111.285 E.02545
G1 X100.53 Y111.57 E.04997
G1 X101.54 Y112.068 E.04995
G1 X102.428 Y112.759 E.04991
G1 X103.158 Y113.615 E.0499
G1 X103.701 Y114.6 E.04989
M73 P1 R37
G1 X104.035 Y115.673 E.04985
G1 X104.146 Y116.791 E.04983
G1 X104.029 Y117.908 E.04982
G1 X103.691 Y118.979 E.04981
G1 X103.509 Y119.305 E.01656
G1 X101.876 Y119.31 E.07243
G1 X101.141 Y119.485 E.03351
G1 X100.74 Y119.701 E.0202
G1 X100.308 Y120.078 E.02543
G1 X99.843 Y120.87 E.04074
G1 X99.717 Y121.611 E.03334
G1 X99.717 Y128.389 E.30064
G1 X99.798 Y128.985 E.02668
G1 X100.032 Y129.543 E.02684
G1 X100.403 Y130.022 E.02687
G1 X100.885 Y130.389 E.02687
G1 X101.743 Y130.677 E.04014
G1 X103.783 Y130.695 E.09049
G1 X104.047 Y131.188 E.0248
G1 X104.379 Y132.276 E.05045
G1 X104.492 Y133.408 E.05046
G1 X104.383 Y134.541 E.05049
G1 X104.054 Y135.63 E.05046
G1 X103.52 Y136.636 E.05052
G1 X102.799 Y137.517 E.05049
G1 X101.919 Y138.242 E.05057
G1 X100.915 Y138.78 E.05052
G1 X99.825 Y139.113 E.05055
G1 X98.691 Y139.226 E.05055
G1 X97.556 Y139.115 E.05058
G1 X96.465 Y138.785 E.05056
G1 X95.46 Y138.248 E.05054
G1 X94.578 Y137.525 E.05058
G1 X93.855 Y136.643 E.05058
G1 X93.318 Y135.638 E.05054
G1 X92.988 Y134.547 E.05056
G1 X92.877 Y133.413 E.05054
G1 X92.99 Y132.28 E.0505
G1 X93.111 Y131.884 E.01837
G1 X92.668 Y131.627 E.02272
G1 X91.862 Y130.914 E.04773
G1 X91.472 Y130.439 E.02726
G1 X91.114 Y129.926 E.02775
G1 X90.671 Y129.009 E.04517
G1 X90.483 Y128.39 E.02869
G1 X90.372 Y127.85 E.02445
G1 X90.314 Y126.713 E.0505
G1 X90.372 Y126.124 E.02625
G1 X90.596 Y125.211 E.0417
G1 X90.372 Y124.297 E.04174
G1 X90.314 Y123.16 E.0505
G1 X90.372 Y122.571 E.02625
G1 X90.654 Y121.469 E.05045
G1 X91.148 Y120.446 E.05039
G1 X91.834 Y119.542 E.05033
G1 X92.685 Y118.791 E.05034
G1 X93.281 Y118.422 E.03109
G1 X93.059 Y117.346 E.04873
G1 X93.057 Y116.22 E.04994
G1 X93.283 Y115.117 E.04994
G1 X93.727 Y114.081 E.04999
G1 X94.371 Y113.156 E.04999
G1 X95.188 Y112.38 E.04998
G1 X96.144 Y111.785 E.04995
G1 X97.201 Y111.395 E.04997
G1 X98.316 Y111.226 E.05002
G1 X98.814 Y111.252 E.02212
G10 ; retract
G1 X98.814 Y111.252 F7800
G1 X103.786 Y135.794
G11 ; unretract
G1 F1800
G1 X103.786 Y131.43 E.19356
G1 X103.591 Y131.015 E.02034
G1 X103.391 Y131.015 E.00887
G1 X103.391 Y136.196 E.2298
G1 X102.996 Y136.77 E.03091
G1 X102.996 Y131.015 E.25526
G1 X102.601 Y131.015 E.01752
G1 X102.601 Y137.254 E.27673
G1 X102.206 Y137.591 E.02303
G1 X102.206 Y131.015 E.29168
G1 X101.811 Y131.005 E.01753
G1 X101.811 Y137.916 E.30654
G1 X101.415 Y138.149 E.02038
G1 X101.415 Y130.94 E.31975
G1 X101.02 Y130.812 E.01842
G1 X101.02 Y138.361 E.33483
G1 X100.625 Y138.534 E.01913
G1 X100.625 Y130.605 E.35169
G1 X100.23 Y130.299 E.02216
G1 X100.23 Y138.655 E.37063
G1 X99.835 Y138.775 E.01831
G1 X99.835 Y129.514 E.41077
G10 ; retract
G1 X99.835 Y129.514 F7800
G1 X103.786 Y118.146
G11 ; unretract
G1 F1800
G1 X103.72 Y115.737 E.10689
G1 X103.391 Y114.7 E.04826
G1 X103.391 Y118.859 E.18447
G1 X103.321 Y118.985 E.00639
G1 X102.996 Y118.985 E.01442
G1 X102.996 Y113.983 E.22186
G1 X102.601 Y113.455 E.02925
G1 X102.601 Y118.985 E.24528
G1 X102.206 Y118.985 E.01752
G1 X102.206 Y112.992 E.26582
G1 X101.811 Y112.684 E.02222
G1 X101.811 Y118.995 E.27992
G1 X101.415 Y119.06 E.0178
G1 X101.415 Y112.377 E.29642
G1 X101.02 Y112.169 E.0198
G1 X101.02 Y119.188 E.31133
G1 X100.625 Y119.395 E.01978
G1 X100.625 Y111.974 E.32916
G1 X100.23 Y111.822 E.01877
G1 X100.23 Y119.701 E.34947
G1 X99.835 Y120.169 E.02716
G1 X99.835 Y111.719 E.3748
G1 X99.44 Y111.616 E.01811
G1 X99.44 Y138.829 E1.20703
G1 X99.045 Y138.869 E.01761
G1 X99.045 Y111.585 E1.21018
G1 X98.649 Y111.564 E.01759
G1 X98.649 Y138.9 E1.21248
G1 X98.254 Y138.862 E.0176
G1 X98.254 Y111.559 E1.21102
G1 X97.859 Y111.619 E.01772
G1 X97.859 Y138.823 E1.20663
G1 X97.464 Y138.753 E.01779
G1 X97.464 Y111.679 E1.20086
G1 X97.069 Y111.785 E.01814
G1 X97.069 Y138.633 E1.19084
G1 X96.674 Y138.514 E.0183
G1 X96.674 Y111.931 E1.17908
G1 X96.279 Y112.078 E.01869
G1 X96.279 Y138.322 E1.16405
G1 X95.884 Y138.111 E.01986
G1 X95.884 Y112.324 E1.14378
G1 X95.488 Y112.57 E.02068
G1 X95.488 Y137.857 E1.1216
G1 X95.093 Y137.533 E.02266
G1 X95.093 Y112.911 E1.0921
G1 X94.698 Y113.287 E.02419
G1 X94.698 Y137.166 E1.05915
G1 X94.303 Y136.685 E.02761
G1 X94.303 Y113.814 E1.01444
G1 X93.908 Y114.472 E.03404
G1 X93.908 Y136.063 E.95766
G1 X93.513 Y135.176 E.04307
M73 P2 R37
G1 X93.513 Y114.988 E.89544
G1 X93.118 Y131.703 F7800
G1 F1800
G1 X93.118 Y118.9 E.56787
G1 X92.723 Y119.174 E.02132
G1 X92.723 Y131.248 E.53554
G1 X92.327 Y130.898 E.02344
G1 X92.327 Y119.515 E.50489
G1 X91.932 Y119.926 E.02528
G1 X91.932 Y130.495 E.46879
G1 X91.537 Y129.973 E.02903
G1 X91.537 Y120.448 E.42248
G1 X91.142 Y121.144 E.0355
G1 X91.142 Y129.248 E.35945
G1 X90.747 Y128.084 E.05452
G1 X90.747 Y125.889 E.09736
G1 X90.931 Y125.211 E.03116
G1 X90.747 Y124.532 E.0312
G1 X90.747 Y121.713 E.12504
G10 ; retract
G1 X90.747 Y121.713 F7800
G1 X113.923 Y112.155
G11 ; unretract
G1 F1800
G1 X114.449 Y112.266 E.02384
G1 X115.499 Y112.732 E.05095
G1 X116.427 Y113.405 E.05085
G1 X117.195 Y114.258 E.05091
G1 X117.768 Y115.252 E.05089
G1 X118.122 Y116.343 E.05087
G1 X118.24 Y117.483 E.05083
G1 X118.119 Y118.623 E.05085
G1 X117.984 Y119.035 E.01923
G1 X118.763 Y119.674 E.04469
G1 X119.487 Y120.554 E.05054
G1 X120.025 Y121.559 E.05056
G1 X120.356 Y122.65 E.05057
G1 X120.468 Y123.785 E.05059
G1 X120.356 Y124.919 E.05054
G1 X120.025 Y126.01 E.05057
G1 X119.487 Y127.014 E.05052
G1 X118.763 Y127.895 E.05058
G1 X118.338 Y128.243 E.02436
G1 X118.471 Y128.653 E.01912
G1 X118.59 Y129.783 E.0504
G1 X118.471 Y130.914 E.05044
G1 X118.12 Y131.995 E.05041
G1 X117.552 Y132.979 E.05039
G1 X116.791 Y133.824 E.05044
G1 X115.872 Y134.492 E.05039
G1 X114.833 Y134.955 E.05045
G1 X113.721 Y135.191 E.05042
G1 X112.585 Y135.191 E.05039
G1 X111.473 Y134.955 E.05042
G1 X110.434 Y134.493 E.05044
G1 X109.514 Y133.825 E.05043
G1 X108.753 Y132.98 E.05044
G1 X108.185 Y131.995 E.05043
G1 X107.834 Y130.914 E.05041
G1 X107.811 Y130.695 E.00977
G1 X108.905 Y130.674 E.04853
G1 X109.761 Y130.38 E.04014
G1 X110.428 Y129.795 E.03935
G1 X110.793 Y129.112 E.03435
G1 X110.913 Y128.38 E.0329
G1 X110.909 Y121.482 E.30596
G1 X110.793 Y120.888 E.02684
G1 X110.598 Y120.457 E.02098
G1 X110.24 Y119.991 E.02606
G1 X109.874 Y119.691 E.02099
G1 X109.037 Y119.348 E.04012
G1 X107.633 Y119.305 E.0623
G1 X107.411 Y118.628 E.0316
G1 X107.289 Y117.492 E.05068
G1 X107.405 Y116.354 E.05074
G1 X107.755 Y115.264 E.05078
G1 X108.324 Y114.271 E.05076
G1 X109.088 Y113.417 E.05082
G1 X110.014 Y112.741 E.05085
G1 X111.06 Y112.272 E.05085
G1 X112.181 Y112.031 E.05086
G1 X113.328 Y112.029 E.05088
G1 X113.871 Y112.144 E.02462
G1 X119.987 Y125.585 F7800
G1 F1800
G1 X119.987 Y122.534 E.13533
G1 X119.591 Y121.427 E.05215
G1 X119.591 Y126.141 E.20909
G1 X119.196 Y126.864 E.03654
G1 X119.196 Y120.704 E.27323
G1 X118.801 Y120.224 E.02757
G1 X118.801 Y127.344 E.31581
G1 X118.406 Y127.773 E.02587
G1 X118.406 Y119.795 E.35386
G1 X118.011 Y119.471 E.02266
G1 X118.011 Y131.295 E.52445
G1 X117.826 Y131.864 E.02654
G1 X117.616 Y132.228 E.01864
G1 X117.616 Y115.82 E.72777
G1 X117.474 Y115.382 E.02042
G1 X117.221 Y114.943 E.02247
G1 X117.221 Y132.869 E.7951
G1 X116.826 Y133.308 E.02619
G1 X116.826 Y114.326 E.84194
G1 X116.43 Y113.887 E.02622
G1 X116.43 Y133.691 E.8784
G1 X116.035 Y133.978 E.02166
G1 X116.035 Y113.516 E.90759
G1 X115.64 Y113.23 E.02163
G1 X115.64 Y134.245 E.93212
G1 X115.245 Y134.421 E.01918
G1 X115.245 Y112.969 E.9515
G1 X114.85 Y112.794 E.01916
G1 X114.85 Y134.597 E.96707
G1 X114.455 Y134.708 E.0182
G1 X114.455 Y112.618 E.9798
G1 X114.06 Y112.511 E.01815
G1 X114.06 Y134.792 E.98827
G1 X113.665 Y134.871 E.01787
G1 X113.665 Y112.427 E.9955
G1 X113.269 Y112.349 E.0179
G1 X113.269 Y134.871 E.99896
G1 X112.874 Y134.871 E.01752
G1 X112.874 Y112.35 E.99891
G1 X112.479 Y112.351 E.01752
G1 X112.479 Y134.842 E.99758
G1 X112.084 Y134.758 E.01791
G1 X112.084 Y112.379 E.99262
G1 X111.689 Y112.464 E.01792
G1 X111.689 Y134.674 E.98512
G1 X111.294 Y134.525 E.01873
G1 X111.294 Y112.549 E.97474
G1 X110.899 Y112.695 E.01868
G1 X110.899 Y120.339 E.33905
G1 X110.503 Y119.804 E.02952
G1 X110.503 Y112.872 E.30747
G1 X110.108 Y113.068 E.01956
G1 X110.108 Y119.464 E.28369
G1 X109.713 Y119.235 E.02025
G1 X109.713 Y113.357 E.26072
G1 X109.318 Y113.646 E.02171
M73 P3 R37
G1 X109.318 Y119.087 E.24133
G1 X108.923 Y119.005 E.01789
G1 X108.923 Y114.082 E.21836
G1 X108.528 Y114.559 E.02747
G1 X108.528 Y118.985 E.19631
G1 X108.133 Y118.985 E.01752
G1 X108.133 Y115.249 E.16571
G1 X107.738 Y116.364 E.05247
G1 X107.738 Y119.11 E.1218
G10 ; retract
G1 X107.738 Y119.11 F7800
G1 X110.899 Y134.524
G11 ; unretract
G1 F1800
G1 X110.899 Y129.661 E.2157
G1 X110.503 Y130.196 E.02952
G1 X110.503 Y134.148 E.17529
G1 X110.108 Y133.861 E.02166
G1 X110.108 Y130.536 E.14748
G1 X109.713 Y130.765 E.02025
G1 X109.713 Y133.567 E.12428
G1 X109.318 Y133.129 E.02616
G1 X109.318 Y130.913 E.09829
G1 X108.923 Y130.995 E.01789
G1 X108.923 Y132.633 E.07265
G1 X108.528 Y131.949 E.03503
G1 X108.528 Y130.855 E.04852
G10 ; retract
G1 X108.528 Y130.855 F7800
G1 X102.608 Y120.999
G11 ; unretract
;TYPE:Perimeter
;WIDTH:0.42
G1 F1800
G1 X108.59 Y120.999 E.26533
G1 X108.915 Y121.108 E.0152
G1 X109.127 Y121.317 E.0132
G1 X109.219 Y121.598 E.01311
G1 X109.212 Y128.36 E.29993
G1 X109.116 Y128.707 E.01597
G1 X108.901 Y128.908 E.01305
G1 X108.59 Y129.001 E.0144
G1 X106.538 Y128.997 E.09102
G1 X106.739 Y128.827 E.01168
