
; ### Ellis' Pressure Advance / Linear Advance Calibration Tool ###
;
; Original Marlin linear advance calibration tool by Sineos [https://github.com/Sineos]
; Heavily modified/rewritten by Andrew Ellis [https://github.com/AndrewEllis93]
;
; -------------------------------------------
; Generated: Sun Dec 03 2023 12:18:06 GMT-0500 (Eastern Standard Time)
; -------------------------------------------
;
; Advanced Mode: true
;
; Printer:
;  - Firmware: klipper
;  - Bed Shape: Rect
;  - Bed Size X: 230 mm
;  - Bed Size Y: 230 mm
;  - Origin Bed Center: false
;  - Extruder Name: Disabled
;  - Travel Speed: 120 mm/s
;  - Nozzle Diameter: 0.4 mm
;  - Filament Diameter: 1.75 mm
;  - Extrusion Multiplier: 0.98
;
; Retraction / Z Hop:
;  - Firmware Retraction: true
;  - Z Hop Enable: true
;  - Z Hop Height: 0.1mm
;
; First Layer Settings:
;  - First Layer Height: 0.25 mm
;  - First Layer Printing Speed: 30 mm/s
;  - First Layer Fan Speed: 0%
;  - Anchor Option: anchor_frame
;  - Anchor Frame Perimeters: 4
;  - Anchor Line Width: 140 %
;
; Print Settings:
;  - Line Width: 112.5 %
;  - Layer Count: 4
;  - Layer Height: 0.2 mm
;  - Print Speed: 100 mm/s
;  - Acceleration: Disabled
;  - Fan Speed: 20%
;
; Pattern Settings (Using defaults):
;  - Wall Count: 3
;  - Side Length: 30 mm
;  - Spacing: 2 mm
;  - Corner Angle: 90 degrees 
;  - Printing Direction: 0 degree
;
; Pressure Advance Stepping:
;  - PA Start Value: 0
;  - PA End Value: 0.08
;  - PA Increment: 0.005
;  - Increment Smooth Time Instead: false
;  - Show on LCD: true
;  - Number Tab: true
;  - No Leading Zeroes: false
;
; Start / End G-code:
;  - Hotend Temp: 230C
;  - Bed Temp: 40C
;  - Don't Add G28: false
;  - Don't Add Heating G-Codes: false
;
; Calculated Values:
;  - Print Size X: 84.72 mm
;  - Print Size Y: 53.99 mm
;  - Number of Patterns to Print: 17
;  - PA Values: 0, 0.005, 0.01, 0.015, 0.02, 0.025, 0.03, 0.035, 0.04, 0.045, 0.05, 0.055, 0.06, 0.065, 0.07, 0.075, 0.08
;
; Prepare printing
;
G28 ; Home all axes
M190 S40 ; Set & wait for bed temp
M109 S230 ; Set & wait for hotend temp
START_PRINT EXTRUDER_TEMP=230 BED_TEMP=40 Z_OFFSET=0.5
G21 ; Millimeter units
G90 ; Absolute XYZ
M83 ; Relative E
G92 E0 ; Reset extruder distance
;
;  Begin printing
;
M106 S0 ; Set fan speed
G10 ; Retract
G0 Z5 F7200 ; Z raise
G0 X72.6417 Y88.0068 F7200 ; Move to start position
G0 Z0.25 F7200 ; Move to start layer height
G11 ; Un-retract
SET_PRESSURE_ADVANCE ADVANCE=0 ; Set pressure advance to start value
M117 PA 0
G1 X72.6417 Y130.4332 E2.1882 F1800 ; Draw perimeter (up)
G1 X157.3583 Y130.4332 E4.36937 F1800 ; Draw perimeter (right)
G1 X157.3583 Y88.0068 E2.1882 F1800 ; Draw perimeter (down)
G1 X72.6417 Y88.0068 E4.36937 F1800 ; Draw perimeter (left)
G0 X73.148 Y88.5131 F7200 ; Step inwards to print next perimeter
G1 X73.148 Y129.9269 E2.13597 F1800 ; Draw perimeter (up)
G1 X156.852 Y129.9269 E4.31714 F1800 ; Draw perimeter (right)
G1 X156.852 Y88.5131 E2.13597 F1800 ; Draw perimeter (down)
G1 X73.148 Y88.5131 E4.31714 F1800 ; Draw perimeter (left)
G0 X73.6544 Y89.0195 F7200 ; Step inwards to print next perimeter
G1 X73.6544 Y129.4205 E2.08374 F1800 ; Draw perimeter (up)
G1 X156.3456 Y129.4205 E4.26491 F1800 ; Draw perimeter (right)
G1 X156.3456 Y89.0195 E2.08374 F1800 ; Draw perimeter (down)
G1 X73.6544 Y89.0195 E4.26491 F1800 ; Draw perimeter (left)
G0 X74.1607 Y89.5258 F7200 ; Step inwards to print next perimeter
G1 X74.1607 Y128.9142 E2.0315 F1800 ; Draw perimeter (up)
G1 X155.8393 Y128.9142 E4.21268 F1800 ; Draw perimeter (right)
G1 X155.8393 Y89.5258 E2.0315 F1800 ; Draw perimeter (down)
G1 X74.1607 Y89.5258 E4.21268 F1800 ; Draw perimeter (left)
G10 ; Retract
G1 Z0.35 F7200 ; Z hop
G0 X72.6417 Y130.9396 F7200 ; Move to box start
G1 Z0.25 F7200 ; Z hop return
G11 ; Un-retract
G1 X72.6417 Y142.4459 E0.59346 F1800 ; Draw perimeter (up)
G1 X136.8962 Y142.4459 E3.31401 F1800 ; Draw perimeter (right)
G1 X136.8962 Y130.9396 E0.59346 F1800 ; Draw perimeter (down)
G1 X72.6417 Y130.9396 E3.31401 F1800 ; Draw perimeter (left)
G0 X73.148 Y131.4459 F7200 ; Step inwards to print next perimeter
G1 X73.148 Y141.9396 E0.54122 F1800 ; Draw perimeter (up)
G1 X136.3898 Y141.9396 E3.26178 F1800 ; Draw perimeter (right)
G1 X136.3898 Y131.4459 E0.54122 F1800 ; Draw perimeter (down)
G1 X73.148 Y131.4459 E3.26178 F1800 ; Draw perimeter (left)
G0 X73.6544 Y131.9523 F7200 ; Step inwards to print next perimeter
G1 X73.6544 Y141.4332 E0.48899 F1800 ; Draw perimeter (up)
G1 X135.8835 Y141.4332 E3.20955 F1800 ; Draw perimeter (right)
G1 X135.8835 Y131.9523 E0.48899 F1800 ; Draw perimeter (down)
G1 X73.6544 Y131.9523 E3.20955 F1800 ; Draw perimeter (left)
G0 X74.1607 Y132.4586 F7200 ; Step inwards to print next perimeter
G1 X74.1607 Y140.9269 E0.43676 F1800 ; Draw perimeter (up)
G1 X135.3771 Y140.9269 E3.15732 F1800 ; Draw perimeter (right)
G1 X135.3771 Y132.4586 E0.43676 F1800 ; Draw perimeter (down)
G1 X74.1607 Y132.4586 E3.15732 F1800 ; Draw perimeter (left)
G0 X74.5341 Y132.8319 F7200 ; Move to fill start
G0 X75.2502 Y132.8319 F7200 ; Move
G1 X74.5341 Y133.548 E0.05223 F1800 ; Fill
G0 X74.5341 Y134.2641 F7200 ; Move
G1 X75.9663 Y132.8319 E0.10446 F1800 ; Fill
G0 X76.6823 Y132.8319 F7200 ; Move
G1 X74.5341 Y134.9802 E0.15669 F1800 ; Fill
G0 X74.5341 Y135.6963 F7200 ; Move
G1 X77.3984 Y132.8319 E0.20893 F1800 ; Fill
G0 X78.1145 Y132.8319 F7200 ; Move
G1 X74.5341 Y136.4124 E0.26116 F1800 ; Fill
G0 X74.5341 Y137.1285 F7200 ; Move
G1 X78.8306 Y132.8319 E0.31339 F1800 ; Fill
G0 X79.5467 Y132.8319 F7200 ; Move
G1 X74.5341 Y137.8445 E0.36562 F1800 ; Fill
G0 X74.5341 Y138.5606 F7200 ; Move
G1 X80.2628 Y132.8319 E0.41785 F1800 ; Fill
G0 X80.9789 Y132.8319 F7200 ; Move
G1 X74.5341 Y139.2767 E0.47008 F1800 ; Fill
G0 X74.5341 Y139.9928 F7200 ; Move
G1 X81.6949 Y132.8319 E0.52231 F1800 ; Fill
G0 X82.411 Y132.8319 F7200 ; Move
G1 X74.6894 Y140.5535 E0.56321 F1800 ; Fill
G0 X75.4055 Y140.5535 F7200 ; Move
G1 X83.1271 Y132.8319 E0.56321 F1800 ; Fill
G0 X83.8432 Y132.8319 F7200 ; Move
G1 X76.1216 Y140.5535 E0.56321 F1800 ; Fill
G0 X76.8377 Y140.5535 F7200 ; Move
G1 X84.5593 Y132.8319 E0.56321 F1800 ; Fill
G0 X85.2754 Y132.8319 F7200 ; Move
G1 X77.5538 Y140.5535 E0.56321 F1800 ; Fill
G0 X78.2699 Y140.5535 F7200 ; Move
G1 X85.9915 Y132.8319 E0.56321 F1800 ; Fill
G0 X86.7076 Y132.8319 F7200 ; Move
G1 X78.986 Y140.5535 E0.56321 F1800 ; Fill
G0 X79.7021 Y140.5535 F7200 ; Move
G1 X87.4236 Y132.8319 E0.56321 F1800 ; Fill
G0 X88.1397 Y132.8319 F7200 ; Move
G1 X80.4181 Y140.5535 E0.56321 F1800 ; Fill
G0 X81.1342 Y140.5535 F7200 ; Move
G1 X88.8558 Y132.8319 E0.56321 F1800 ; Fill
G0 X89.5719 Y132.8319 F7200 ; Move
G1 X81.8503 Y140.5535 E0.56321 F1800 ; Fill
G0 X82.5664 Y140.5535 F7200 ; Move
G1 X90.288 Y132.8319 E0.56321 F1800 ; Fill
G0 X91.0041 Y132.8319 F7200 ; Move
G1 X83.2825 Y140.5535 E0.56321 F1800 ; Fill
G0 X83.9986 Y140.5535 F7200 ; Move
G1 X91.7202 Y132.8319 E0.56321 F1800 ; Fill
G0 X92.4362 Y132.8319 F7200 ; Move
G1 X84.7147 Y140.5535 E0.56321 F1800 ; Fill
G0 X85.4307 Y140.5535 F7200 ; Move
G1 X93.1523 Y132.8319 E0.56321 F1800 ; Fill
G0 X93.8684 Y132.8319 F7200 ; Move
G1 X86.1468 Y140.5535 E0.56321 F1800 ; Fill
G0 X86.8629 Y140.5535 F7200 ; Move
G1 X94.5845 Y132.8319 E0.56321 F1800 ; Fill
G0 X95.3006 Y132.8319 F7200 ; Move
G1 X87.579 Y140.5535 E0.56321 F1800 ; Fill
G0 X88.2951 Y140.5535 F7200 ; Move
G1 X96.0167 Y132.8319 E0.56321 F1800 ; Fill
G0 X96.7328 Y132.8319 F7200 ; Move
G1 X89.0112 Y140.5535 E0.56321 F1800 ; Fill
G0 X89.7273 Y140.5535 F7200 ; Move
G1 X97.4488 Y132.8319 E0.56321 F1800 ; Fill
G0 X98.1649 Y132.8319 F7200 ; Move
G1 X90.4433 Y140.5535 E0.56321 F1800 ; Fill
G0 X91.1594 Y140.5535 F7200 ; Move
G1 X98.881 Y132.8319 E0.56321 F1800 ; Fill
G0 X99.5971 Y132.8319 F7200 ; Move
G1 X91.8755 Y140.5535 E0.56321 F1800 ; Fill
G0 X92.5916 Y140.5535 F7200 ; Move
G1 X100.3132 Y132.8319 E0.56321 F1800 ; Fill
G0 X101.0293 Y132.8319 F7200 ; Move
G1 X93.3077 Y140.5535 E0.56321 F1800 ; Fill
G0 X94.0238 Y140.5535 F7200 ; Move
G1 X101.7454 Y132.8319 E0.56321 F1800 ; Fill
G0 X102.4615 Y132.8319 F7200 ; Move
G1 X94.7399 Y140.5535 E0.56321 F1800 ; Fill
G0 X95.456 Y140.5535 F7200 ; Move
G1 X103.1775 Y132.8319 E0.56321 F1800 ; Fill
G0 X103.8936 Y132.8319 F7200 ; Move
G1 X96.172 Y140.5535 E0.56321 F1800 ; Fill
G0 X96.8881 Y140.5535 F7200 ; Move
G1 X104.6097 Y132.8319 E0.56321 F1800 ; Fill
G0 X105.3258 Y132.8319 F7200 ; Move
G1 X97.6042 Y140.5535 E0.56321 F1800 ; Fill
G0 X98.3203 Y140.5535 F7200 ; Move
G1 X106.0419 Y132.8319 E0.56321 F1800 ; Fill
G0 X106.758 Y132.8319 F7200 ; Move
G1 X99.0364 Y140.5535 E0.56321 F1800 ; Fill
G0 X99.7525 Y140.5535 F7200 ; Move
G1 X107.4741 Y132.8319 E0.56321 F1800 ; Fill
G0 X108.1901 Y132.8319 F7200 ; Move
G1 X100.4686 Y140.5535 E0.56321 F1800 ; Fill
G0 X101.1846 Y140.5535 F7200 ; Move
G1 X108.9062 Y132.8319 E0.56321 F1800 ; Fill
G0 X109.6223 Y132.8319 F7200 ; Move
G1 X101.9007 Y140.5535 E0.56321 F1800 ; Fill
G0 X102.6168 Y140.5535 F7200 ; Move
G1 X110.3384 Y132.8319 E0.56321 F1800 ; Fill
G0 X111.0545 Y132.8319 F7200 ; Move
G1 X103.3329 Y140.5535 E0.56321 F1800 ; Fill
G0 X104.049 Y140.5535 F7200 ; Move
G1 X111.7706 Y132.8319 E0.56321 F1800 ; Fill
G0 X112.4867 Y132.8319 F7200 ; Move
G1 X104.7651 Y140.5535 E0.56321 F1800 ; Fill
G0 X105.4812 Y140.5535 F7200 ; Move
G1 X113.2027 Y132.8319 E0.56321 F1800 ; Fill
G0 X113.9188 Y132.8319 F7200 ; Move
G1 X106.1972 Y140.5535 E0.56321 F1800 ; Fill
G0 X106.9133 Y140.5535 F7200 ; Move
G1 X114.6349 Y132.8319 E0.56321 F1800 ; Fill
G0 X115.351 Y132.8319 F7200 ; Move
G1 X107.6294 Y140.5535 E0.56321 F1800 ; Fill
G0 X108.3455 Y140.5535 F7200 ; Move
G1 X116.0671 Y132.8319 E0.56321 F1800 ; Fill
G0 X116.7832 Y132.8319 F7200 ; Move
G1 X109.0616 Y140.5535 E0.56321 F1800 ; Fill
G0 X109.7777 Y140.5535 F7200 ; Move
G1 X117.4993 Y132.8319 E0.56321 F1800 ; Fill
G0 X118.2154 Y132.8319 F7200 ; Move
G1 X110.4938 Y140.5535 E0.56321 F1800 ; Fill
G0 X111.2099 Y140.5535 F7200 ; Move
G1 X118.9314 Y132.8319 E0.56321 F1800 ; Fill
G0 X119.6475 Y132.8319 F7200 ; Move
G1 X111.9259 Y140.5535 E0.56321 F1800 ; Fill
G0 X112.642 Y140.5535 F7200 ; Move
G1 X120.3636 Y132.8319 E0.56321 F1800 ; Fill
G0 X121.0797 Y132.8319 F7200 ; Move
G1 X113.3581 Y140.5535 E0.56321 F1800 ; Fill
G0 X114.0742 Y140.5535 F7200 ; Move
G1 X121.7958 Y132.8319 E0.56321 F1800 ; Fill
G0 X122.5119 Y132.8319 F7200 ; Move
G1 X114.7903 Y140.5535 E0.56321 F1800 ; Fill
G0 X115.5064 Y140.5535 F7200 ; Move
G1 X123.228 Y132.8319 E0.56321 F1800 ; Fill
G0 X123.944 Y132.8319 F7200 ; Move
G1 X116.2225 Y140.5535 E0.56321 F1800 ; Fill
G0 X116.9385 Y140.5535 F7200 ; Move
G1 X124.6601 Y132.8319 E0.56321 F1800 ; Fill
G0 X125.3762 Y132.8319 F7200 ; Move
G1 X117.6546 Y140.5535 E0.56321 F1800 ; Fill
G0 X118.3707 Y140.5535 F7200 ; Move
G1 X126.0923 Y132.8319 E0.56321 F1800 ; Fill
G0 X126.8084 Y132.8319 F7200 ; Move
G1 X119.0868 Y140.5535 E0.56321 F1800 ; Fill
G0 X119.8029 Y140.5535 F7200 ; Move
G1 X127.5245 Y132.8319 E0.56321 F1800 ; Fill
G0 X128.2406 Y132.8319 F7200 ; Move
G1 X120.519 Y140.5535 E0.56321 F1800 ; Fill
G0 X121.2351 Y140.5535 F7200 ; Move
G1 X128.9566 Y132.8319 E0.56321 F1800 ; Fill
G0 X129.6727 Y132.8319 F7200 ; Move
G1 X121.9511 Y140.5535 E0.56321 F1800 ; Fill
G0 X122.6672 Y140.5535 F7200 ; Move
G1 X130.3888 Y132.8319 E0.56321 F1800 ; Fill
G0 X131.1049 Y132.8319 F7200 ; Move
G1 X123.3833 Y140.5535 E0.56321 F1800 ; Fill
G0 X124.0994 Y140.5535 F7200 ; Move
G1 X131.821 Y132.8319 E0.56321 F1800 ; Fill
G0 X132.5371 Y132.8319 F7200 ; Move
G1 X124.8155 Y140.5535 E0.56321 F1800 ; Fill
G0 X125.5316 Y140.5535 F7200 ; Move
G1 X133.2532 Y132.8319 E0.56321 F1800 ; Fill
G0 X133.9693 Y132.8319 F7200 ; Move
G1 X126.2477 Y140.5535 E0.56321 F1800 ; Fill
G0 X126.9638 Y140.5535 F7200 ; Move
G1 X134.6853 Y132.8319 E0.56321 F1800 ; Fill
G0 X135.0038 Y133.2296 F7200 ; Move
G1 X127.6798 Y140.5535 E0.53421 F1800 ; Fill
G0 X128.3959 Y140.5535 F7200 ; Move
G1 X135.0038 Y133.9457 E0.48198 F1800 ; Fill
G0 X135.0038 Y134.6617 F7200 ; Move
G1 X129.112 Y140.5535 E0.42975 F1800 ; Fill
G0 X129.8281 Y140.5535 F7200 ; Move
G1 X135.0038 Y135.3778 E0.37751 F1800 ; Fill
G0 X135.0038 Y136.0939 F7200 ; Move
G1 X130.5442 Y140.5535 E0.32528 F1800 ; Fill
G0 X131.2603 Y140.5535 F7200 ; Move
G1 X135.0038 Y136.81 E0.27305 F1800 ; Fill
G0 X135.0038 Y137.5261 F7200 ; Move
G1 X131.9764 Y140.5535 E0.22082 F1800 ; Fill
G0 X132.6924 Y140.5535 F7200 ; Move
G1 X135.0038 Y138.2422 E0.16859 F1800 ; Fill
G0 X135.0038 Y138.9583 F7200 ; Move
G1 X133.4085 Y140.5535 E0.11636 F1800 ; Fill
G0 X134.1246 Y140.5535 F7200 ; Move
G1 X135.0038 Y139.6744 E0.06413 F1800 ; Fill
G0 X135.0038 Y140.3904 F7200 ; Move
G1 X134.8407 Y140.5535 E0.0119 F1800 ; Fill
G0 Z0.25 F7200 ; Move to layer height
G10 ; Retract
G1 Z0.35 F7200 ; Z hop
G0 X77.2384 Y89.8992 F7200 ; Move to pattern start

G1 Z0.25 F7200 ; Z hop return
G11 ; Un-retract
SET_PRESSURE_ADVANCE ADVANCE=0 ; Set pressure advance
M117 PA 0
G1 X96.5592 Y109.22 E1.10311 F1800 ; Print pattern wall
G1 X77.2384 Y128.5408 E1.10311 F1800 ; Print pattern wall
G10 ; Retract
G1 Z0.35 F7200 ; Z hop
G0 X77.8141 Y89.8992 F7200 ; Move to start next pattern wall
G1 Z0.25 F7200 ; Z hop return
G11 ; Un-retract
G1 X97.1349 Y109.22 E1.10311 F1800 ; Print pattern wall
G1 X77.8141 Y128.5408 E1.10311 F1800 ; Print pattern wall
G10 ; Retract
G1 Z0.35 F7200 ; Z hop
G0 X78.3898 Y89.8992 F7200 ; Move to start next pattern wall
G1 Z0.25 F7200 ; Z hop return
G11 ; Un-retract
G1 X97.7106 Y109.22 E1.10311 F1800 ; Print pattern wall
G1 X78.3898 Y128.5408 E1.10311 F1800 ; Print pattern wall
G10 ; Retract
G1 Z0.35 F7200 ; Z hop
G0 X80.8398 Y89.8992 F7200 ; Move to next pattern
G1 Z0.25 F7200 ; Z hop return
G11 ; Un-retract
SET_PRESSURE_ADVANCE ADVANCE=0.005 ; Set pressure advance
M117 PA 0.005
G1 X100.1606 Y109.22 E1.10311 F1800 ; Print pattern wall
G1 X80.8398 Y128.5408 E1.10311 F1800 ; Print pattern wall
G10 ; Retract
G1 Z0.35 F7200 ; Z hop
G0 X81.4155 Y89.8992 F7200 ; Move to start next pattern wall
G1 Z0.25 F7200 ; Z hop return
G11 ; Un-retract
G1 X100.7363 Y109.22 E1.10311 F1800 ; Print pattern wall
G1 X81.4155 Y128.5408 E1.10311 F1800 ; Print pattern wall
G10 ; Retract
G1 Z0.35 F7200 ; Z hop
G0 X81.9912 Y89.8992 F7200 ; Move to start next pattern wall
G1 Z0.25 F7200 ; Z hop return
G11 ; Un-retract
G1 X101.312 Y109.22 E1.10311 F1800 ; Print pattern wall
G1 X81.9912 Y128.5408 E1.10311 F1800 ; Print pattern wall
G10 ; Retract
G1 Z0.35 F7200 ; Z hop
G0 X84.4412 Y89.8992 F7200 ; Move to next pattern
G1 Z0.25 F7200 ; Z hop return
G11 ; Un-retract
SET_PRESSURE_ADVANCE ADVANCE=0.01 ; Set pressure advance
M117 PA 0.01
G1 X103.762 Y109.22 E1.10311 F1800 ; Print pattern wall
G1 X84.4412 Y128.5408 E1.10311 F1800 ; Print pattern wall
G10 ; Retract
G1 Z0.35 F7200 ; Z hop
G0 X85.0169 Y89.8992 F7200 ; Move to start next pattern wall
G1 Z0.25 F7200 ; Z hop return
G11 ; Un-retract
G1 X104.3377 Y109.22 E1.10311 F1800 ; Print pattern wall
G1 X85.0169 Y128.5408 E1.10311 F1800 ; Print pattern wall
G10 ; Retract
G1 Z0.35 F7200 ; Z hop
G0 X85.5926 Y89.8992 F7200 ; Move to start next pattern wall
G1 Z0.25 F7200 ; Z hop return
G11 ; Un-retract
G1 X104.9134 Y109.22 E1.10311 F1800 ; Print pattern wall
G1 X85.5926 Y128.5408 E1.10311 F1800 ; Print pattern wall
G10 ; Retract
G1 Z0.35 F7200 ; Z hop
G0 X88.0426 Y89.8992 F7200 ; Move to next pattern
G1 Z0.25 F7200 ; Z hop return
G11 ; Un-retract
SET_PRESSURE_ADVANCE ADVANCE=0.015 ; Set pressure advance
M117 PA 0.015
G1 X107.3634 Y109.22 E1.10311 F1800 ; Print pattern wall
G1 X88.0426 Y128.5408 E1.10311 F1800 ; Print pattern wall
G10 ; Retract
G1 Z0.35 F7200 ; Z hop
G0 X88.6183 Y89.8992 F7200 ; Move to start next pattern wall
G1 Z0.25 F7200 ; Z hop return
G11 ; Un-retract
G1 X107.9391 Y109.22 E1.10311 F1800 ; Print pattern wall
G1 X88.6183 Y128.5408 E1.10311 F1800 ; Print pattern wall
G10 ; Retract
G1 Z0.35 F7200 ; Z hop
G0 X89.194 Y89.8992 F7200 ; Move to start next pattern wall
G1 Z0.25 F7200 ; Z hop return
G11 ; Un-retract
G1 X108.5148 Y109.22 E1.10311 F1800 ; Print pattern wall
G1 X89.194 Y128.5408 E1.10311 F1800 ; Print pattern wall
G10 ; Retract
G1 Z0.35 F7200 ; Z hop
G0 X91.644 Y89.8992 F7200 ; Move to next pattern
G1 Z0.25 F7200 ; Z hop return
G11 ; Un-retract
SET_PRESSURE_ADVANCE ADVANCE=0.02 ; Set pressure advance
M117 PA 0.02
G1 X110.9648 Y109.22 E1.10311 F1800 ; Print pattern wall
G1 X91.644 Y128.5408 E1.10311 F1800 ; Print pattern wall
G10 ; Retract
G1 Z0.35 F7200 ; Z hop
G0 X92.2197 Y89.8992 F7200 ; Move to start next pattern wall
G1 Z0.25 F7200 ; Z hop return
G11 ; Un-retract
G1 X111.5405 Y109.22 E1.10311 F1800 ; Print pattern wall
G1 X92.2197 Y128.5408 E1.10311 F1800 ; Print pattern wall
G10 ; Retract
G1 Z0.35 F7200 ; Z hop
G0 X92.7954 Y89.8992 F7200 ; Move to start next pattern wall
G1 Z0.25 F7200 ; Z hop return
G11 ; Un-retract
G1 X112.1162 Y109.22 E1.10311 F1800 ; Print pattern wall
G1 X92.7954 Y128.5408 E1.10311 F1800 ; Print pattern wall
G10 ; Retract
G1 Z0.35 F7200 ; Z hop
G0 X95.2454 Y89.8992 F7200 ; Move to next pattern
G1 Z0.25 F7200 ; Z hop return
G11 ; Un-retract
SET_PRESSURE_ADVANCE ADVANCE=0.025 ; Set pressure advance
M117 PA 0.025
G1 X114.5662 Y109.22 E1.10311 F1800 ; Print pattern wall
G1 X95.2454 Y128.5408 E1.10311 F1800 ; Print pattern wall
G10 ; Retract
G1 Z0.35 F7200 ; Z hop
G0 X95.8211 Y89.8992 F7200 ; Move to start next pattern wall
G1 Z0.25 F7200 ; Z hop return
G11 ; Un-retract
G1 X115.1419 Y109.22 E1.10311 F1800 ; Print pattern wall
G1 X95.8211 Y128.5408 E1.10311 F1800 ; Print pattern wall
G10 ; Retract
G1 Z0.35 F7200 ; Z hop
G0 X96.3968 Y89.8992 F7200 ; Move to start next pattern wall
G1 Z0.25 F7200 ; Z hop return
G11 ; Un-retract
G1 X115.7176 Y109.22 E1.10311 F1800 ; Print pattern wall
G1 X96.3968 Y128.5408 E1.10311 F1800 ; Print pattern wall
G10 ; Retract
G1 Z0.35 F7200 ; Z hop
G0 X98.8468 Y89.8992 F7200 ; Move to next pattern
G1 Z0.25 F7200 ; Z hop return
G11 ; Un-retract
SET_PRESSURE_ADVANCE ADVANCE=0.03 ; Set pressure advance
M117 PA 0.03
G1 X118.1676 Y109.22 E1.10311 F1800 ; Print pattern wall
G1 X98.8468 Y128.5408 E1.10311 F1800 ; Print pattern wall
G10 ; Retract
G1 Z0.35 F7200 ; Z hop
G0 X99.4225 Y89.8992 F7200 ; Move to start next pattern wall
G1 Z0.25 F7200 ; Z hop return
G11 ; Un-retract
G1 X118.7433 Y109.22 E1.10311 F1800 ; Print pattern wall
G1 X99.4225 Y128.5408 E1.10311 F1800 ; Print pattern wall
G10 ; Retract
G1 Z0.35 F7200 ; Z hop
G0 X99.9981 Y89.8992 F7200 ; Move to start next pattern wall
G1 Z0.25 F7200 ; Z hop return
G11 ; Un-retract
G1 X119.319 Y109.22 E1.10311 F1800 ; Print pattern wall
G1 X99.9981 Y128.5408 E1.10311 F1800 ; Print pattern wall
G10 ; Retract
G1 Z0.35 F7200 ; Z hop
G0 X102.4481 Y89.8992 F7200 ; Move to next pattern
G1 Z0.25 F7200 ; Z hop return
G11 ; Un-retract
SET_PRESSURE_ADVANCE ADVANCE=0.035 ; Set pressure advance
M117 PA 0.035
G1 X121.769 Y109.22 E1.10311 F1800 ; Print pattern wall
G1 X102.4481 Y128.5408 E1.10311 F1800 ; Print pattern wall
G10 ; Retract
G1 Z0.35 F7200 ; Z hop
G0 X103.0238 Y89.8992 F7200 ; Move to start next pattern wall
G1 Z0.25 F7200 ; Z hop return
G11 ; Un-retract
G1 X122.3447 Y109.22 E1.10311 F1800 ; Print pattern wall
G1 X103.0238 Y128.5408 E1.10311 F1800 ; Print pattern wall
G10 ; Retract
G1 Z0.35 F7200 ; Z hop
G0 X103.5995 Y89.8992 F7200 ; Move to start next pattern wall
G1 Z0.25 F7200 ; Z hop return
G11 ; Un-retract
G1 X122.9204 Y109.22 E1.10311 F1800 ; Print pattern wall
G1 X103.5995 Y128.5408 E1.10311 F1800 ; Print pattern wall
G10 ; Retract
G1 Z0.35 F7200 ; Z hop
G0 X106.0495 Y89.8992 F7200 ; Move to next pattern
G1 Z0.25 F7200 ; Z hop return
G11 ; Un-retract
SET_PRESSURE_ADVANCE ADVANCE=0.04 ; Set pressure advance
M117 PA 0.04
G1 X125.3704 Y109.22 E1.10311 F1800 ; Print pattern wall
G1 X106.0495 Y128.5408 E1.10311 F1800 ; Print pattern wall
G10 ; Retract
G1 Z0.35 F7200 ; Z hop
G0 X106.6252 Y89.8992 F7200 ; Move to start next pattern wall
G1 Z0.25 F7200 ; Z hop return
G11 ; Un-retract
G1 X125.9461 Y109.22 E1.10311 F1800 ; Print pattern wall
G1 X106.6252 Y128.5408 E1.10311 F1800 ; Print pattern wall
G10 ; Retract
G1 Z0.35 F7200 ; Z hop
G0 X107.2009 Y89.8992 F7200 ; Move to start next pattern wall
G1 Z0.25 F7200 ; Z hop return
G11 ; Un-retract
G1 X126.5218 Y109.22 E1.10311 F1800 ; Print pattern wall
G1 X107.2009 Y128.5408 E1.10311 F1800 ; Print pattern wall
G10 ; Retract
G1 Z0.35 F7200 ; Z hop
G0 X109.6509 Y89.8992 F7200 ; Move to next pattern
G1 Z0.25 F7200 ; Z hop return
G11 ; Un-retract
SET_PRESSURE_ADVANCE ADVANCE=0.045 ; Set pressure advance
M117 PA 0.045
G1 X128.9718 Y109.22 E1.10311 F1800 ; Print pattern wall
G1 X109.6509 Y128.5408 E1.10311 F1800 ; Print pattern wall
G10 ; Retract
G1 Z0.35 F7200 ; Z hop
G0 X110.2266 Y89.8992 F7200 ; Move to start next pattern wall
G1 Z0.25 F7200 ; Z hop return
G11 ; Un-retract
G1 X129.5475 Y109.22 E1.10311 F1800 ; Print pattern wall
G1 X110.2266 Y128.5408 E1.10311 F1800 ; Print pattern wall
G10 ; Retract
G1 Z0.35 F7200 ; Z hop
G0 X110.8023 Y89.8992 F7200 ; Move to start next pattern wall
G1 Z0.25 F7200 ; Z hop return
G11 ; Un-retract
G1 X130.1232 Y109.22 E1.10311 F1800 ; Print pattern wall
G1 X110.8023 Y128.5408 E1.10311 F1800 ; Print pattern wall
G10 ; Retract
G1 Z0.35 F7200 ; Z hop
G0 X113.2523 Y89.8992 F7200 ; Move to next pattern
G1 Z0.25 F7200 ; Z hop return
G11 ; Un-retract
SET_PRESSURE_ADVANCE ADVANCE=0.05 ; Set pressure advance
M117 PA 0.05
G1 X132.5732 Y109.22 E1.10311 F1800 ; Print pattern wall
G1 X113.2523 Y128.5408 E1.10311 F1800 ; Print pattern wall
G10 ; Retract
G1 Z0.35 F7200 ; Z hop
G0 X113.828 Y89.8992 F7200 ; Move to start next pattern wall
G1 Z0.25 F7200 ; Z hop return
G11 ; Un-retract
G1 X133.1489 Y109.22 E1.10311 F1800 ; Print pattern wall
G1 X113.828 Y128.5408 E1.10311 F1800 ; Print pattern wall
G10 ; Retract
G1 Z0.35 F7200 ; Z hop
G0 X114.4037 Y89.8992 F7200 ; Move to start next pattern wall
G1 Z0.25 F7200 ; Z hop return
G11 ; Un-retract
G1 X133.7246 Y109.22 E1.10311 F1800 ; Print pattern wall
G1 X114.4037 Y128.5408 E1.10311 F1800 ; Print pattern wall
G10 ; Retract
G1 Z0.35 F7200 ; Z hop
G0 X116.8537 Y89.8992 F7200 ; Move to next pattern
G1 Z0.25 F7200 ; Z hop return
G11 ; Un-retract
SET_PRESSURE_ADVANCE ADVANCE=0.055 ; Set pressure advance
M117 PA 0.055
G1 X136.1746 Y109.22 E1.10311 F1800 ; Print pattern wall
G1 X116.8537 Y128.5408 E1.10311 F1800 ; Print pattern wall
G10 ; Retract
G1 Z0.35 F7200 ; Z hop
G0 X117.4294 Y89.8992 F7200 ; Move to start next pattern wall
G1 Z0.25 F7200 ; Z hop return
G11 ; Un-retract
G1 X136.7502 Y109.22 E1.10311 F1800 ; Print pattern wall
G1 X117.4294 Y128.5408 E1.10311 F1800 ; Print pattern wall
G10 ; Retract
G1 Z0.35 F7200 ; Z hop
G0 X118.0051 Y89.8992 F7200 ; Move to start next pattern wall
G1 Z0.25 F7200 ; Z hop return
G11 ; Un-retract
G1 X137.3259 Y109.22 E1.10311 F1800 ; Print pattern wall
G1 X118.0051 Y128.5408 E1.10311 F1800 ; Print pattern wall
G10 ; Retract
G1 Z0.35 F7200 ; Z hop
G0 X120.4551 Y89.8992 F7200 ; Move to next pattern
G1 Z0.25 F7200 ; Z hop return
G11 ; Un-retract
SET_PRESSURE_ADVANCE ADVANCE=0.06 ; Set pressure advance
M117 PA 0.06
G1 X139.7759 Y109.22 E1.10311 F1800 ; Print pattern wall
G1 X120.4551 Y128.5408 E1.10311 F1800 ; Print pattern wall
G10 ; Retract
G1 Z0.35 F7200 ; Z hop
G0 X121.0308 Y89.8992 F7200 ; Move to start next pattern wall
G1 Z0.25 F7200 ; Z hop return
G11 ; Un-retract
G1 X140.3516 Y109.22 E1.10311 F1800 ; Print pattern wall
G1 X121.0308 Y128.5408 E1.10311 F1800 ; Print pattern wall
G10 ; Retract
G1 Z0.35 F7200 ; Z hop
G0 X121.6065 Y89.8992 F7200 ; Move to start next pattern wall
G1 Z0.25 F7200 ; Z hop return
G11 ; Un-retract
G1 X140.9273 Y109.22 E1.10311 F1800 ; Print pattern wall
G1 X121.6065 Y128.5408 E1.10311 F1800 ; Print pattern wall
G10 ; Retract
G1 Z0.35 F7200 ; Z hop
G0 X124.0565 Y89.8992 F7200 ; Move to next pattern
G1 Z0.25 F7200 ; Z hop return
G11 ; Un-retract
SET_PRESSURE_ADVANCE ADVANCE=0.065 ; Set pressure advance
M117 PA 0.065
G1 X143.3773 Y109.22 E1.10311 F1800 ; Print pattern wall
G1 X124.0565 Y128.5408 E1.10311 F1800 ; Print pattern wall
G10 ; Retract
G1 Z0.35 F7200 ; Z hop
G0 X124.6322 Y89.8992 F7200 ; Move to start next pattern wall
G1 Z0.25 F7200 ; Z hop return
G11 ; Un-retract
G1 X143.953 Y109.22 E1.10311 F1800 ; Print pattern wall
G1 X124.6322 Y128.5408 E1.10311 F1800 ; Print pattern wall
G10 ; Retract
G1 Z0.35 F7200 ; Z hop
G0 X125.2079 Y89.8992 F7200 ; Move to start next pattern wall
G1 Z0.25 F7200 ; Z hop return
G11 ; Un-retract
G1 X144.5287 Y109.22 E1.10311 F1800 ; Print pattern wall
G1 X125.2079 Y128.5408 E1.10311 F1800 ; Print pattern wall
G10 ; Retract
G1 Z0.35 F7200 ; Z hop
G0 X127.6579 Y89.8992 F7200 ; Move to next pattern
G1 Z0.25 F7200 ; Z hop return
G11 ; Un-retract
SET_PRESSURE_ADVANCE ADVANCE=0.07 ; Set pressure advance
M117 PA 0.07
G1 X146.9787 Y109.22 E1.10311 F1800 ; Print pattern wall
G1 X127.6579 Y128.5408 E1.10311 F1800 ; Print pattern wall
G10 ; Retract
G1 Z0.35 F7200 ; Z hop
G0 X128.2336 Y89.8992 F7200 ; Move to start next pattern wall
G1 Z0.25 F7200 ; Z hop return
G11 ; Un-retract
G1 X147.5544 Y109.22 E1.10311 F1800 ; Print pattern wall
G1 X128.2336 Y128.5408 E1.10311 F1800 ; Print pattern wall
G10 ; Retract
G1 Z0.35 F7200 ; Z hop
G0 X128.8093 Y89.8992 F7200 ; Move to start next pattern wall
G1 Z0.25 F7200 ; Z hop return
G11 ; Un-retract
G1 X148.1301 Y109.22 E1.10311 F1800 ; Print pattern wall
G1 X128.8093 Y128.5408 E1.10311 F1800 ; Print pattern wall
G10 ; Retract
G1 Z0.35 F7200 ; Z hop
G0 X131.2593 Y89.8992 F7200 ; Move to next pattern
G1 Z0.25 F7200 ; Z hop return
G11 ; Un-retract
SET_PRESSURE_ADVANCE ADVANCE=0.075 ; Set pressure advance
M117 PA 0.075
G1 X150.5801 Y109.22 E1.10311 F1800 ; Print pattern wall
G1 X131.2593 Y128.5408 E1.10311 F1800 ; Print pattern wall
G10 ; Retract
G1 Z0.35 F7200 ; Z hop
G0 X131.835 Y89.8992 F7200 ; Move to start next pattern wall
G1 Z0.25 F7200 ; Z hop return
G11 ; Un-retract
G1 X151.1558 Y109.22 E1.10311 F1800 ; Print pattern wall
G1 X131.835 Y128.5408 E1.10311 F1800 ; Print pattern wall
G10 ; Retract
G1 Z0.35 F7200 ; Z hop
G0 X132.4107 Y89.8992 F7200 ; Move to start next pattern wall
G1 Z0.25 F7200 ; Z hop return
G11 ; Un-retract
G1 X151.7315 Y109.22 E1.10311 F1800 ; Print pattern wall
G1 X132.4107 Y128.5408 E1.10311 F1800 ; Print pattern wall
G10 ; Retract
G1 Z0.35 F7200 ; Z hop
G0 X134.8607 Y89.8992 F7200 ; Move to next pattern
G1 Z0.25 F7200 ; Z hop return
G11 ; Un-retract
SET_PRESSURE_ADVANCE ADVANCE=0.08 ; Set pressure advance
M117 PA 0.08
G1 X154.1815 Y109.22 E1.10311 F1800 ; Print pattern wall
G1 X134.8607 Y128.5408 E1.10311 F1800 ; Print pattern wall
G10 ; Retract
G1 Z0.35 F7200 ; Z hop
G0 X135.4364 Y89.8992 F7200 ; Move to start next pattern wall
G1 Z0.25 F7200 ; Z hop return
G11 ; Un-retract
G1 X154.7572 Y109.22 E1.10311 F1800 ; Print pattern wall
G1 X135.4364 Y128.5408 E1.10311 F1800 ; Print pattern wall
G10 ; Retract
G1 Z0.35 F7200 ; Z hop
G0 X136.0121 Y89.8992 F7200 ; Move to start next pattern wall
G1 Z0.25 F7200 ; Z hop return
G11 ; Un-retract
G1 X155.3329 Y109.22 E1.10311 F1800 ; Print pattern wall
G1 X136.0121 Y128.5408 E1.10311 F1800 ; Print pattern wall
G10 ; Retract
G1 Z0.35 F7200 ; Z hop
G0 X77.2384 Y89.8992 F7200 ; Move back to start position
G1 Z0.25 F7200 ; Z hop return
G11 ; Un-retract
M106 S51 ; Set fan speed
G0 Z0.45 F7200 ; Move to layer height
SET_PRESSURE_ADVANCE ADVANCE=0 ; Set pressure advance to start value for numbering
M117 PA 0
G10 ; Retract
G1 Z0.55 F7200 ; Z hop
G0 X73.9217 Y131.8832 F7200 ; Move
G1 Z0.45 F7200 ; Z hop return
G11 ; Un-retract
G1 X75.9217 Y131.8832 E0.06634 F1800 ; Glyph: 0
G1 X77.9217 Y131.8832 E0.06634 F1800 ; Glyph: 0
G1 X77.9217 Y133.8832 E0.06634 F1800 ; Glyph: 0
G1 X75.9217 Y133.8832 E0.06634 F1800 ; Glyph: 0
G1 X73.9217 Y133.8832 E0.06634 F1800 ; Glyph: 0
G1 X73.9217 Y131.8832 E0.06634 F1800 ; Glyph: 0
G10 ; Retract
G1 Z0.55 F7200 ; Z hop
G0 X81.1245 Y131.8832 F7200 ; Move
G1 Z0.45 F7200 ; Z hop return
G11 ; Un-retract
G1 X83.1245 Y131.8832 E0.06634 F1800 ; Glyph: 0
G1 X85.1245 Y131.8832 E0.06634 F1800 ; Glyph: 0
G1 X85.1245 Y133.8832 E0.06634 F1800 ; Glyph: 0
G1 X83.1245 Y133.8832 E0.06634 F1800 ; Glyph: 0
G1 X81.1245 Y133.8832 E0.06634 F1800 ; Glyph: 0
G1 X81.1245 Y131.8832 E0.06634 F1800 ; Glyph: 0
G10 ; Retract
G1 Z0.55 F7200 ; Z hop
G0 X85.1245 Y134.8832 F7200 ; Move
G1 Z0.45 F7200 ; Z hop return
G11 ; Un-retract
G1 X84.3745 Y134.8832 E0.02488 F1800 ; Glyph: .
G10 ; Retract
G1 Z0.55 F7200 ; Z hop
G0 X81.1245 Y135.8832 F7200 ; Move
G1 Z0.45 F7200 ; Z hop return
G11 ; Un-retract
G1 X83.1245 Y135.8832 E0.06634 F1800 ; Glyph: 0
G1 X85.1245 Y135.8832 E0.06634 F1800 ; Glyph: 0
G1 X85.1245 Y137.8832 E0.06634 F1800 ; Glyph: 0
G1 X83.1245 Y137.8832 E0.06634 F1800 ; Glyph: 0
G1 X81.1245 Y137.8832 E0.06634 F1800 ; Glyph: 0
G1 X81.1245 Y135.8832 E0.06634 F1800 ; Glyph: 0
G10 ; Retract
G1 Z0.55 F7200 ; Z hop
G0 X81.1245 Y138.8832 F7200 ; Move
G1 Z0.45 F7200 ; Z hop return
G11 ; Un-retract
G1 X83.1245 Y138.8832 E0.06634 F1800 ; Glyph: 1
G1 X85.1245 Y138.8832 E0.06634 F1800 ; Glyph: 1
G10 ; Retract
G1 Z0.55 F7200 ; Z hop
G0 X88.3273 Y131.8832 F7200 ; Move
G1 Z0.45 F7200 ; Z hop return
G11 ; Un-retract
G1 X90.3273 Y131.8832 E0.06634 F1800 ; Glyph: 0
G1 X92.3273 Y131.8832 E0.06634 F1800 ; Glyph: 0
G1 X92.3273 Y133.8832 E0.06634 F1800 ; Glyph: 0
G1 X90.3273 Y133.8832 E0.06634 F1800 ; Glyph: 0
G1 X88.3273 Y133.8832 E0.06634 F1800 ; Glyph: 0
G1 X88.3273 Y131.8832 E0.06634 F1800 ; Glyph: 0
G10 ; Retract
G1 Z0.55 F7200 ; Z hop
G0 X92.3273 Y134.8832 F7200 ; Move
G1 Z0.45 F7200 ; Z hop return
G11 ; Un-retract
G1 X91.5773 Y134.8832 E0.02488 F1800 ; Glyph: .
G10 ; Retract
G1 Z0.55 F7200 ; Z hop
G0 X88.3273 Y135.8832 F7200 ; Move
G1 Z0.45 F7200 ; Z hop return
G11 ; Un-retract
G1 X90.3273 Y135.8832 E0.06634 F1800 ; Glyph: 0
G1 X92.3273 Y135.8832 E0.06634 F1800 ; Glyph: 0
G1 X92.3273 Y137.8832 E0.06634 F1800 ; Glyph: 0
G1 X90.3273 Y137.8832 E0.06634 F1800 ; Glyph: 0
G1 X88.3273 Y137.8832 E0.06634 F1800 ; Glyph: 0
G1 X88.3273 Y135.8832 E0.06634 F1800 ; Glyph: 0
G10 ; Retract
G1 Z0.55 F7200 ; Z hop
G0 X88.3273 Y138.8832 F7200 ; Move
G1 Z0.45 F7200 ; Z hop return
G11 ; Un-retract
G1 X88.3273 Y140.8832 E0.06634 F1800 ; Glyph: 2
G1 X90.3273 Y140.8832 E0.06634 F1800 ; Glyph: 2
G1 X90.3273 Y138.8832 E0.06634 F1800 ; Glyph: 2
G1 X92.3273 Y138.8832 E0.06634 F1800 ; Glyph: 2
G1 X92.3273 Y140.8832 E0.06634 F1800 ; Glyph: 2
G10 ; Retract
G1 Z0.55 F7200 ; Z hop
G0 X95.5301 Y131.8832 F7200 ; Move
G1 Z0.45 F7200 ; Z hop return
G11 ; Un-retract
G1 X97.5301 Y131.8832 E0.06634 F1800 ; Glyph: 0
G1 X99.5301 Y131.8832 E0.06634 F1800 ; Glyph: 0
G1 X99.5301 Y133.8832 E0.06634 F1800 ; Glyph: 0
G1 X97.5301 Y133.8832 E0.06634 F1800 ; Glyph: 0
G1 X95.5301 Y133.8832 E0.06634 F1800 ; Glyph: 0
G1 X95.5301 Y131.8832 E0.06634 F1800 ; Glyph: 0
G10 ; Retract
G1 Z0.55 F7200 ; Z hop
G0 X99.5301 Y134.8832 F7200 ; Move
G1 Z0.45 F7200 ; Z hop return
G11 ; Un-retract
G1 X98.7801 Y134.8832 E0.02488 F1800 ; Glyph: .
G10 ; Retract
G1 Z0.55 F7200 ; Z hop
G0 X95.5301 Y135.8832 F7200 ; Move
G1 Z0.45 F7200 ; Z hop return
G11 ; Un-retract
G1 X97.5301 Y135.8832 E0.06634 F1800 ; Glyph: 0
G1 X99.5301 Y135.8832 E0.06634 F1800 ; Glyph: 0
G1 X99.5301 Y137.8832 E0.06634 F1800 ; Glyph: 0
G1 X97.5301 Y137.8832 E0.06634 F1800 ; Glyph: 0
G1 X95.5301 Y137.8832 E0.06634 F1800 ; Glyph: 0
G1 X95.5301 Y135.8832 E0.06634 F1800 ; Glyph: 0
G10 ; Retract
G1 Z0.55 F7200 ; Z hop
G0 X95.5301 Y138.8832 F7200 ; Move
G1 Z0.45 F7200 ; Z hop return
G11 ; Un-retract
G1 X95.5301 Y140.8832 E0.06634 F1800 ; Glyph: 3
G1 X97.5301 Y140.8832 E0.06634 F1800 ; Glyph: 3
G1 X97.5301 Y138.8832 E0.06634 F1800 ; Glyph: 3
G0 X97.5301 Y140.8832 F7200 ; Move
G1 X99.5301 Y140.8832 E0.06634 F1800 ; Glyph: 3
G1 X99.5301 Y138.8832 E0.06634 F1800 ; Glyph: 3
G10 ; Retract
G1 Z0.55 F7200 ; Z hop
G0 X102.7329 Y131.8832 F7200 ; Move
G1 Z0.45 F7200 ; Z hop return
G11 ; Un-retract
G1 X104.7329 Y131.8832 E0.06634 F1800 ; Glyph: 0
G1 X106.7329 Y131.8832 E0.06634 F1800 ; Glyph: 0
G1 X106.7329 Y133.8832 E0.06634 F1800 ; Glyph: 0
G1 X104.7329 Y133.8832 E0.06634 F1800 ; Glyph: 0
G1 X102.7329 Y133.8832 E0.06634 F1800 ; Glyph: 0
G1 X102.7329 Y131.8832 E0.06634 F1800 ; Glyph: 0
G10 ; Retract
G1 Z0.55 F7200 ; Z hop
G0 X106.7329 Y134.8832 F7200 ; Move
G1 Z0.45 F7200 ; Z hop return
G11 ; Un-retract
G1 X105.9829 Y134.8832 E0.02488 F1800 ; Glyph: .
G10 ; Retract
G1 Z0.55 F7200 ; Z hop
G0 X102.7329 Y135.8832 F7200 ; Move
G1 Z0.45 F7200 ; Z hop return
G11 ; Un-retract
G1 X104.7329 Y135.8832 E0.06634 F1800 ; Glyph: 0
G1 X106.7329 Y135.8832 E0.06634 F1800 ; Glyph: 0
G1 X106.7329 Y137.8832 E0.06634 F1800 ; Glyph: 0
G1 X104.7329 Y137.8832 E0.06634 F1800 ; Glyph: 0
G1 X102.7329 Y137.8832 E0.06634 F1800 ; Glyph: 0
G1 X102.7329 Y135.8832 E0.06634 F1800 ; Glyph: 0
G10 ; Retract
G1 Z0.55 F7200 ; Z hop
G0 X102.7329 Y140.8832 F7200 ; Move
G1 Z0.45 F7200 ; Z hop return
G11 ; Un-retract
G1 X104.7329 Y140.8832 E0.06634 F1800 ; Glyph: 4
G1 X106.7329 Y140.8832 E0.06634 F1800 ; Glyph: 4
G0 X104.7329 Y140.8832 F7200 ; Move
G1 X104.7329 Y138.8832 E0.06634 F1800 ; Glyph: 4
G1 X102.7329 Y138.8832 E0.06634 F1800 ; Glyph: 4
G10 ; Retract
G1 Z0.55 F7200 ; Z hop
G0 X109.9357 Y131.8832 F7200 ; Move
G1 Z0.45 F7200 ; Z hop return
G11 ; Un-retract
G1 X111.9357 Y131.8832 E0.06634 F1800 ; Glyph: 0
G1 X113.9357 Y131.8832 E0.06634 F1800 ; Glyph: 0
G1 X113.9357 Y133.8832 E0.06634 F1800 ; Glyph: 0
G1 X111.9357 Y133.8832 E0.06634 F1800 ; Glyph: 0
G1 X109.9357 Y133.8832 E0.06634 F1800 ; Glyph: 0
G1 X109.9357 Y131.8832 E0.06634 F1800 ; Glyph: 0
G10 ; Retract
G1 Z0.55 F7200 ; Z hop
G0 X113.9357 Y134.8832 F7200 ; Move
G1 Z0.45 F7200 ; Z hop return
G11 ; Un-retract
G1 X113.1857 Y134.8832 E0.02488 F1800 ; Glyph: .
G10 ; Retract
G1 Z0.55 F7200 ; Z hop
G0 X109.9357 Y135.8832 F7200 ; Move
G1 Z0.45 F7200 ; Z hop return
G11 ; Un-retract
G1 X111.9357 Y135.8832 E0.06634 F1800 ; Glyph: 0
G1 X113.9357 Y135.8832 E0.06634 F1800 ; Glyph: 0
G1 X113.9357 Y137.8832 E0.06634 F1800 ; Glyph: 0
G1 X111.9357 Y137.8832 E0.06634 F1800 ; Glyph: 0
G1 X109.9357 Y137.8832 E0.06634 F1800 ; Glyph: 0
G1 X109.9357 Y135.8832 E0.06634 F1800 ; Glyph: 0
G10 ; Retract
G1 Z0.55 F7200 ; Z hop
G0 X109.9357 Y140.8832 F7200 ; Move
G1 Z0.45 F7200 ; Z hop return
G11 ; Un-retract
G1 X109.9357 Y138.8832 E0.06634 F1800 ; Glyph: 5
G1 X111.9357 Y138.8832 E0.06634 F1800 ; Glyph: 5
G1 X111.9357 Y140.8832 E0.06634 F1800 ; Glyph: 5
G1 X113.9357 Y140.8832 E0.06634 F1800 ; Glyph: 5
G1 X113.9357 Y138.8832 E0.06634 F1800 ; Glyph: 5
G10 ; Retract
G1 Z0.55 F7200 ; Z hop
G0 X117.1384 Y131.8832 F7200 ; Move
G1 Z0.45 F7200 ; Z hop return
G11 ; Un-retract
G1 X119.1384 Y131.8832 E0.06634 F1800 ; Glyph: 0
G1 X121.1384 Y131.8832 E0.06634 F1800 ; Glyph: 0
G1 X121.1384 Y133.8832 E0.06634 F1800 ; Glyph: 0
G1 X119.1384 Y133.8832 E0.06634 F1800 ; Glyph: 0
G1 X117.1384 Y133.8832 E0.06634 F1800 ; Glyph: 0
G1 X117.1384 Y131.8832 E0.06634 F1800 ; Glyph: 0
G10 ; Retract
G1 Z0.55 F7200 ; Z hop
G0 X121.1384 Y134.8832 F7200 ; Move
G1 Z0.45 F7200 ; Z hop return
G11 ; Un-retract
G1 X120.3884 Y134.8832 E0.02488 F1800 ; Glyph: .
G10 ; Retract
G1 Z0.55 F7200 ; Z hop
G0 X117.1384 Y135.8832 F7200 ; Move
G1 Z0.45 F7200 ; Z hop return
G11 ; Un-retract
G1 X119.1384 Y135.8832 E0.06634 F1800 ; Glyph: 0
G1 X121.1384 Y135.8832 E0.06634 F1800 ; Glyph: 0
G1 X121.1384 Y137.8832 E0.06634 F1800 ; Glyph: 0
G1 X119.1384 Y137.8832 E0.06634 F1800 ; Glyph: 0
G1 X117.1384 Y137.8832 E0.06634 F1800 ; Glyph: 0
G1 X117.1384 Y135.8832 E0.06634 F1800 ; Glyph: 0
G10 ; Retract
G1 Z0.55 F7200 ; Z hop
G0 X117.1384 Y140.8832 F7200 ; Move
G1 Z0.45 F7200 ; Z hop return
G11 ; Un-retract
G1 X117.1384 Y138.8832 E0.06634 F1800 ; Glyph: 6
G1 X119.1384 Y138.8832 E0.06634 F1800 ; Glyph: 6
G1 X121.1384 Y138.8832 E0.06634 F1800 ; Glyph: 6
G1 X121.1384 Y140.8832 E0.06634 F1800 ; Glyph: 6
G1 X119.1384 Y140.8832 E0.06634 F1800 ; Glyph: 6
G1 X119.1384 Y138.8832 E0.06634 F1800 ; Glyph: 6
G10 ; Retract
G1 Z0.55 F7200 ; Z hop
G0 X124.3412 Y131.8832 F7200 ; Move
G1 Z0.45 F7200 ; Z hop return
G11 ; Un-retract
G1 X126.3412 Y131.8832 E0.06634 F1800 ; Glyph: 0
G1 X128.3412 Y131.8832 E0.06634 F1800 ; Glyph: 0
G1 X128.3412 Y133.8832 E0.06634 F1800 ; Glyph: 0
G1 X126.3412 Y133.8832 E0.06634 F1800 ; Glyph: 0
G1 X124.3412 Y133.8832 E0.06634 F1800 ; Glyph: 0
G1 X124.3412 Y131.8832 E0.06634 F1800 ; Glyph: 0
G10 ; Retract
G1 Z0.55 F7200 ; Z hop
G0 X128.3412 Y134.8832 F7200 ; Move
G1 Z0.45 F7200 ; Z hop return
G11 ; Un-retract
G1 X127.5912 Y134.8832 E0.02488 F1800 ; Glyph: .
G10 ; Retract
G1 Z0.55 F7200 ; Z hop
G0 X124.3412 Y135.8832 F7200 ; Move
G1 Z0.45 F7200 ; Z hop return
G11 ; Un-retract
G1 X126.3412 Y135.8832 E0.06634 F1800 ; Glyph: 0
G1 X128.3412 Y135.8832 E0.06634 F1800 ; Glyph: 0
G1 X128.3412 Y137.8832 E0.06634 F1800 ; Glyph: 0
G1 X126.3412 Y137.8832 E0.06634 F1800 ; Glyph: 0
G1 X124.3412 Y137.8832 E0.06634 F1800 ; Glyph: 0
G1 X124.3412 Y135.8832 E0.06634 F1800 ; Glyph: 0
G10 ; Retract
G1 Z0.55 F7200 ; Z hop
G0 X124.3412 Y138.8832 F7200 ; Move
G1 Z0.45 F7200 ; Z hop return
G11 ; Un-retract
G1 X124.3412 Y140.8832 E0.06634 F1800 ; Glyph: 7
G1 X126.3412 Y140.8832 E0.06634 F1800 ; Glyph: 7
G1 X128.3412 Y140.8832 E0.06634 F1800 ; Glyph: 7
G10 ; Retract
G1 Z0.55 F7200 ; Z hop
G0 X131.544 Y131.8832 F7200 ; Move
G1 Z0.45 F7200 ; Z hop return
G11 ; Un-retract
G1 X133.544 Y131.8832 E0.06634 F1800 ; Glyph: 0
G1 X135.544 Y131.8832 E0.06634 F1800 ; Glyph: 0
G1 X135.544 Y133.8832 E0.06634 F1800 ; Glyph: 0
G1 X133.544 Y133.8832 E0.06634 F1800 ; Glyph: 0
G1 X131.544 Y133.8832 E0.06634 F1800 ; Glyph: 0
G1 X131.544 Y131.8832 E0.06634 F1800 ; Glyph: 0
G10 ; Retract
G1 Z0.55 F7200 ; Z hop
G0 X135.544 Y134.8832 F7200 ; Move
G1 Z0.45 F7200 ; Z hop return
G11 ; Un-retract
G1 X134.794 Y134.8832 E0.02488 F1800 ; Glyph: .
G10 ; Retract
G1 Z0.55 F7200 ; Z hop
G0 X131.544 Y135.8832 F7200 ; Move
G1 Z0.45 F7200 ; Z hop return
G11 ; Un-retract
G1 X133.544 Y135.8832 E0.06634 F1800 ; Glyph: 0
G1 X135.544 Y135.8832 E0.06634 F1800 ; Glyph: 0
G1 X135.544 Y137.8832 E0.06634 F1800 ; Glyph: 0
G1 X133.544 Y137.8832 E0.06634 F1800 ; Glyph: 0
G1 X131.544 Y137.8832 E0.06634 F1800 ; Glyph: 0
G1 X131.544 Y135.8832 E0.06634 F1800 ; Glyph: 0
G10 ; Retract
G1 Z0.55 F7200 ; Z hop
G0 X131.544 Y138.8832 F7200 ; Move
G1 Z0.45 F7200 ; Z hop return
G11 ; Un-retract
G1 X133.544 Y138.8832 E0.06634 F1800 ; Glyph: 8
G1 X135.544 Y138.8832 E0.06634 F1800 ; Glyph: 8
G1 X135.544 Y140.8832 E0.06634 F1800 ; Glyph: 8
G1 X133.544 Y140.8832 E0.06634 F1800 ; Glyph: 8
G1 X131.544 Y140.8832 E0.06634 F1800 ; Glyph: 8
G1 X131.544 Y138.8832 E0.06634 F1800 ; Glyph: 8
G0 X133.544 Y138.8832 F7200 ; Move
G1 X133.544 Y140.8832 E0.06634 F1800 ; Glyph: 8
G10 ; Retract
G1 Z0.55 F7200 ; Z hop
G0 X75.346 Y88.0068 F7200 ; Move to pattern start

G1 Z0.45 F7200 ; Z hop return
G11 ; Un-retract
SET_PRESSURE_ADVANCE ADVANCE=0 ; Set pressure advance
M117 PA 0
G1 X96.5592 Y109.22 E0.99515 F6000 ; Print pattern wall
G1 X75.346 Y130.4332 E0.99515 F6000 ; Print pattern wall
G10 ; Retract
G1 Z0.55 F7200 ; Z hop
G0 X75.9217 Y88.0068 F7200 ; Move to start next pattern wall
G1 Z0.45 F7200 ; Z hop return
G11 ; Un-retract
G1 X97.1349 Y109.22 E0.99515 F6000 ; Print pattern wall
G1 X75.9217 Y130.4332 E0.99515 F6000 ; Print pattern wall
G10 ; Retract
G1 Z0.55 F7200 ; Z hop
G0 X76.4974 Y88.0068 F7200 ; Move to start next pattern wall
G1 Z0.45 F7200 ; Z hop return
G11 ; Un-retract
G1 X97.7106 Y109.22 E0.99515 F6000 ; Print pattern wall
G1 X76.4974 Y130.4332 E0.99515 F6000 ; Print pattern wall
G10 ; Retract
G1 Z0.55 F7200 ; Z hop
G0 X78.9474 Y88.0068 F7200 ; Move to next pattern
G1 Z0.45 F7200 ; Z hop return
G11 ; Un-retract
SET_PRESSURE_ADVANCE ADVANCE=0.005 ; Set pressure advance
M117 PA 0.005
G1 X100.1606 Y109.22 E0.99515 F6000 ; Print pattern wall
G1 X78.9474 Y130.4332 E0.99515 F6000 ; Print pattern wall
G10 ; Retract
G1 Z0.55 F7200 ; Z hop
G0 X79.5231 Y88.0068 F7200 ; Move to start next pattern wall
G1 Z0.45 F7200 ; Z hop return
G11 ; Un-retract
G1 X100.7363 Y109.22 E0.99515 F6000 ; Print pattern wall
G1 X79.5231 Y130.4332 E0.99515 F6000 ; Print pattern wall
G10 ; Retract
G1 Z0.55 F7200 ; Z hop
G0 X80.0988 Y88.0068 F7200 ; Move to start next pattern wall
G1 Z0.45 F7200 ; Z hop return
G11 ; Un-retract
G1 X101.312 Y109.22 E0.99515 F6000 ; Print pattern wall
G1 X80.0988 Y130.4332 E0.99515 F6000 ; Print pattern wall
G10 ; Retract
G1 Z0.55 F7200 ; Z hop
G0 X82.5488 Y88.0068 F7200 ; Move to next pattern
G1 Z0.45 F7200 ; Z hop return
G11 ; Un-retract
SET_PRESSURE_ADVANCE ADVANCE=0.01 ; Set pressure advance
M117 PA 0.01
G1 X103.762 Y109.22 E0.99515 F6000 ; Print pattern wall
G1 X82.5488 Y130.4332 E0.99515 F6000 ; Print pattern wall
G10 ; Retract
G1 Z0.55 F7200 ; Z hop
G0 X83.1245 Y88.0068 F7200 ; Move to start next pattern wall
G1 Z0.45 F7200 ; Z hop return
G11 ; Un-retract
G1 X104.3377 Y109.22 E0.99515 F6000 ; Print pattern wall
G1 X83.1245 Y130.4332 E0.99515 F6000 ; Print pattern wall
G10 ; Retract
G1 Z0.55 F7200 ; Z hop
G0 X83.7002 Y88.0068 F7200 ; Move to start next pattern wall
G1 Z0.45 F7200 ; Z hop return
G11 ; Un-retract
G1 X104.9134 Y109.22 E0.99515 F6000 ; Print pattern wall
G1 X83.7002 Y130.4332 E0.99515 F6000 ; Print pattern wall
G10 ; Retract
G1 Z0.55 F7200 ; Z hop
G0 X86.1502 Y88.0068 F7200 ; Move to next pattern
G1 Z0.45 F7200 ; Z hop return
G11 ; Un-retract
SET_PRESSURE_ADVANCE ADVANCE=0.015 ; Set pressure advance
M117 PA 0.015
G1 X107.3634 Y109.22 E0.99515 F6000 ; Print pattern wall
G1 X86.1502 Y130.4332 E0.99515 F6000 ; Print pattern wall
G10 ; Retract
G1 Z0.55 F7200 ; Z hop
G0 X86.7259 Y88.0068 F7200 ; Move to start next pattern wall
G1 Z0.45 F7200 ; Z hop return
G11 ; Un-retract
G1 X107.9391 Y109.22 E0.99515 F6000 ; Print pattern wall
G1 X86.7259 Y130.4332 E0.99515 F6000 ; Print pattern wall
G10 ; Retract
G1 Z0.55 F7200 ; Z hop
G0 X87.3016 Y88.0068 F7200 ; Move to start next pattern wall
G1 Z0.45 F7200 ; Z hop return
G11 ; Un-retract
G1 X108.5148 Y109.22 E0.99515 F6000 ; Print pattern wall
G1 X87.3016 Y130.4332 E0.99515 F6000 ; Print pattern wall
G10 ; Retract
G1 Z0.55 F7200 ; Z hop
G0 X89.7516 Y88.0068 F7200 ; Move to next pattern
G1 Z0.45 F7200 ; Z hop return
G11 ; Un-retract
SET_PRESSURE_ADVANCE ADVANCE=0.02 ; Set pressure advance
M117 PA 0.02
G1 X110.9648 Y109.22 E0.99515 F6000 ; Print pattern wall
G1 X89.7516 Y130.4332 E0.99515 F6000 ; Print pattern wall
G10 ; Retract
G1 Z0.55 F7200 ; Z hop
G0 X90.3273 Y88.0068 F7200 ; Move to start next pattern wall
G1 Z0.45 F7200 ; Z hop return
G11 ; Un-retract
G1 X111.5405 Y109.22 E0.99515 F6000 ; Print pattern wall
G1 X90.3273 Y130.4332 E0.99515 F6000 ; Print pattern wall
G10 ; Retract
G1 Z0.55 F7200 ; Z hop
G0 X90.903 Y88.0068 F7200 ; Move to start next pattern wall
G1 Z0.45 F7200 ; Z hop return
G11 ; Un-retract
G1 X112.1162 Y109.22 E0.99515 F6000 ; Print pattern wall
G1 X90.903 Y130.4332 E0.99515 F6000 ; Print pattern wall
G10 ; Retract
G1 Z0.55 F7200 ; Z hop
G0 X93.353 Y88.0068 F7200 ; Move to next pattern
G1 Z0.45 F7200 ; Z hop return
G11 ; Un-retract
SET_PRESSURE_ADVANCE ADVANCE=0.025 ; Set pressure advance
M117 PA 0.025
G1 X114.5662 Y109.22 E0.99515 F6000 ; Print pattern wall
G1 X93.353 Y130.4332 E0.99515 F6000 ; Print pattern wall
G10 ; Retract
G1 Z0.55 F7200 ; Z hop
G0 X93.9287 Y88.0068 F7200 ; Move to start next pattern wall
G1 Z0.45 F7200 ; Z hop return
G11 ; Un-retract
G1 X115.1419 Y109.22 E0.99515 F6000 ; Print pattern wall
G1 X93.9287 Y130.4332 E0.99515 F6000 ; Print pattern wall
G10 ; Retract
G1 Z0.55 F7200 ; Z hop
G0 X94.5044 Y88.0068 F7200 ; Move to start next pattern wall
G1 Z0.45 F7200 ; Z hop return
G11 ; Un-retract
G1 X115.7176 Y109.22 E0.99515 F6000 ; Print pattern wall
G1 X94.5044 Y130.4332 E0.99515 F6000 ; Print pattern wall
G10 ; Retract
G1 Z0.55 F7200 ; Z hop
G0 X96.9544 Y88.0068 F7200 ; Move to next pattern
G1 Z0.45 F7200 ; Z hop return
G11 ; Un-retract
SET_PRESSURE_ADVANCE ADVANCE=0.03 ; Set pressure advance
M117 PA 0.03
G1 X118.1676 Y109.22 E0.99515 F6000 ; Print pattern wall
G1 X96.9544 Y130.4332 E0.99515 F6000 ; Print pattern wall
G10 ; Retract
G1 Z0.55 F7200 ; Z hop
G0 X97.5301 Y88.0068 F7200 ; Move to start next pattern wall
G1 Z0.45 F7200 ; Z hop return
G11 ; Un-retract
G1 X118.7433 Y109.22 E0.99515 F6000 ; Print pattern wall
G1 X97.5301 Y130.4332 E0.99515 F6000 ; Print pattern wall
G10 ; Retract
G1 Z0.55 F7200 ; Z hop
G0 X98.1058 Y88.0068 F7200 ; Move to start next pattern wall
G1 Z0.45 F7200 ; Z hop return
G11 ; Un-retract
G1 X119.319 Y109.22 E0.99515 F6000 ; Print pattern wall
G1 X98.1058 Y130.4332 E0.99515 F6000 ; Print pattern wall
G10 ; Retract
G1 Z0.55 F7200 ; Z hop
G0 X100.5558 Y88.0068 F7200 ; Move to next pattern
G1 Z0.45 F7200 ; Z hop return
G11 ; Un-retract
SET_PRESSURE_ADVANCE ADVANCE=0.035 ; Set pressure advance
M117 PA 0.035
G1 X121.769 Y109.22 E0.99515 F6000 ; Print pattern wall
G1 X100.5558 Y130.4332 E0.99515 F6000 ; Print pattern wall
G10 ; Retract
G1 Z0.55 F7200 ; Z hop
G0 X101.1315 Y88.0068 F7200 ; Move to start next pattern wall
G1 Z0.45 F7200 ; Z hop return
G11 ; Un-retract
G1 X122.3447 Y109.22 E0.99515 F6000 ; Print pattern wall
G1 X101.1315 Y130.4332 E0.99515 F6000 ; Print pattern wall
G10 ; Retract
G1 Z0.55 F7200 ; Z hop
G0 X101.7072 Y88.0068 F7200 ; Move to start next pattern wall
G1 Z0.45 F7200 ; Z hop return
G11 ; Un-retract
G1 X122.9204 Y109.22 E0.99515 F6000 ; Print pattern wall
G1 X101.7072 Y130.4332 E0.99515 F6000 ; Print pattern wall
G10 ; Retract
G1 Z0.55 F7200 ; Z hop
G0 X104.1572 Y88.0068 F7200 ; Move to next pattern
G1 Z0.45 F7200 ; Z hop return
G11 ; Un-retract
SET_PRESSURE_ADVANCE ADVANCE=0.04 ; Set pressure advance
M117 PA 0.04
G1 X125.3704 Y109.22 E0.99515 F6000 ; Print pattern wall
G1 X104.1572 Y130.4332 E0.99515 F6000 ; Print pattern wall
G10 ; Retract
G1 Z0.55 F7200 ; Z hop
G0 X104.7329 Y88.0068 F7200 ; Move to start next pattern wall
G1 Z0.45 F7200 ; Z hop return
G11 ; Un-retract
G1 X125.9461 Y109.22 E0.99515 F6000 ; Print pattern wall
G1 X104.7329 Y130.4332 E0.99515 F6000 ; Print pattern wall
G10 ; Retract
G1 Z0.55 F7200 ; Z hop
G0 X105.3086 Y88.0068 F7200 ; Move to start next pattern wall
G1 Z0.45 F7200 ; Z hop return
G11 ; Un-retract
G1 X126.5218 Y109.22 E0.99515 F6000 ; Print pattern wall
G1 X105.3086 Y130.4332 E0.99515 F6000 ; Print pattern wall
G10 ; Retract
G1 Z0.55 F7200 ; Z hop
G0 X107.7586 Y88.0068 F7200 ; Move to next pattern
G1 Z0.45 F7200 ; Z hop return
G11 ; Un-retract
SET_PRESSURE_ADVANCE ADVANCE=0.045 ; Set pressure advance
M117 PA 0.045
G1 X128.9718 Y109.22 E0.99515 F6000 ; Print pattern wall
G1 X107.7586 Y130.4332 E0.99515 F6000 ; Print pattern wall
G10 ; Retract
G1 Z0.55 F7200 ; Z hop
G0 X108.3343 Y88.0068 F7200 ; Move to start next pattern wall
G1 Z0.45 F7200 ; Z hop return
G11 ; Un-retract
G1 X129.5475 Y109.22 E0.99515 F6000 ; Print pattern wall
G1 X108.3343 Y130.4332 E0.99515 F6000 ; Print pattern wall
G10 ; Retract
G1 Z0.55 F7200 ; Z hop
G0 X108.91 Y88.0068 F7200 ; Move to start next pattern wall
G1 Z0.45 F7200 ; Z hop return
G11 ; Un-retract
G1 X130.1232 Y109.22 E0.99515 F6000 ; Print pattern wall
G1 X108.91 Y130.4332 E0.99515 F6000 ; Print pattern wall
G10 ; Retract
G1 Z0.55 F7200 ; Z hop
G0 X111.36 Y88.0068 F7200 ; Move to next pattern
G1 Z0.45 F7200 ; Z hop return
G11 ; Un-retract
SET_PRESSURE_ADVANCE ADVANCE=0.05 ; Set pressure advance
M117 PA 0.05
G1 X132.5732 Y109.22 E0.99515 F6000 ; Print pattern wall
G1 X111.36 Y130.4332 E0.99515 F6000 ; Print pattern wall
G10 ; Retract
G1 Z0.55 F7200 ; Z hop
G0 X111.9357 Y88.0068 F7200 ; Move to start next pattern wall
G1 Z0.45 F7200 ; Z hop return
G11 ; Un-retract
G1 X133.1489 Y109.22 E0.99515 F6000 ; Print pattern wall
G1 X111.9357 Y130.4332 E0.99515 F6000 ; Print pattern wall
G10 ; Retract
G1 Z0.55 F7200 ; Z hop
G0 X112.5113 Y88.0068 F7200 ; Move to start next pattern wall
G1 Z0.45 F7200 ; Z hop return
G11 ; Un-retract
G1 X133.7246 Y109.22 E0.99515 F6000 ; Print pattern wall
G1 X112.5113 Y130.4332 E0.99515 F6000 ; Print pattern wall
G10 ; Retract
G1 Z0.55 F7200 ; Z hop
G0 X114.9613 Y88.0068 F7200 ; Move to next pattern
G1 Z0.45 F7200 ; Z hop return
G11 ; Un-retract
SET_PRESSURE_ADVANCE ADVANCE=0.055 ; Set pressure advance
M117 PA 0.055
G1 X136.1746 Y109.22 E0.99515 F6000 ; Print pattern wall
G1 X114.9613 Y130.4332 E0.99515 F6000 ; Print pattern wall
G10 ; Retract
G1 Z0.55 F7200 ; Z hop
G0 X115.537 Y88.0068 F7200 ; Move to start next pattern wall
G1 Z0.45 F7200 ; Z hop return
G11 ; Un-retract
G1 X136.7502 Y109.22 E0.99515 F6000 ; Print pattern wall
G1 X115.537 Y130.4332 E0.99515 F6000 ; Print pattern wall
G10 ; Retract
G1 Z0.55 F7200 ; Z hop
G0 X116.1127 Y88.0068 F7200 ; Move to start next pattern wall
G1 Z0.45 F7200 ; Z hop return
G11 ; Un-retract
G1 X137.3259 Y109.22 E0.99515 F6000 ; Print pattern wall
G1 X116.1127 Y130.4332 E0.99515 F6000 ; Print pattern wall
G10 ; Retract
G1 Z0.55 F7200 ; Z hop
G0 X118.5627 Y88.0068 F7200 ; Move to next pattern
G1 Z0.45 F7200 ; Z hop return
G11 ; Un-retract
SET_PRESSURE_ADVANCE ADVANCE=0.06 ; Set pressure advance
M117 PA 0.06
G1 X139.7759 Y109.22 E0.99515 F6000 ; Print pattern wall
G1 X118.5627 Y130.4332 E0.99515 F6000 ; Print pattern wall
G10 ; Retract
G1 Z0.55 F7200 ; Z hop
G0 X119.1384 Y88.0068 F7200 ; Move to start next pattern wall
G1 Z0.45 F7200 ; Z hop return
G11 ; Un-retract
G1 X140.3516 Y109.22 E0.99515 F6000 ; Print pattern wall
G1 X119.1384 Y130.4332 E0.99515 F6000 ; Print pattern wall
G10 ; Retract
G1 Z0.55 F7200 ; Z hop
G0 X119.7141 Y88.0068 F7200 ; Move to start next pattern wall
G1 Z0.45 F7200 ; Z hop return
G11 ; Un-retract
G1 X140.9273 Y109.22 E0.99515 F6000 ; Print pattern wall
G1 X119.7141 Y130.4332 E0.99515 F6000 ; Print pattern wall
G10 ; Retract
G1 Z0.55 F7200 ; Z hop
G0 X122.1641 Y88.0068 F7200 ; Move to next pattern
G1 Z0.45 F7200 ; Z hop return
G11 ; Un-retract
SET_PRESSURE_ADVANCE ADVANCE=0.065 ; Set pressure advance
M117 PA 0.065
G1 X143.3773 Y109.22 E0.99515 F6000 ; Print pattern wall
G1 X122.1641 Y130.4332 E0.99515 F6000 ; Print pattern wall
G10 ; Retract
G1 Z0.55 F7200 ; Z hop
G0 X122.7398 Y88.0068 F7200 ; Move to start next pattern wall
G1 Z0.45 F7200 ; Z hop return
G11 ; Un-retract
G1 X143.953 Y109.22 E0.99515 F6000 ; Print pattern wall
G1 X122.7398 Y130.4332 E0.99515 F6000 ; Print pattern wall
G10 ; Retract
G1 Z0.55 F7200 ; Z hop
G0 X123.3155 Y88.0068 F7200 ; Move to start next pattern wall
G1 Z0.45 F7200 ; Z hop return
G11 ; Un-retract
G1 X144.5287 Y109.22 E0.99515 F6000 ; Print pattern wall
G1 X123.3155 Y130.4332 E0.99515 F6000 ; Print pattern wall
G10 ; Retract
G1 Z0.55 F7200 ; Z hop
G0 X125.7655 Y88.0068 F7200 ; Move to next pattern
G1 Z0.45 F7200 ; Z hop return
G11 ; Un-retract
SET_PRESSURE_ADVANCE ADVANCE=0.07 ; Set pressure advance
M117 PA 0.07
G1 X146.9787 Y109.22 E0.99515 F6000 ; Print pattern wall
G1 X125.7655 Y130.4332 E0.99515 F6000 ; Print pattern wall
G10 ; Retract
G1 Z0.55 F7200 ; Z hop
G0 X126.3412 Y88.0068 F7200 ; Move to start next pattern wall
G1 Z0.45 F7200 ; Z hop return
G11 ; Un-retract
G1 X147.5544 Y109.22 E0.99515 F6000 ; Print pattern wall
G1 X126.3412 Y130.4332 E0.99515 F6000 ; Print pattern wall
G10 ; Retract
G1 Z0.55 F7200 ; Z hop
G0 X126.9169 Y88.0068 F7200 ; Move to start next pattern wall
G1 Z0.45 F7200 ; Z hop return
G11 ; Un-retract
G1 X148.1301 Y109.22 E0.99515 F6000 ; Print pattern wall
G1 X126.9169 Y130.4332 E0.99515 F6000 ; Print pattern wall
G10 ; Retract
G1 Z0.55 F7200 ; Z hop
G0 X129.3669 Y88.0068 F7200 ; Move to next pattern
G1 Z0.45 F7200 ; Z hop return
G11 ; Un-retract
SET_PRESSURE_ADVANCE ADVANCE=0.075 ; Set pressure advance
M117 PA 0.075
G1 X150.5801 Y109.22 E0.99515 F6000 ; Print pattern wall
G1 X129.3669 Y130.4332 E0.99515 F6000 ; Print pattern wall
G10 ; Retract
G1 Z0.55 F7200 ; Z hop
G0 X129.9426 Y88.0068 F7200 ; Move to start next pattern wall
G1 Z0.45 F7200 ; Z hop return
G11 ; Un-retract
G1 X151.1558 Y109.22 E0.99515 F6000 ; Print pattern wall
G1 X129.9426 Y130.4332 E0.99515 F6000 ; Print pattern wall
G10 ; Retract
G1 Z0.55 F7200 ; Z hop
G0 X130.5183 Y88.0068 F7200 ; Move to start next pattern wall
G1 Z0.45 F7200 ; Z hop return
G11 ; Un-retract
G1 X151.7315 Y109.22 E0.99515 F6000 ; Print pattern wall
G1 X130.5183 Y130.4332 E0.99515 F6000 ; Print pattern wall
G10 ; Retract
G1 Z0.55 F7200 ; Z hop
G0 X132.9683 Y88.0068 F7200 ; Move to next pattern
G1 Z0.45 F7200 ; Z hop return
G11 ; Un-retract
SET_PRESSURE_ADVANCE ADVANCE=0.08 ; Set pressure advance
M117 PA 0.08
G1 X154.1815 Y109.22 E0.99515 F6000 ; Print pattern wall
G1 X132.9683 Y130.4332 E0.99515 F6000 ; Print pattern wall
G10 ; Retract
G1 Z0.55 F7200 ; Z hop
G0 X133.544 Y88.0068 F7200 ; Move to start next pattern wall
G1 Z0.45 F7200 ; Z hop return
G11 ; Un-retract
G1 X154.7572 Y109.22 E0.99515 F6000 ; Print pattern wall
G1 X133.544 Y130.4332 E0.99515 F6000 ; Print pattern wall
G10 ; Retract
G1 Z0.55 F7200 ; Z hop
G0 X134.1197 Y88.0068 F7200 ; Move to start next pattern wall
G1 Z0.45 F7200 ; Z hop return
G11 ; Un-retract
G1 X155.3329 Y109.22 E0.99515 F6000 ; Print pattern wall
G1 X134.1197 Y130.4332 E0.99515 F6000 ; Print pattern wall
G10 ; Retract
G1 Z0.55 F7200 ; Z hop
G0 X75.346 Y88.0068 F7200 ; Move back to start position
G1 Z0.45 F7200 ; Z hop return
G11 ; Un-retract
G0 Z0.65 F7200 ; Move to layer height
SET_PRESSURE_ADVANCE ADVANCE=0 ; Set pressure advance
M117 PA 0
G1 X96.5592 Y109.22 E0.99515 F6000 ; Print pattern wall
G1 X75.346 Y130.4332 E0.99515 F6000 ; Print pattern wall
G10 ; Retract
G1 Z0.75 F7200 ; Z hop
G0 X75.9217 Y88.0068 F7200 ; Move to start next pattern wall
G1 Z0.65 F7200 ; Z hop return
G11 ; Un-retract
G1 X97.1349 Y109.22 E0.99515 F6000 ; Print pattern wall
G1 X75.9217 Y130.4332 E0.99515 F6000 ; Print pattern wall
G10 ; Retract
G1 Z0.75 F7200 ; Z hop
G0 X76.4974 Y88.0068 F7200 ; Move to start next pattern wall
G1 Z0.65 F7200 ; Z hop return
G11 ; Un-retract
G1 X97.7106 Y109.22 E0.99515 F6000 ; Print pattern wall
G1 X76.4974 Y130.4332 E0.99515 F6000 ; Print pattern wall
G10 ; Retract
G1 Z0.75 F7200 ; Z hop
G0 X78.9474 Y88.0068 F7200 ; Move to next pattern
G1 Z0.65 F7200 ; Z hop return
G11 ; Un-retract
SET_PRESSURE_ADVANCE ADVANCE=0.005 ; Set pressure advance
M117 PA 0.005
G1 X100.1606 Y109.22 E0.99515 F6000 ; Print pattern wall
G1 X78.9474 Y130.4332 E0.99515 F6000 ; Print pattern wall
G10 ; Retract
G1 Z0.75 F7200 ; Z hop
G0 X79.5231 Y88.0068 F7200 ; Move to start next pattern wall
G1 Z0.65 F7200 ; Z hop return
G11 ; Un-retract
G1 X100.7363 Y109.22 E0.99515 F6000 ; Print pattern wall
G1 X79.5231 Y130.4332 E0.99515 F6000 ; Print pattern wall
G10 ; Retract
G1 Z0.75 F7200 ; Z hop
G0 X80.0988 Y88.0068 F7200 ; Move to start next pattern wall
G1 Z0.65 F7200 ; Z hop return
G11 ; Un-retract
G1 X101.312 Y109.22 E0.99515 F6000 ; Print pattern wall
G1 X80.0988 Y130.4332 E0.99515 F6000 ; Print pattern wall
G10 ; Retract
G1 Z0.75 F7200 ; Z hop
G0 X82.5488 Y88.0068 F7200 ; Move to next pattern
G1 Z0.65 F7200 ; Z hop return
G11 ; Un-retract
SET_PRESSURE_ADVANCE ADVANCE=0.01 ; Set pressure advance
M117 PA 0.01
G1 X103.762 Y109.22 E0.99515 F6000 ; Print pattern wall
G1 X82.5488 Y130.4332 E0.99515 F6000 ; Print pattern wall
G10 ; Retract
G1 Z0.75 F7200 ; Z hop
G0 X83.1245 Y88.0068 F7200 ; Move to start next pattern wall
G1 Z0.65 F7200 ; Z hop return
G11 ; Un-retract
G1 X104.3377 Y109.22 E0.99515 F6000 ; Print pattern wall
G1 X83.1245 Y130.4332 E0.99515 F6000 ; Print pattern wall
G10 ; Retract
G1 Z0.75 F7200 ; Z hop
G0 X83.7002 Y88.0068 F7200 ; Move to start next pattern wall
G1 Z0.65 F7200 ; Z hop return
G11 ; Un-retract
G1 X104.9134 Y109.22 E0.99515 F6000 ; Print pattern wall
G1 X83.7002 Y130.4332 E0.99515 F6000 ; Print pattern wall
G10 ; Retract
G1 Z0.75 F7200 ; Z hop
G0 X86.1502 Y88.0068 F7200 ; Move to next pattern
G1 Z0.65 F7200 ; Z hop return
G11 ; Un-retract
SET_PRESSURE_ADVANCE ADVANCE=0.015 ; Set pressure advance
M117 PA 0.015
G1 X107.3634 Y109.22 E0.99515 F6000 ; Print pattern wall
G1 X86.1502 Y130.4332 E0.99515 F6000 ; Print pattern wall
G10 ; Retract
G1 Z0.75 F7200 ; Z hop
G0 X86.7259 Y88.0068 F7200 ; Move to start next pattern wall
G1 Z0.65 F7200 ; Z hop return
G11 ; Un-retract
G1 X107.9391 Y109.22 E0.99515 F6000 ; Print pattern wall
G1 X86.7259 Y130.4332 E0.99515 F6000 ; Print pattern wall
G10 ; Retract
G1 Z0.75 F7200 ; Z hop
G0 X87.3016 Y88.0068 F7200 ; Move to start next pattern wall
G1 Z0.65 F7200 ; Z hop return
G11 ; Un-retract
G1 X108.5148 Y109.22 E0.99515 F6000 ; Print pattern wall
G1 X87.3016 Y130.4332 E0.99515 F6000 ; Print pattern wall
G10 ; Retract
G1 Z0.75 F7200 ; Z hop
G0 X89.7516 Y88.0068 F7200 ; Move to next pattern
G1 Z0.65 F7200 ; Z hop return
G11 ; Un-retract
SET_PRESSURE_ADVANCE ADVANCE=0.02 ; Set pressure advance
M117 PA 0.02
G1 X110.9648 Y109.22 E0.99515 F6000 ; Print pattern wall
G1 X89.7516 Y130.4332 E0.99515 F6000 ; Print pattern wall
G10 ; Retract
G1 Z0.75 F7200 ; Z hop
G0 X90.3273 Y88.0068 F7200 ; Move to start next pattern wall
G1 Z0.65 F7200 ; Z hop return
G11 ; Un-retract
G1 X111.5405 Y109.22 E0.99515 F6000 ; Print pattern wall
G1 X90.3273 Y130.4332 E0.99515 F6000 ; Print pattern wall
G10 ; Retract
G1 Z0.75 F7200 ; Z hop
G0 X90.903 Y88.0068 F7200 ; Move to start next pattern wall
G1 Z0.65 F7200 ; Z hop return
G11 ; Un-retract
G1 X112.1162 Y109.22 E0.99515 F6000 ; Print pattern wall
G1 X90.903 Y130.4332 E0.99515 F6000 ; Print pattern wall
G10 ; Retract
G1 Z0.75 F7200 ; Z hop
G0 X93.353 Y88.0068 F7200 ; Move to next pattern
G1 Z0.65 F7200 ; Z hop return
G11 ; Un-retract
SET_PRESSURE_ADVANCE ADVANCE=0.025 ; Set pressure advance
M117 PA 0.025
G1 X114.5662 Y109.22 E0.99515 F6000 ; Print pattern wall
G1 X93.353 Y130.4332 E0.99515 F6000 ; Print pattern wall
G10 ; Retract
G1 Z0.75 F7200 ; Z hop
G0 X93.9287 Y88.0068 F7200 ; Move to start next pattern wall
G1 Z0.65 F7200 ; Z hop return
G11 ; Un-retract
G1 X115.1419 Y109.22 E0.99515 F6000 ; Print pattern wall
G1 X93.9287 Y130.4332 E0.99515 F6000 ; Print pattern wall
G10 ; Retract
G1 Z0.75 F7200 ; Z hop
G0 X94.5044 Y88.0068 F7200 ; Move to start next pattern wall
G1 Z0.65 F7200 ; Z hop return
G11 ; Un-retract
G1 X115.7176 Y109.22 E0.99515 F6000 ; Print pattern wall
G1 X94.5044 Y130.4332 E0.99515 F6000 ; Print pattern wall
G10 ; Retract
G1 Z0.75 F7200 ; Z hop
G0 X96.9544 Y88.0068 F7200 ; Move to next pattern
G1 Z0.65 F7200 ; Z hop return
G11 ; Un-retract
SET_PRESSURE_ADVANCE ADVANCE=0.03 ; Set pressure advance
M117 PA 0.03
G1 X118.1676 Y109.22 E0.99515 F6000 ; Print pattern wall
G1 X96.9544 Y130.4332 E0.99515 F6000 ; Print pattern wall
G10 ; Retract
G1 Z0.75 F7200 ; Z hop
G0 X97.5301 Y88.0068 F7200 ; Move to start next pattern wall
G1 Z0.65 F7200 ; Z hop return
G11 ; Un-retract
G1 X118.7433 Y109.22 E0.99515 F6000 ; Print pattern wall
G1 X97.5301 Y130.4332 E0.99515 F6000 ; Print pattern wall
G10 ; Retract
G1 Z0.75 F7200 ; Z hop
G0 X98.1058 Y88.0068 F7200 ; Move to start next pattern wall
G1 Z0.65 F7200 ; Z hop return
G11 ; Un-retract
G1 X119.319 Y109.22 E0.99515 F6000 ; Print pattern wall
G1 X98.1058 Y130.4332 E0.99515 F6000 ; Print pattern wall
G10 ; Retract
G1 Z0.75 F7200 ; Z hop
G0 X100.5558 Y88.0068 F7200 ; Move to next pattern
G1 Z0.65 F7200 ; Z hop return
G11 ; Un-retract
SET_PRESSURE_ADVANCE ADVANCE=0.035 ; Set pressure advance
M117 PA 0.035
G1 X121.769 Y109.22 E0.99515 F6000 ; Print pattern wall
G1 X100.5558 Y130.4332 E0.99515 F6000 ; Print pattern wall
G10 ; Retract
G1 Z0.75 F7200 ; Z hop
G0 X101.1315 Y88.0068 F7200 ; Move to start next pattern wall
G1 Z0.65 F7200 ; Z hop return
G11 ; Un-retract
G1 X122.3447 Y109.22 E0.99515 F6000 ; Print pattern wall
G1 X101.1315 Y130.4332 E0.99515 F6000 ; Print pattern wall
G10 ; Retract
G1 Z0.75 F7200 ; Z hop
G0 X101.7072 Y88.0068 F7200 ; Move to start next pattern wall
G1 Z0.65 F7200 ; Z hop return
G11 ; Un-retract
G1 X122.9204 Y109.22 E0.99515 F6000 ; Print pattern wall
G1 X101.7072 Y130.4332 E0.99515 F6000 ; Print pattern wall
G10 ; Retract
G1 Z0.75 F7200 ; Z hop
G0 X104.1572 Y88.0068 F7200 ; Move to next pattern
G1 Z0.65 F7200 ; Z hop return
G11 ; Un-retract
SET_PRESSURE_ADVANCE ADVANCE=0.04 ; Set pressure advance
M117 PA 0.04
G1 X125.3704 Y109.22 E0.99515 F6000 ; Print pattern wall
G1 X104.1572 Y130.4332 E0.99515 F6000 ; Print pattern wall
G10 ; Retract
G1 Z0.75 F7200 ; Z hop
G0 X104.7329 Y88.0068 F7200 ; Move to start next pattern wall
G1 Z0.65 F7200 ; Z hop return
G11 ; Un-retract
G1 X125.9461 Y109.22 E0.99515 F6000 ; Print pattern wall
G1 X104.7329 Y130.4332 E0.99515 F6000 ; Print pattern wall
G10 ; Retract
G1 Z0.75 F7200 ; Z hop
G0 X105.3086 Y88.0068 F7200 ; Move to start next pattern wall
G1 Z0.65 F7200 ; Z hop return
G11 ; Un-retract
G1 X126.5218 Y109.22 E0.99515 F6000 ; Print pattern wall
G1 X105.3086 Y130.4332 E0.99515 F6000 ; Print pattern wall
G10 ; Retract
G1 Z0.75 F7200 ; Z hop
G0 X107.7586 Y88.0068 F7200 ; Move to next pattern
G1 Z0.65 F7200 ; Z hop return
G11 ; Un-retract
SET_PRESSURE_ADVANCE ADVANCE=0.045 ; Set pressure advance
M117 PA 0.045
G1 X128.9718 Y109.22 E0.99515 F6000 ; Print pattern wall
G1 X107.7586 Y130.4332 E0.99515 F6000 ; Print pattern wall
G10 ; Retract
G1 Z0.75 F7200 ; Z hop
G0 X108.3343 Y88.0068 F7200 ; Move to start next pattern wall
G1 Z0.65 F7200 ; Z hop return
G11 ; Un-retract
G1 X129.5475 Y109.22 E0.99515 F6000 ; Print pattern wall
G1 X108.3343 Y130.4332 E0.99515 F6000 ; Print pattern wall
G10 ; Retract
G1 Z0.75 F7200 ; Z hop
G0 X108.91 Y88.0068 F7200 ; Move to start next pattern wall
G1 Z0.65 F7200 ; Z hop return
G11 ; Un-retract
G1 X130.1232 Y109.22 E0.99515 F6000 ; Print pattern wall
G1 X108.91 Y130.4332 E0.99515 F6000 ; Print pattern wall
G10 ; Retract
G1 Z0.75 F7200 ; Z hop
G0 X111.36 Y88.0068 F7200 ; Move to next pattern
G1 Z0.65 F7200 ; Z hop return
G11 ; Un-retract
SET_PRESSURE_ADVANCE ADVANCE=0.05 ; Set pressure advance
M117 PA 0.05
G1 X132.5732 Y109.22 E0.99515 F6000 ; Print pattern wall
G1 X111.36 Y130.4332 E0.99515 F6000 ; Print pattern wall
G10 ; Retract
G1 Z0.75 F7200 ; Z hop
G0 X111.9357 Y88.0068 F7200 ; Move to start next pattern wall
G1 Z0.65 F7200 ; Z hop return
G11 ; Un-retract
G1 X133.1489 Y109.22 E0.99515 F6000 ; Print pattern wall
G1 X111.9357 Y130.4332 E0.99515 F6000 ; Print pattern wall
G10 ; Retract
G1 Z0.75 F7200 ; Z hop
G0 X112.5113 Y88.0068 F7200 ; Move to start next pattern wall
G1 Z0.65 F7200 ; Z hop return
G11 ; Un-retract
G1 X133.7246 Y109.22 E0.99515 F6000 ; Print pattern wall
G1 X112.5113 Y130.4332 E0.99515 F6000 ; Print pattern wall
G10 ; Retract
G1 Z0.75 F7200 ; Z hop
G0 X114.9613 Y88.0068 F7200 ; Move to next pattern
G1 Z0.65 F7200 ; Z hop return
G11 ; Un-retract
SET_PRESSURE_ADVANCE ADVANCE=0.055 ; Set pressure advance
M117 PA 0.055
G1 X136.1746 Y109.22 E0.99515 F6000 ; Print pattern wall
G1 X114.9613 Y130.4332 E0.99515 F6000 ; Print pattern wall
G10 ; Retract
G1 Z0.75 F7200 ; Z hop
G0 X115.537 Y88.0068 F7200 ; Move to start next pattern wall
G1 Z0.65 F7200 ; Z hop return
G11 ; Un-retract
G1 X136.7502 Y109.22 E0.99515 F6000 ; Print pattern wall
G1 X115.537 Y130.4332 E0.99515 F6000 ; Print pattern wall
G10 ; Retract
G1 Z0.75 F7200 ; Z hop
G0 X116.1127 Y88.0068 F7200 ; Move to start next pattern wall
G1 Z0.65 F7200 ; Z hop return
G11 ; Un-retract
G1 X137.3259 Y109.22 E0.99515 F6000 ; Print pattern wall
G1 X116.1127 Y130.4332 E0.99515 F6000 ; Print pattern wall
G10 ; Retract
G1 Z0.75 F7200 ; Z hop
G0 X118.5627 Y88.0068 F7200 ; Move to next pattern
G1 Z0.65 F7200 ; Z hop return
G11 ; Un-retract
SET_PRESSURE_ADVANCE ADVANCE=0.06 ; Set pressure advance
M117 PA 0.06
G1 X139.7759 Y109.22 E0.99515 F6000 ; Print pattern wall
G1 X118.5627 Y130.4332 E0.99515 F6000 ; Print pattern wall
G10 ; Retract
G1 Z0.75 F7200 ; Z hop
G0 X119.1384 Y88.0068 F7200 ; Move to start next pattern wall
G1 Z0.65 F7200 ; Z hop return
G11 ; Un-retract
G1 X140.3516 Y109.22 E0.99515 F6000 ; Print pattern wall
G1 X119.1384 Y130.4332 E0.99515 F6000 ; Print pattern wall
G10 ; Retract
G1 Z0.75 F7200 ; Z hop
G0 X119.7141 Y88.0068 F7200 ; Move to start next pattern wall
G1 Z0.65 F7200 ; Z hop return
G11 ; Un-retract
G1 X140.9273 Y109.22 E0.99515 F6000 ; Print pattern wall
G1 X119.7141 Y130.4332 E0.99515 F6000 ; Print pattern wall
G10 ; Retract
G1 Z0.75 F7200 ; Z hop
G0 X122.1641 Y88.0068 F7200 ; Move to next pattern
G1 Z0.65 F7200 ; Z hop return
G11 ; Un-retract
SET_PRESSURE_ADVANCE ADVANCE=0.065 ; Set pressure advance
M117 PA 0.065
G1 X143.3773 Y109.22 E0.99515 F6000 ; Print pattern wall
G1 X122.1641 Y130.4332 E0.99515 F6000 ; Print pattern wall
G10 ; Retract
G1 Z0.75 F7200 ; Z hop
G0 X122.7398 Y88.0068 F7200 ; Move to start next pattern wall
G1 Z0.65 F7200 ; Z hop return
G11 ; Un-retract
G1 X143.953 Y109.22 E0.99515 F6000 ; Print pattern wall
G1 X122.7398 Y130.4332 E0.99515 F6000 ; Print pattern wall
G10 ; Retract
G1 Z0.75 F7200 ; Z hop
G0 X123.3155 Y88.0068 F7200 ; Move to start next pattern wall
G1 Z0.65 F7200 ; Z hop return
G11 ; Un-retract
G1 X144.5287 Y109.22 E0.99515 F6000 ; Print pattern wall
G1 X123.3155 Y130.4332 E0.99515 F6000 ; Print pattern wall
G10 ; Retract
G1 Z0.75 F7200 ; Z hop
G0 X125.7655 Y88.0068 F7200 ; Move to next pattern
G1 Z0.65 F7200 ; Z hop return
G11 ; Un-retract
SET_PRESSURE_ADVANCE ADVANCE=0.07 ; Set pressure advance
M117 PA 0.07
G1 X146.9787 Y109.22 E0.99515 F6000 ; Print pattern wall
G1 X125.7655 Y130.4332 E0.99515 F6000 ; Print pattern wall
G10 ; Retract
G1 Z0.75 F7200 ; Z hop
G0 X126.3412 Y88.0068 F7200 ; Move to start next pattern wall
G1 Z0.65 F7200 ; Z hop return
G11 ; Un-retract
G1 X147.5544 Y109.22 E0.99515 F6000 ; Print pattern wall
G1 X126.3412 Y130.4332 E0.99515 F6000 ; Print pattern wall
G10 ; Retract
G1 Z0.75 F7200 ; Z hop
G0 X126.9169 Y88.0068 F7200 ; Move to start next pattern wall
G1 Z0.65 F7200 ; Z hop return
G11 ; Un-retract
G1 X148.1301 Y109.22 E0.99515 F6000 ; Print pattern wall
G1 X126.9169 Y130.4332 E0.99515 F6000 ; Print pattern wall
G10 ; Retract
G1 Z0.75 F7200 ; Z hop
G0 X129.3669 Y88.0068 F7200 ; Move to next pattern
G1 Z0.65 F7200 ; Z hop return
G11 ; Un-retract
SET_PRESSURE_ADVANCE ADVANCE=0.075 ; Set pressure advance
M117 PA 0.075
G1 X150.5801 Y109.22 E0.99515 F6000 ; Print pattern wall
G1 X129.3669 Y130.4332 E0.99515 F6000 ; Print pattern wall
G10 ; Retract
G1 Z0.75 F7200 ; Z hop
G0 X129.9426 Y88.0068 F7200 ; Move to start next pattern wall
G1 Z0.65 F7200 ; Z hop return
G11 ; Un-retract
G1 X151.1558 Y109.22 E0.99515 F6000 ; Print pattern wall
G1 X129.9426 Y130.4332 E0.99515 F6000 ; Print pattern wall
G10 ; Retract
G1 Z0.75 F7200 ; Z hop
G0 X130.5183 Y88.0068 F7200 ; Move to start next pattern wall
G1 Z0.65 F7200 ; Z hop return
G11 ; Un-retract
G1 X151.7315 Y109.22 E0.99515 F6000 ; Print pattern wall
G1 X130.5183 Y130.4332 E0.99515 F6000 ; Print pattern wall
G10 ; Retract
G1 Z0.75 F7200 ; Z hop
G0 X132.9683 Y88.0068 F7200 ; Move to next pattern
G1 Z0.65 F7200 ; Z hop return
G11 ; Un-retract
SET_PRESSURE_ADVANCE ADVANCE=0.08 ; Set pressure advance
M117 PA 0.08
G1 X154.1815 Y109.22 E0.99515 F6000 ; Print pattern wall
G1 X132.9683 Y130.4332 E0.99515 F6000 ; Print pattern wall
G10 ; Retract
G1 Z0.75 F7200 ; Z hop
G0 X133.544 Y88.0068 F7200 ; Move to start next pattern wall
G1 Z0.65 F7200 ; Z hop return
G11 ; Un-retract
G1 X154.7572 Y109.22 E0.99515 F6000 ; Print pattern wall
G1 X133.544 Y130.4332 E0.99515 F6000 ; Print pattern wall
G10 ; Retract
G1 Z0.75 F7200 ; Z hop
G0 X134.1197 Y88.0068 F7200 ; Move to start next pattern wall
G1 Z0.65 F7200 ; Z hop return
G11 ; Un-retract
G1 X155.3329 Y109.22 E0.99515 F6000 ; Print pattern wall
G1 X134.1197 Y130.4332 E0.99515 F6000 ; Print pattern wall
G10 ; Retract
G1 Z0.75 F7200 ; Z hop
G0 X75.346 Y88.0068 F7200 ; Move back to start position
G1 Z0.65 F7200 ; Z hop return
G11 ; Un-retract
G0 Z0.85 F7200 ; Move to layer height
SET_PRESSURE_ADVANCE ADVANCE=0 ; Set pressure advance
M117 PA 0
G1 X96.5592 Y109.22 E0.99515 F6000 ; Print pattern wall
G1 X75.346 Y130.4332 E0.99515 F6000 ; Print pattern wall
G10 ; Retract
G1 Z0.95 F7200 ; Z hop
G0 X75.9217 Y88.0068 F7200 ; Move to start next pattern wall
G1 Z0.85 F7200 ; Z hop return
G11 ; Un-retract
G1 X97.1349 Y109.22 E0.99515 F6000 ; Print pattern wall
G1 X75.9217 Y130.4332 E0.99515 F6000 ; Print pattern wall
G10 ; Retract
G1 Z0.95 F7200 ; Z hop
G0 X76.4974 Y88.0068 F7200 ; Move to start next pattern wall
G1 Z0.85 F7200 ; Z hop return
G11 ; Un-retract
G1 X97.7106 Y109.22 E0.99515 F6000 ; Print pattern wall
G1 X76.4974 Y130.4332 E0.99515 F6000 ; Print pattern wall
G10 ; Retract
G1 Z0.95 F7200 ; Z hop
G0 X78.9474 Y88.0068 F7200 ; Move to next pattern
G1 Z0.85 F7200 ; Z hop return
G11 ; Un-retract
SET_PRESSURE_ADVANCE ADVANCE=0.005 ; Set pressure advance
M117 PA 0.005
G1 X100.1606 Y109.22 E0.99515 F6000 ; Print pattern wall
G1 X78.9474 Y130.4332 E0.99515 F6000 ; Print pattern wall
G10 ; Retract
G1 Z0.95 F7200 ; Z hop
G0 X79.5231 Y88.0068 F7200 ; Move to start next pattern wall
G1 Z0.85 F7200 ; Z hop return
G11 ; Un-retract
G1 X100.7363 Y109.22 E0.99515 F6000 ; Print pattern wall
G1 X79.5231 Y130.4332 E0.99515 F6000 ; Print pattern wall
G10 ; Retract
G1 Z0.95 F7200 ; Z hop
G0 X80.0988 Y88.0068 F7200 ; Move to start next pattern wall
G1 Z0.85 F7200 ; Z hop return
G11 ; Un-retract
G1 X101.312 Y109.22 E0.99515 F6000 ; Print pattern wall
G1 X80.0988 Y130.4332 E0.99515 F6000 ; Print pattern wall
G10 ; Retract
G1 Z0.95 F7200 ; Z hop
G0 X82.5488 Y88.0068 F7200 ; Move to next pattern
G1 Z0.85 F7200 ; Z hop return
G11 ; Un-retract
SET_PRESSURE_ADVANCE ADVANCE=0.01 ; Set pressure advance
M117 PA 0.01
G1 X103.762 Y109.22 E0.99515 F6000 ; Print pattern wall
G1 X82.5488 Y130.4332 E0.99515 F6000 ; Print pattern wall
G10 ; Retract
G1 Z0.95 F7200 ; Z hop
G0 X83.1245 Y88.0068 F7200 ; Move to start next pattern wall
G1 Z0.85 F7200 ; Z hop return
G11 ; Un-retract
G1 X104.3377 Y109.22 E0.99515 F6000 ; Print pattern wall
G1 X83.1245 Y130.4332 E0.99515 F6000 ; Print pattern wall
G10 ; Retract
G1 Z0.95 F7200 ; Z hop
G0 X83.7002 Y88.0068 F7200 ; Move to start next pattern wall
G1 Z0.85 F7200 ; Z hop return
G11 ; Un-retract
G1 X104.9134 Y109.22 E0.99515 F6000 ; Print pattern wall
G1 X83.7002 Y130.4332 E0.99515 F6000 ; Print pattern wall
G10 ; Retract
G1 Z0.95 F7200 ; Z hop
G0 X86.1502 Y88.0068 F7200 ; Move to next pattern
G1 Z0.85 F7200 ; Z hop return
G11 ; Un-retract
SET_PRESSURE_ADVANCE ADVANCE=0.015 ; Set pressure advance
M117 PA 0.015
G1 X107.3634 Y109.22 E0.99515 F6000 ; Print pattern wall
G1 X86.1502 Y130.4332 E0.99515 F6000 ; Print pattern wall
G10 ; Retract
G1 Z0.95 F7200 ; Z hop
G0 X86.7259 Y88.0068 F7200 ; Move to start next pattern wall
G1 Z0.85 F7200 ; Z hop return
G11 ; Un-retract
G1 X107.9391 Y109.22 E0.99515 F6000 ; Print pattern wall
G1 X86.7259 Y130.4332 E0.99515 F6000 ; Print pattern wall
G10 ; Retract
G1 Z0.95 F7200 ; Z hop
G0 X87.3016 Y88.0068 F7200 ; Move to start next pattern wall
G1 Z0.85 F7200 ; Z hop return
G11 ; Un-retract
G1 X108.5148 Y109.22 E0.99515 F6000 ; Print pattern wall
G1 X87.3016 Y130.4332 E0.99515 F6000 ; Print pattern wall
G10 ; Retract
G1 Z0.95 F7200 ; Z hop
G0 X89.7516 Y88.0068 F7200 ; Move to next pattern
G1 Z0.85 F7200 ; Z hop return
G11 ; Un-retract
SET_PRESSURE_ADVANCE ADVANCE=0.02 ; Set pressure advance
M117 PA 0.02
G1 X110.9648 Y109.22 E0.99515 F6000 ; Print pattern wall
G1 X89.7516 Y130.4332 E0.99515 F6000 ; Print pattern wall
G10 ; Retract
G1 Z0.95 F7200 ; Z hop
G0 X90.3273 Y88.0068 F7200 ; Move to start next pattern wall
G1 Z0.85 F7200 ; Z hop return
G11 ; Un-retract
G1 X111.5405 Y109.22 E0.99515 F6000 ; Print pattern wall
G1 X90.3273 Y130.4332 E0.99515 F6000 ; Print pattern wall
G10 ; Retract
G1 Z0.95 F7200 ; Z hop
G0 X90.903 Y88.0068 F7200 ; Move to start next pattern wall
G1 Z0.85 F7200 ; Z hop return
G11 ; Un-retract
G1 X112.1162 Y109.22 E0.99515 F6000 ; Print pattern wall
G1 X90.903 Y130.4332 E0.99515 F6000 ; Print pattern wall
G10 ; Retract
G1 Z0.95 F7200 ; Z hop
G0 X93.353 Y88.0068 F7200 ; Move to next pattern
G1 Z0.85 F7200 ; Z hop return
G11 ; Un-retract
SET_PRESSURE_ADVANCE ADVANCE=0.025 ; Set pressure advance
M117 PA 0.025
G1 X114.5662 Y109.22 E0.99515 F6000 ; Print pattern wall
G1 X93.353 Y130.4332 E0.99515 F6000 ; Print pattern wall
G10 ; Retract
G1 Z0.95 F7200 ; Z hop
G0 X93.9287 Y88.0068 F7200 ; Move to start next pattern wall
G1 Z0.85 F7200 ; Z hop return
G11 ; Un-retract
G1 X115.1419 Y109.22 E0.99515 F6000 ; Print pattern wall
G1 X93.9287 Y130.4332 E0.99515 F6000 ; Print pattern wall
G10 ; Retract
G1 Z0.95 F7200 ; Z hop
G0 X94.5044 Y88.0068 F7200 ; Move to start next pattern wall
G1 Z0.85 F7200 ; Z hop return
G11 ; Un-retract
G1 X115.7176 Y109.22 E0.99515 F6000 ; Print pattern wall
G1 X94.5044 Y130.4332 E0.99515 F6000 ; Print pattern wall
G10 ; Retract
G1 Z0.95 F7200 ; Z hop
G0 X96.9544 Y88.0068 F7200 ; Move to next pattern
G1 Z0.85 F7200 ; Z hop return
G11 ; Un-retract
SET_PRESSURE_ADVANCE ADVANCE=0.03 ; Set pressure advance
M117 PA 0.03
G1 X118.1676 Y109.22 E0.99515 F6000 ; Print pattern wall
G1 X96.9544 Y130.4332 E0.99515 F6000 ; Print pattern wall
G10 ; Retract
G1 Z0.95 F7200 ; Z hop
G0 X97.5301 Y88.0068 F7200 ; Move to start next pattern wall
G1 Z0.85 F7200 ; Z hop return
G11 ; Un-retract
G1 X118.7433 Y109.22 E0.99515 F6000 ; Print pattern wall
G1 X97.5301 Y130.4332 E0.99515 F6000 ; Print pattern wall
G10 ; Retract
G1 Z0.95 F7200 ; Z hop
G0 X98.1058 Y88.0068 F7200 ; Move to start next pattern wall
G1 Z0.85 F7200 ; Z hop return
G11 ; Un-retract
G1 X119.319 Y109.22 E0.99515 F6000 ; Print pattern wall
G1 X98.1058 Y130.4332 E0.99515 F6000 ; Print pattern wall
G10 ; Retract
G1 Z0.95 F7200 ; Z hop
G0 X100.5558 Y88.0068 F7200 ; Move to next pattern
G1 Z0.85 F7200 ; Z hop return
G11 ; Un-retract
SET_PRESSURE_ADVANCE ADVANCE=0.035 ; Set pressure advance
M117 PA 0.035
G1 X121.769 Y109.22 E0.99515 F6000 ; Print pattern wall
G1 X100.5558 Y130.4332 E0.99515 F6000 ; Print pattern wall
G10 ; Retract
G1 Z0.95 F7200 ; Z hop
G0 X101.1315 Y88.0068 F7200 ; Move to start next pattern wall
G1 Z0.85 F7200 ; Z hop return
G11 ; Un-retract
G1 X122.3447 Y109.22 E0.99515 F6000 ; Print pattern wall
G1 X101.1315 Y130.4332 E0.99515 F6000 ; Print pattern wall
G10 ; Retract
G1 Z0.95 F7200 ; Z hop
G0 X101.7072 Y88.0068 F7200 ; Move to start next pattern wall
G1 Z0.85 F7200 ; Z hop return
G11 ; Un-retract
G1 X122.9204 Y109.22 E0.99515 F6000 ; Print pattern wall
G1 X101.7072 Y130.4332 E0.99515 F6000 ; Print pattern wall
G10 ; Retract
G1 Z0.95 F7200 ; Z hop
G0 X104.1572 Y88.0068 F7200 ; Move to next pattern
G1 Z0.85 F7200 ; Z hop return
G11 ; Un-retract
SET_PRESSURE_ADVANCE ADVANCE=0.04 ; Set pressure advance
M117 PA 0.04
G1 X125.3704 Y109.22 E0.99515 F6000 ; Print pattern wall
G1 X104.1572 Y130.4332 E0.99515 F6000 ; Print pattern wall
G10 ; Retract
G1 Z0.95 F7200 ; Z hop
G0 X104.7329 Y88.0068 F7200 ; Move to start next pattern wall
G1 Z0.85 F7200 ; Z hop return
G11 ; Un-retract
G1 X125.9461 Y109.22 E0.99515 F6000 ; Print pattern wall
G1 X104.7329 Y130.4332 E0.99515 F6000 ; Print pattern wall
G10 ; Retract
G1 Z0.95 F7200 ; Z hop
G0 X105.3086 Y88.0068 F7200 ; Move to start next pattern wall
G1 Z0.85 F7200 ; Z hop return
G11 ; Un-retract
G1 X126.5218 Y109.22 E0.99515 F6000 ; Print pattern wall
G1 X105.3086 Y130.4332 E0.99515 F6000 ; Print pattern wall
G10 ; Retract
G1 Z0.95 F7200 ; Z hop
G0 X107.7586 Y88.0068 F7200 ; Move to next pattern
G1 Z0.85 F7200 ; Z hop return
G11 ; Un-retract
SET_PRESSURE_ADVANCE ADVANCE=0.045 ; Set pressure advance
M117 PA 0.045
G1 X128.9718 Y109.22 E0.99515 F6000 ; Print pattern wall
G1 X107.7586 Y130.4332 E0.99515 F6000 ; Print pattern wall
G10 ; Retract
G1 Z0.95 F7200 ; Z hop
G0 X108.3343 Y88.0068 F7200 ; Move to start next pattern wall
G1 Z0.85 F7200 ; Z hop return
G11 ; Un-retract
G1 X129.5475 Y109.22 E0.99515 F6000 ; Print pattern wall
G1 X108.3343 Y130.4332 E0.99515 F6000 ; Print pattern wall
G10 ; Retract
G1 Z0.95 F7200 ; Z hop
G0 X108.91 Y88.0068 F7200 ; Move to start next pattern wall
G1 Z0.85 F7200 ; Z hop return
G11 ; Un-retract
G1 X130.1232 Y109.22 E0.99515 F6000 ; Print pattern wall
G1 X108.91 Y130.4332 E0.99515 F6000 ; Print pattern wall
G10 ; Retract
G1 Z0.95 F7200 ; Z hop
G0 X111.36 Y88.0068 F7200 ; Move to next pattern
G1 Z0.85 F7200 ; Z hop return
G11 ; Un-retract
SET_PRESSURE_ADVANCE ADVANCE=0.05 ; Set pressure advance
M117 PA 0.05
G1 X132.5732 Y109.22 E0.99515 F6000 ; Print pattern wall
G1 X111.36 Y130.4332 E0.99515 F6000 ; Print pattern wall
G10 ; Retract
G1 Z0.95 F7200 ; Z hop
G0 X111.9357 Y88.0068 F7200 ; Move to start next pattern wall
G1 Z0.85 F7200 ; Z hop return
G11 ; Un-retract
G1 X133.1489 Y109.22 E0.99515 F6000 ; Print pattern wall
G1 X111.9357 Y130.4332 E0.99515 F6000 ; Print pattern wall
G10 ; Retract
G1 Z0.95 F7200 ; Z hop
G0 X112.5113 Y88.0068 F7200 ; Move to start next pattern wall
G1 Z0.85 F7200 ; Z hop return
G11 ; Un-retract
G1 X133.7246 Y109.22 E0.99515 F6000 ; Print pattern wall
G1 X112.5113 Y130.4332 E0.99515 F6000 ; Print pattern wall
G10 ; Retract
G1 Z0.95 F7200 ; Z hop
G0 X114.9613 Y88.0068 F7200 ; Move to next pattern
G1 Z0.85 F7200 ; Z hop return
G11 ; Un-retract
SET_PRESSURE_ADVANCE ADVANCE=0.055 ; Set pressure advance
M117 PA 0.055
G1 X136.1746 Y109.22 E0.99515 F6000 ; Print pattern wall
G1 X114.9613 Y130.4332 E0.99515 F6000 ; Print pattern wall
G10 ; Retract
G1 Z0.95 F7200 ; Z hop
G0 X115.537 Y88.0068 F7200 ; Move to start next pattern wall
G1 Z0.85 F7200 ; Z hop return
G11 ; Un-retract
G1 X136.7502 Y109.22 E0.99515 F6000 ; Print pattern wall
G1 X115.537 Y130.4332 E0.99515 F6000 ; Print pattern wall
G10 ; Retract
G1 Z0.95 F7200 ; Z hop
G0 X116.1127 Y88.0068 F7200 ; Move to start next pattern wall
G1 Z0.85 F7200 ; Z hop return
G11 ; Un-retract
G1 X137.3259 Y109.22 E0.99515 F6000 ; Print pattern wall
G1 X116.1127 Y130.4332 E0.99515 F6000 ; Print pattern wall
G10 ; Retract
G1 Z0.95 F7200 ; Z hop
G0 X118.5627 Y88.0068 F7200 ; Move to next pattern
G1 Z0.85 F7200 ; Z hop return
G11 ; Un-retract
SET_PRESSURE_ADVANCE ADVANCE=0.06 ; Set pressure advance
M117 PA 0.06
G1 X139.7759 Y109.22 E0.99515 F6000 ; Print pattern wall
G1 X118.5627 Y130.4332 E0.99515 F6000 ; Print pattern wall
G10 ; Retract
G1 Z0.95 F7200 ; Z hop
G0 X119.1384 Y88.0068 F7200 ; Move to start next pattern wall
G1 Z0.85 F7200 ; Z hop return
G11 ; Un-retract
G1 X140.3516 Y109.22 E0.99515 F6000 ; Print pattern wall
G1 X119.1384 Y130.4332 E0.99515 F6000 ; Print pattern wall
G10 ; Retract
G1 Z0.95 F7200 ; Z hop
G0 X119.7141 Y88.0068 F7200 ; Move to start next pattern wall
G1 Z0.85 F7200 ; Z hop return
G11 ; Un-retract
G1 X140.9273 Y109.22 E0.99515 F6000 ; Print pattern wall
G1 X119.7141 Y130.4332 E0.99515 F6000 ; Print pattern wall
G10 ; Retract
G1 Z0.95 F7200 ; Z hop
G0 X122.1641 Y88.0068 F7200 ; Move to next pattern
G1 Z0.85 F7200 ; Z hop return
G11 ; Un-retract
SET_PRESSURE_ADVANCE ADVANCE=0.065 ; Set pressure advance
M117 PA 0.065
G1 X143.3773 Y109.22 E0.99515 F6000 ; Print pattern wall
G1 X122.1641 Y130.4332 E0.99515 F6000 ; Print pattern wall
G10 ; Retract
G1 Z0.95 F7200 ; Z hop
G0 X122.7398 Y88.0068 F7200 ; Move to start next pattern wall
G1 Z0.85 F7200 ; Z hop return
G11 ; Un-retract
G1 X143.953 Y109.22 E0.99515 F6000 ; Print pattern wall
G1 X122.7398 Y130.4332 E0.99515 F6000 ; Print pattern wall
G10 ; Retract
G1 Z0.95 F7200 ; Z hop
G0 X123.3155 Y88.0068 F7200 ; Move to start next pattern wall
G1 Z0.85 F7200 ; Z hop return
G11 ; Un-retract
G1 X144.5287 Y109.22 E0.99515 F6000 ; Print pattern wall
G1 X123.3155 Y130.4332 E0.99515 F6000 ; Print pattern wall
G10 ; Retract
G1 Z0.95 F7200 ; Z hop
G0 X125.7655 Y88.0068 F7200 ; Move to next pattern
G1 Z0.85 F7200 ; Z hop return
G11 ; Un-retract
SET_PRESSURE_ADVANCE ADVANCE=0.07 ; Set pressure advance
M117 PA 0.07
G1 X146.9787 Y109.22 E0.99515 F6000 ; Print pattern wall
G1 X125.7655 Y130.4332 E0.99515 F6000 ; Print pattern wall
G10 ; Retract
G1 Z0.95 F7200 ; Z hop
G0 X126.3412 Y88.0068 F7200 ; Move to start next pattern wall
G1 Z0.85 F7200 ; Z hop return
G11 ; Un-retract
G1 X147.5544 Y109.22 E0.99515 F6000 ; Print pattern wall
G1 X126.3412 Y130.4332 E0.99515 F6000 ; Print pattern wall
G10 ; Retract
G1 Z0.95 F7200 ; Z hop
G0 X126.9169 Y88.0068 F7200 ; Move to start next pattern wall
G1 Z0.85 F7200 ; Z hop return
G11 ; Un-retract
G1 X148.1301 Y109.22 E0.99515 F6000 ; Print pattern wall
G1 X126.9169 Y130.4332 E0.99515 F6000 ; Print pattern wall
G10 ; Retract
G1 Z0.95 F7200 ; Z hop
G0 X129.3669 Y88.0068 F7200 ; Move to next pattern
G1 Z0.85 F7200 ; Z hop return
G11 ; Un-retract
SET_PRESSURE_ADVANCE ADVANCE=0.075 ; Set pressure advance
M117 PA 0.075
G1 X150.5801 Y109.22 E0.99515 F6000 ; Print pattern wall
G1 X129.3669 Y130.4332 E0.99515 F6000 ; Print pattern wall
G10 ; Retract
G1 Z0.95 F7200 ; Z hop
G0 X129.9426 Y88.0068 F7200 ; Move to start next pattern wall
G1 Z0.85 F7200 ; Z hop return
G11 ; Un-retract
G1 X151.1558 Y109.22 E0.99515 F6000 ; Print pattern wall
G1 X129.9426 Y130.4332 E0.99515 F6000 ; Print pattern wall
G10 ; Retract
G1 Z0.95 F7200 ; Z hop
G0 X130.5183 Y88.0068 F7200 ; Move to start next pattern wall
G1 Z0.85 F7200 ; Z hop return
G11 ; Un-retract
G1 X151.7315 Y109.22 E0.99515 F6000 ; Print pattern wall
G1 X130.5183 Y130.4332 E0.99515 F6000 ; Print pattern wall
G10 ; Retract
G1 Z0.95 F7200 ; Z hop
G0 X132.9683 Y88.0068 F7200 ; Move to next pattern
G1 Z0.85 F7200 ; Z hop return
G11 ; Un-retract
SET_PRESSURE_ADVANCE ADVANCE=0.08 ; Set pressure advance
M117 PA 0.08
G1 X154.1815 Y109.22 E0.99515 F6000 ; Print pattern wall
G1 X132.9683 Y130.4332 E0.99515 F6000 ; Print pattern wall
G10 ; Retract
G1 Z0.95 F7200 ; Z hop
G0 X133.544 Y88.0068 F7200 ; Move to start next pattern wall
G1 Z0.85 F7200 ; Z hop return
G11 ; Un-retract
G1 X154.7572 Y109.22 E0.99515 F6000 ; Print pattern wall
G1 X133.544 Y130.4332 E0.99515 F6000 ; Print pattern wall
G10 ; Retract
G1 Z0.95 F7200 ; Z hop
G0 X134.1197 Y88.0068 F7200 ; Move to start next pattern wall
G1 Z0.85 F7200 ; Z hop return
G11 ; Un-retract
G1 X155.3329 Y109.22 E0.99515 F6000 ; Print pattern wall
G1 X134.1197 Y130.4332 E0.99515 F6000 ; Print pattern wall
SET_PRESSURE_ADVANCE ADVANCE=0 ; Set pressure advance back to start value
M117 PA 0
G10 ; Retract
G1 Z0.95 F7200 ; Z hop
G0 Z5.85 F7200 ; Z raise
M104 S0 ; Turn off hotend
M140 S0 ; Turn off bed
M107    ; Turn off fan
;
; End G-code
;
END_PRINT
;
; FINISH
;
