; generated by PrusaSlicer 2.7.1+win64 on 2024-01-06 at 12:14:52 UTC

; 

; external perimeters extrusion width = 0.45mm
; perimeters extrusion width = 0.45mm
; infill extrusion width = 0.45mm
; solid infill extrusion width = 0.45mm
; top infill extrusion width = 0.40mm
; support material extrusion width = 0.35mm
; first layer extrusion width = 0.42mm

M73 P0 R69
M190 S50 ; set bed temperature and wait for it to be reached
M104 S220 ; set temperature
;TYPE:Custom
START_PRINT EXTRUDER_TEMP=220 BED_TEMP=50 Z_OFFSET=0.1
M109 S220 ; set temperature and wait for it to be reached
G21 ; set units to millimeters
G90 ; use absolute coordinates
M83 ; use relative distances for extrusion
; Filament gcode
M107
;LAYER_CHANGE
;Z:0.3
;HEIGHT:0.3
;BEFORE_LAYER_CHANGE
G92 E0
;0.3


G10 ; retract
G1 Z.3 F7800
;AFTER_LAYER_CHANGE
;0.3
G1 X102.829 Y96.258
G11 ; unretract
;TYPE:Skirt/Brim
;WIDTH:0.42
G1 F1800
G1 X103.746 Y95.383 E.05622
G1 X105.421 Y94.132 E.09273
G1 X111.708 Y90.453 E.32309
G1 X112.873 Y89.955 E.0562
G1 X113.969 Y89.599 E.05111
G1 X115.204 Y89.317 E.05619
G1 X116.346 Y89.162 E.05112
G1 X118.292 Y89.136 E.08632
G1 X120.018 Y89.327 E.07702
G1 X121.141 Y89.584 E.0511
G1 X122.346 Y89.975 E.05619
G1 X123.406 Y90.428 E.05113
G1 X124.521 Y91.028 E.05616
G1 X125.483 Y91.663 E.05113
G1 X126.474 Y92.453 E.05621
G1 X127.306 Y93.249 E.05107
G1 X128.14 Y94.203 E.0562
G1 X129.373 Y96.035 E.09795
G1 X134.672 Y106.254 E.51058
G1 X135.173 Y107.293 E.05116
G1 X135.619 Y108.48 E.05624
G1 X135.926 Y109.592 E.05117
G1 X136.153 Y110.84 E.05626
G1 X136.284 Y112.546 E.07589
G1 X136.348 Y118.474 E.26295
G1 X136.19 Y120.423 E.08673
G1 X135.894 Y121.832 E.06386
G1 X135.155 Y123.888 E.09691
G1 X134.253 Y125.577 E.08493
G1 X133.556 Y126.583 E.05428
G1 X132.176 Y128.128 E.09188
G1 X131.418 Y128.807 E.04514
G1 X122.096 Y136.012 E.52258
G1 X121.009 Y136.806 E.05971
G1 X119.729 Y137.545 E.06556
G1 X118.69 Y138.008 E.05045
G1 X117.285 Y138.465 E.06553
G1 X116.172 Y138.701 E.05046
G1 X114.702 Y138.855 E.06556
G1 X108.54 Y138.723 E.27338
G1 X106.639 Y138.507 E.08486
G1 X105.404 Y138.225 E.05619
G1 X104.308 Y137.869 E.05111
G1 X103.143 Y137.371 E.0562
G1 X102.129 Y136.825 E.05108
G1 X101.071 Y136.127 E.05622
G1 X100.17 Y135.409 E.0511
G1 X99.255 Y134.533 E.05619
G1 X98.497 Y133.666 E.05108
G1 X97.752 Y132.641 E.0562
G1 X97.161 Y131.651 E.05114
G1 X96.611 Y130.51 E.05618
G1 X96.206 Y129.431 E.05112
G1 X95.869 Y128.21 E.05618
G1 X95.664 Y127.076 E.05111
G1 X95.55 Y125.814 E.0562
G1 X95.596 Y123.861 E.08665
G1 X97.402 Y108.029 E.70678
G1 X97.676 Y106.435 E.07174
G1 X98.013 Y105.214 E.05618
G1 X98.612 Y103.669 E.0735
G1 X100.749 Y99.116 E.22309
G1 X101.334 Y98.139 E.05051
G1 X102.079 Y97.114 E.0562
G1 X102.79 Y96.303 E.04784
G1 X103.057 Y96.537 F7800
G1 F1800
G1 X103.097 Y96.492 E.00267
G1 X103.967 Y95.662 E.05333
G1 X105.603 Y94.438 E.09063
G1 X111.876 Y90.766 E.3224
G1 X112.983 Y90.293 E.0534
G1 X114.079 Y89.937 E.05111
G1 X115.252 Y89.669 E.05337
G1 X116.393 Y89.515 E.05107
G1 X118.276 Y89.491 E.08353
G1 X119.939 Y89.674 E.07421
G1 X121.062 Y89.93 E.05109
G1 X122.206 Y90.302 E.05336
G1 X123.266 Y90.755 E.05113
G1 X124.326 Y91.325 E.05338
G1 X125.287 Y91.96 E.05109
G1 X126.228 Y92.71 E.05337
G1 X127.061 Y93.506 E.0511
G1 X127.852 Y94.412 E.05335
G1 X129.057 Y96.198 E.09556
G1 X134.352 Y106.408 E.51014
G1 X134.853 Y107.447 E.05116
G1 X135.276 Y108.575 E.05343
G1 X135.583 Y109.687 E.05117
G1 X135.798 Y110.872 E.05342
G1 X135.928 Y112.55 E.07465
G1 X135.993 Y118.477 E.26291
G1 X135.837 Y120.386 E.08496
G1 X135.555 Y121.724 E.06065
G1 X134.836 Y123.731 E.09456
G1 X133.957 Y125.38 E.08288
G1 X133.266 Y126.377 E.0538
G1 X131.92 Y127.881 E.08952
G1 X131.2 Y128.526 E.04288
G1 X121.879 Y135.731 E.52255
G1 X120.8 Y136.519 E.05926
G1 X119.585 Y137.22 E.06222
G1 X118.546 Y137.683 E.05045
G1 X117.211 Y138.117 E.06226
G1 X116.098 Y138.353 E.05046
G1 X114.702 Y138.5 E.06226
G1 X108.55 Y138.368 E.27293
G1 X106.687 Y138.155 E.08317
G1 X105.514 Y137.887 E.05337
G1 X104.418 Y137.531 E.05111
G1 X103.312 Y137.058 E.05335
G1 X102.297 Y136.512 E.05112
G1 X101.293 Y135.849 E.05337
G1 X100.392 Y135.131 E.0511
G1 X99.523 Y134.299 E.05336
G1 X98.764 Y133.432 E.05111
G1 X98.057 Y132.458 E.05338
G1 X97.466 Y131.469 E.0511
G1 X96.944 Y130.385 E.05336
G1 X96.539 Y129.306 E.05112
G1 X96.219 Y128.146 E.05337
G1 X96.013 Y127.013 E.05108
G1 X95.906 Y125.814 E.05339
G1 X95.949 Y123.901 E.08487
G1 X97.755 Y108.07 E.70674
G1 X98.026 Y106.499 E.07071
G1 X98.346 Y105.339 E.05337
G1 X98.935 Y103.817 E.07239
G1 X101.054 Y99.298 E.22138
G1 X101.639 Y98.321 E.05051
G1 X102.347 Y97.349 E.05334
G1 X103.018 Y96.582 E.0452
G1 X103.285 Y96.816 F7800
G1 F1800
G1 X103.365 Y96.726 E.00534
G1 X104.189 Y95.94 E.05051
G1 X105.785 Y94.743 E.08849
G1 X112.045 Y91.079 E.32173
G1 X113.093 Y90.631 E.05055
G1 X114.189 Y90.275 E.05111
G1 X115.299 Y90.022 E.0505
G1 X116.441 Y89.867 E.05112
G1 X118.26 Y89.847 E.08069
G1 X119.86 Y90.021 E.07139
G1 X120.983 Y90.277 E.05109
G1 X122.067 Y90.629 E.05055
G1 X123.126 Y91.082 E.05109
G1 X124.13 Y91.622 E.05056
G1 X125.091 Y92.257 E.05109
G1 X125.982 Y92.967 E.05053
G1 X126.815 Y93.763 E.0511
G1 X127.565 Y94.622 E.05058
G1 X128.741 Y96.362 E.09315
G1 X134.031 Y106.562 E.50964
G1 X134.532 Y107.602 E.0512
G1 X134.933 Y108.67 E.0506
G1 X135.241 Y109.782 E.05118
G1 X135.444 Y110.904 E.05057
G1 X135.573 Y112.554 E.07341
G1 X135.637 Y118.481 E.26291
G1 X135.483 Y120.348 E.08309
G1 X135.217 Y121.616 E.05747
G1 X134.517 Y123.573 E.09219
G1 X133.662 Y125.182 E.08082
G1 X132.975 Y126.172 E.05345
G1 X131.665 Y127.634 E.08707
G1 X130.983 Y128.245 E.04061
G1 X121.661 Y135.45 E.52258
G1 X120.591 Y136.231 E.05876
G1 X119.44 Y136.896 E.05896
G1 X118.401 Y137.358 E.05044
G1 X117.137 Y137.769 E.05895
G1 X116.024 Y138.005 E.05046
G1 X114.702 Y138.144 E.05896
G1 X108.559 Y138.012 E.27253
G1 X106.735 Y137.802 E.08144
G1 X105.624 Y137.549 E.05054
G1 X104.528 Y137.193 E.05111
G1 X103.48 Y136.745 E.05055
G1 X102.466 Y136.199 E.05108
G1 X101.515 Y135.571 E.05055
G1 X100.614 Y134.853 E.0511
G1 X99.79 Y134.065 E.05057
G1 X99.032 Y133.198 E.05108
G1 X98.362 Y132.276 E.05055
G1 X97.771 Y131.287 E.0511
G1 X97.277 Y130.26 E.05055
G1 X96.872 Y129.181 E.05112
G1 X96.569 Y128.083 E.05052
G1 X96.363 Y126.949 E.05112
G1 X96.261 Y125.814 E.05055
G1 X96.302 Y123.942 E.08305
G1 X98.109 Y108.11 E.70678
G1 X98.375 Y106.562 E.06967
G1 X98.679 Y105.464 E.05053
G1 X99.258 Y103.965 E.07128
G1 X101.359 Y99.481 E.21964
G1 X101.944 Y98.504 E.05051
G1 X102.615 Y97.583 E.05054
G1 X103.246 Y96.862 E.0425
G10 ; retract
G1 X103.246 Y96.862 F7800
G1 X117.975 Y96.196
G11 ; unretract
;TYPE:Support material
G1 F1800
G1 X118.445 Y96.217 E.02087
G1 X119.569 Y96.473 E.05113
G1 X120.628 Y96.926 E.05109
G1 X121.59 Y97.561 E.05113
G1 X122.423 Y98.357 E.0511
G1 X123.1 Y99.289 E.05109
G1 X123.6 Y100.328 E.05114
G1 X123.907 Y101.438 E.05108
G1 X124.01 Y102.586 E.05112
G1 X123.907 Y103.733 E.05108
G1 X123.6 Y104.844 E.05112
G1 X123.1 Y105.882 E.0511
G1 X122.856 Y106.218 E.01842
G1 X123.644 Y106.251 E.03498
G1 X124.769 Y106.507 E.05117
G1 X125.83 Y106.959 E.05115
G1 X126.793 Y107.593 E.05114
G1 X127.627 Y108.39 E.05117
G1 X128.306 Y109.322 E.05115
G1 X128.807 Y110.362 E.0512
G1 X129.114 Y111.474 E.05117
G1 X129.218 Y112.623 E.05117
G1 X129.114 Y113.772 E.05117
G1 X128.806 Y114.884 E.05118
G1 X128.557 Y115.401 E.02545
G1 X128.981 Y116.385 E.04752
G1 X129.178 Y117.175 E.03611
G1 X129.282 Y118.55 E.06116
G1 X129.163 Y119.681 E.05044
G1 X128.818 Y120.759 E.0502
G1 X128.379 Y121.649 E.04402
G1 X127.787 Y122.502 E.04605
G1 X127.096 Y123.216 E.04407
G1 X126.257 Y123.83 E.04611
G1 X125.571 Y124.196 E.03449
G1 X123.945 Y124.741 E.07606
G1 X122.038 Y124.795 E.08462
G1 X120.406 Y124.357 E.07495
G1 X119.406 Y123.842 E.04989
G1 X119.253 Y106.76 E.7577
G1 X118.916 Y106.429 E.02095
G1 X116.744 Y106.449 E.09634
G1 X116.413 Y106.785 E.02092
G1 X116.577 Y125.057 E.81048
G1 X116.914 Y125.388 E.02095
G1 X119.086 Y125.368 E.09634
G1 X119.392 Y125.057 E.01935
G1 X119.573 Y126.378 E.05914
G1 X119.455 Y127.509 E.05044
G1 X119.104 Y128.591 E.05045
G1 X118.535 Y129.576 E.05046
G1 X117.775 Y130.421 E.05041
G1 X116.855 Y131.09 E.05045
G1 X115.816 Y131.552 E.05044
G1 X114.703 Y131.789 E.05047
G1 X113.566 Y131.788 E.05043
G1 X112.454 Y131.552 E.05042
G1 X111.514 Y131.133 E.04565
G1 X111.004 Y131.351 E.0246
G1 X109.881 Y131.607 E.05109
G1 X108.73 Y131.659 E.0511
G1 X107.588 Y131.504 E.05112
G1 X106.492 Y131.148 E.05111
G1 X105.477 Y130.602 E.05112
G1 X104.577 Y129.884 E.05107
G1 X103.818 Y129.016 E.05114
G1 X103.227 Y128.027 E.0511
G1 X102.823 Y126.948 E.0511
G1 X102.617 Y125.814 E.05112
G1 X102.617 Y124.662 E.0511
G1 X102.823 Y123.528 E.05112
G1 X103.227 Y122.45 E.05106
G1 X103.818 Y121.46 E.05114
G1 X104.577 Y120.593 E.05111
G1 X105.477 Y119.874 E.05109
G1 X106.492 Y119.328 E.05112
G1 X107.588 Y118.972 E.05111
G1 X108.73 Y118.818 E.05111
G1 X109.881 Y118.869 E.0511
G1 X111.004 Y119.126 E.0511
G1 X112.064 Y119.579 E.05113
G1 X112.558 Y119.905 E.02625
G1 X113.364 Y119.116 E.05003
G1 X113.563 Y118.229 E.04032
G1 X113.827 Y117.951 E.017
G1 X113.503 Y117.538 E.02328
G1 X113.187 Y116.114 E.0647
G1 X113.374 Y115.278 E.038
G1 X112.811 Y115.519 E.02716
G1 X111.688 Y115.775 E.05109
G1 X110.537 Y115.827 E.0511
G1 X109.395 Y115.672 E.05112
G1 X108.299 Y115.317 E.0511
G1 X107.284 Y114.771 E.05112
G1 X106.384 Y114.052 E.05109
G1 X105.625 Y113.185 E.05111
G1 X105.034 Y112.196 E.0511
G1 X104.629 Y111.117 E.05112
G1 X104.423 Y109.983 E.05112
G1 X104.423 Y108.831 E.0511
G1 X104.629 Y107.697 E.05112
G1 X105.034 Y106.618 E.05112
G1 X105.625 Y105.628 E.05114
G1 X106.199 Y104.971 E.0387
G1 X106.411 Y103.812 E.05226
G1 X106.812 Y102.746 E.05052
G1 X107.397 Y101.769 E.05051
G1 X108.147 Y100.912 E.05051
G1 X109.037 Y100.203 E.05047
G1 X110.04 Y99.665 E.05048
G1 X111.122 Y99.314 E.05045
G1 X112.165 Y99.174 E.04668
G1 X112.383 Y98.808 E.0189
G1 X113.141 Y97.94 E.05111
G1 X114.042 Y97.222 E.0511
G1 X115.057 Y96.676 E.05112
G1 X116.153 Y96.32 E.05111
G1 X117.294 Y96.165 E.05107
G1 X117.922 Y96.193 E.02788
G1 X128.888 Y120.014 F7800
G1 F1800
G1 X128.888 Y117.444 E.11399
G1 X128.493 Y115.989 E.06687
G1 X128.493 Y120.694 E.20869
G1 X128.098 Y121.493 E.03953
G1 X128.098 Y109.628 E.52627
G1 X127.703 Y109.037 E.03153
G1 X127.703 Y122.066 E.5779
G1 X127.308 Y122.536 E.02723
G1 X127.308 Y108.527 E.62137
G1 X126.913 Y108.15 E.02422
G1 X126.913 Y122.945 E.65623
G1 X126.518 Y123.243 E.02195
G1 X126.518 Y107.795 E.68519
G1 X126.122 Y107.535 E.02101
G1 X126.122 Y123.532 E.70954
G1 X125.727 Y123.75 E.02001
G1 X125.727 Y107.274 E.73079
G1 X125.332 Y107.095 E.01924
G1 X125.332 Y123.946 E.74742
G1 X124.937 Y124.102 E.01884
G1 X124.937 Y106.926 E.76184
G1 X124.542 Y106.783 E.01863
G1 X124.542 Y124.238 E.77421
G1 X124.147 Y124.35 E.01821
G1 X124.147 Y106.694 E.78313
G1 X123.752 Y106.604 E.01797
G1 X123.752 Y124.434 E.79085
G1 X123.357 Y124.463 E.01757
G1 X123.357 Y106.559 E.79413
G1 X122.961 Y106.542 E.01758
G1 X122.961 Y124.489 E.79604
G1 X122.566 Y124.483 E.01752
G1 X122.566 Y106.525 E.79652
G1 X122.247 Y106.512 E.01416
G1 X122.566 Y106.073 E.02407
G1 X122.566 Y99.099 E.30933
G1 X122.171 Y98.559 E.02968
G1 X122.171 Y124.477 E1.14959
G1 X121.776 Y124.407 E.01779
G1 X121.776 Y98.182 E1.16321
G1 X121.381 Y97.806 E.02419
G1 X121.381 Y124.316 E1.17585
G1 X120.986 Y124.223 E.018
G1 X120.986 Y97.546 E1.18325
G1 X120.591 Y97.285 E.021
G1 X120.591 Y124.083 E1.18862
G1 X120.195 Y123.904 E.01928
G1 X120.195 Y97.089 E1.18937
G1 X119.8 Y96.92 E.01906
G1 X119.8 Y123.707 E1.18813
G1 X119.725 Y123.661 E.0039
G1 X119.572 Y106.624 E.7557
G1 X119.405 Y106.461 E.01035
G1 X119.405 Y96.764 E.43011
G1 X119.01 Y96.674 E.01797
G1 X119.01 Y106.108 E.41844
G1 X118.615 Y106.112 E.01752
G1 X118.615 Y96.584 E.42261
G1 X118.22 Y96.527 E.0177
G1 X118.22 Y106.115 E.42527
G1 X117.825 Y106.119 E.01752
G1 X117.825 Y96.509 E.42625
G1 X117.43 Y96.492 E.01754
G1 X117.43 Y106.122 E.42714
G1 X117.034 Y106.126 E.01757
G1 X117.034 Y96.523 E.42594
G1 X116.639 Y96.577 E.01768
G1 X116.639 Y106.327 E.43246
G10 ; retract
G1 X116.639 Y106.327 F7800
M73 P1 R69
G1 X128.888 Y113.987
G11 ; unretract
G1 F1800
G1 X128.888 Y112.535 E.0644
G1 X128.798 Y111.531 E.04471
G1 X128.493 Y110.448 E.0499
G1 X128.493 Y115.165 E.20922
G10 ; retract
G1 X128.493 Y115.165 F7800
G1 X123.357 Y104.981
G11 ; unretract
G1 F1800
G1 X123.357 Y100.648 E.19219
G1 X122.961 Y99.739 E.04398
G1 X122.961 Y105.801 E.26888
G10 ; retract
G1 X122.961 Y105.801 F7800
G1 X119.01 Y128.361
G11 ; unretract
G1 F1800
G1 X119.01 Y125.689 E.11852
G1 X118.615 Y125.693 E.01752
G1 X118.615 Y128.797 E.13768
G1 X118.22 Y129.448 E.03377
G1 X118.22 Y125.696 E.16642
G1 X117.825 Y125.7 E.01752
G1 X117.825 Y129.887 E.18571
G1 X117.43 Y130.276 E.02459
G1 X117.43 Y125.703 E.20283
G1 X117.034 Y125.707 E.01757
G1 X117.034 Y130.563 E.21539
G1 X116.639 Y130.835 E.02127
G1 X116.639 Y125.342 E.24364
G1 X116.244 Y131.186 F7800
G1 F1800
G1 X116.244 Y96.631 E1.53268
G1 X115.849 Y96.755 E.01836
G1 X115.849 Y131.187 E1.52722
G1 X115.454 Y131.302 E.01825
G1 X115.454 Y96.883 E1.52665
G1 X115.059 Y97.038 E.01882
G1 X115.059 Y131.386 E1.5235
G1 X114.664 Y131.469 E.0179
G1 X114.664 Y97.251 E1.51773
G1 X114.268 Y97.464 E.01994
G1 X114.268 Y131.468 E1.50824
G1 X113.873 Y131.468 E.01752
M73 P1 R68
G1 X113.873 Y118.367 E.58109
G1 X113.656 Y119.278 E.04154
G1 X113.478 Y119.452 E.01104
G1 X113.478 Y131.443 E.53186
G1 X113.083 Y131.358 E.01792
G1 X113.083 Y119.839 E.51092
G1 X112.688 Y120.226 E.02453
G1 X112.688 Y131.274 E.49003
G1 X112.293 Y131.13 E.01865
G1 X112.293 Y120.113 E.48866
G1 X111.898 Y119.856 E.0209
G1 X111.898 Y130.954 E.49225
G1 X111.503 Y130.79 E.01897
G1 X111.503 Y119.687 E.49247
G1 X111.107 Y119.518 E.0191
G1 X111.107 Y130.959 E.50746
G1 X110.712 Y131.089 E.01844
G1 X110.712 Y119.387 E.51904
G1 X110.317 Y119.297 E.01797
G1 X110.317 Y131.179 E.52702
G1 X109.922 Y131.269 E.01797
G1 X109.922 Y119.207 E.53501
G1 X109.527 Y119.174 E.01758
G1 X109.527 Y131.303 E.53798
G1 X109.132 Y131.32 E.01754
G1 X109.132 Y119.156 E.53953
G1 X108.737 Y119.14 E.01753
G1 X108.737 Y131.337 E.541
G1 X108.341 Y131.283 E.01773
G1 X108.341 Y119.193 E.53625
G1 X107.946 Y119.247 E.01768
G1 X107.946 Y131.23 E.5315
G1 X107.551 Y131.156 E.01782
G1 X107.551 Y119.321 E.52494
G1 X107.156 Y119.449 E.01842
G1 X107.156 Y131.027 E.51354
G1 X106.761 Y130.899 E.01842
G1 X106.761 Y119.578 E.50214
G1 X106.366 Y119.76 E.01929
G1 X106.366 Y130.717 E.486
G1 X105.971 Y130.504 E.01991
G1 X105.971 Y119.972 E.46714
G1 X105.576 Y120.205 E.02034
G1 X105.576 Y130.271 E.44648
G1 X105.18 Y129.956 E.02244
G1 X105.18 Y120.521 E.41849
G1 X104.785 Y120.84 E.02252
G1 X104.785 Y129.636 E.39014
G1 X104.39 Y129.184 E.02663
G1 X104.39 Y121.293 E.35
G1 X103.995 Y121.789 E.02812
G1 X103.995 Y128.688 E.306
G1 X103.6 Y128.026 E.03419
G1 X103.6 Y122.45 E.24732
G1 X103.205 Y123.421 E.0465
G1 X103.205 Y127.511 E.18141
G10 ; retract
G1 X103.205 Y127.511 F7800
G1 X113.873 Y117.751
G11 ; unretract
G1 F1800
G1 X113.873 Y97.766 E.88643
G1 X113.478 Y98.081 E.02241
G1 X113.478 Y114.885 E.74534
G1 X113.083 Y115.054 E.01906
G1 X113.083 Y98.493 E.73456
G1 X112.688 Y98.946 E.02666
G1 X112.688 Y115.218 E.72174
G1 X112.293 Y115.309 E.01798
G1 X112.293 Y99.479 E.70214
G1 X111.898 Y99.533 E.01768
G1 X111.898 Y115.399 E.70373
G1 X111.503 Y115.463 E.01775
G1 X111.503 Y99.586 E.70422
G1 X111.107 Y99.655 E.01783
G1 X111.107 Y115.481 E.70196
G1 X110.712 Y115.499 E.01754
G1 X110.712 Y99.784 E.69704
G1 X110.317 Y99.912 E.01842
G1 X110.317 Y115.474 E.69025
G1 X109.922 Y115.421 E.01768
G1 X109.922 Y100.092 E.67991
G1 X109.527 Y100.304 E.01988
G1 X109.527 Y115.367 E.66812
G1 X109.132 Y115.25 E.01827
G1 X109.132 Y100.537 E.65259
G1 X108.737 Y100.852 E.02241
G1 X108.737 Y115.122 E.63294
G1 X108.341 Y114.976 E.01872
G1 X108.341 Y101.176 E.6121
G1 X107.946 Y101.627 E.02659
G1 X107.946 Y114.763 E.58264
G1 X107.551 Y114.551 E.01988
G1 X107.551 Y102.134 E.55075
G1 X107.156 Y102.794 E.03412
G1 X107.156 Y114.259 E.50853
G1 X106.761 Y113.944 E.02241
G1 X106.761 Y103.79 E.45038
G1 X106.498 Y105.116 E.05996
