; generated by PrusaSlicer 2.7.1+win64 on 2024-02-06 at 02:34:45 UTC

; 

; external perimeters extrusion width = 0.45mm
; perimeters extrusion width = 0.45mm
; infill extrusion width = 0.45mm
; solid infill extrusion width = 0.45mm
; top infill extrusion width = 0.40mm
; support material extrusion width = 0.35mm
; first layer extrusion width = 0.42mm

M73 P0 R44
M190 S50 ; set bed temperature and wait for it to be reached
M104 S230 ; set temperature
;TYPE:Custom
START_PRINT EXTRUDER_TEMP=230 BED_TEMP=50 Z_OFFSET=0.1
M109 S230 ; set temperature and wait for it to be reached
G21 ; set units to millimeters
G90 ; use absolute coordinates
M83 ; use relative distances for extrusion
; Filament gcode
M107
;LAYER_CHANGE
;Z:0.3
;HEIGHT:0.3
;BEFORE_LAYER_CHANGE
G92 E0
;0.3


G10 ; retract
G1 Z.3 F7800
;AFTER_LAYER_CHANGE
;0.3
G1 X95.533 Y100.297
G11 ; unretract
;TYPE:Skirt/Brim
;WIDTH:0.42
G1 F1800
G1 X96.434 Y99.578 E.05113
G1 X97.492 Y98.879 E.05624
G1 X98.506 Y98.333 E.05108
G1 X99.672 Y97.835 E.05624
G1 X100.768 Y97.479 E.05111
G1 X102.004 Y97.197 E.05623
G1 X103.146 Y97.042 E.05112
G1 X104.109 Y96.978 E.04281
G1 X125.125 Y97.022 E.93216
G1 X126.578 Y97.08 E.0645
G1 X127.834 Y97.251 E.05622
G1 X128.957 Y97.507 E.05109
G1 X130.162 Y97.898 E.05619
G1 X131.221 Y98.351 E.05109
G1 X132.337 Y98.952 E.05622
G1 X133.299 Y99.586 E.0511
G1 X134.289 Y100.376 E.05618
G1 X135.122 Y101.173 E.05114
G1 X135.956 Y102.127 E.0562
G1 X136.633 Y103.059 E.05109
G1 X137.283 Y104.147 E.05621
G1 X137.783 Y105.185 E.0511
G1 X138.228 Y106.371 E.05619
G1 X138.534 Y107.482 E.05111
G1 X138.761 Y108.728 E.05618
G1 X138.864 Y109.876 E.05112
G1 X138.864 Y111.143 E.0562
G1 X138.679 Y112.899 E.07832
G1 X137.351 Y120.336 E.33508
G1 X136.703 Y122.389 E.09549
G1 X135.911 Y123.898 E.07559
G1 X135.432 Y124.592 E.0374
G1 X134.302 Y125.867 E.07557
G1 X133.671 Y126.427 E.03742
G1 X132.269 Y127.394 E.07554
G1 X131.521 Y127.787 E.03748
G1 X130.194 Y128.32 E.06343
G1 X118.194 Y131.766 E.55377
G1 X117.071 Y132.022 E.05109
G1 X115.816 Y132.192 E.05617
G1 X114.665 Y132.244 E.0511
G1 X113.399 Y132.187 E.05621
G1 X111.133 Y131.785 E.10208
G1 X99.551 Y128.232 E.53735
G1 X98.072 Y127.586 E.07159
G1 X97.328 Y127.153 E.03818
G1 X95.943 Y126.101 E.07714
G1 X95.326 Y125.499 E.03824
G1 X94.241 Y124.141 E.0771
G1 X93.79 Y123.407 E.03821
G1 X93.069 Y121.824 E.07715
G1 X92.811 Y121.002 E.03821
G1 X91.029 Y112.308 E.39364
G1 X90.915 Y111.046 E.0562
G1 X90.915 Y109.894 E.0511
G1 X91.028 Y108.632 E.0562
G1 X91.233 Y107.498 E.05111
G1 X91.57 Y106.277 E.05618
G1 X91.974 Y105.198 E.0511
G1 X92.524 Y104.056 E.05622
G1 X93.115 Y103.066 E.05114
G1 X93.859 Y102.041 E.05618
G1 X94.617 Y101.173 E.05111
G1 X95.481 Y100.346 E.05305
G1 X95.726 Y100.602 F7800
G1 F1800
G1 X95.755 Y100.575 E.00176
G1 X96.656 Y99.856 E.05113
G1 X97.66 Y99.193 E.05337
G1 X98.675 Y98.646 E.05114
G1 X99.782 Y98.173 E.0534
G1 X100.878 Y97.817 E.05111
G1 X102.051 Y97.549 E.05337
G1 X103.194 Y97.394 E.05116
G1 X104.109 Y97.333 E.04067
G1 X125.124 Y97.377 E.93212
G1 X126.562 Y97.436 E.06384
G1 X127.755 Y97.597 E.05339
G1 X128.878 Y97.854 E.0511
G1 X130.022 Y98.225 E.05334
G1 X131.082 Y98.678 E.05113
G1 X132.141 Y99.248 E.05334
G1 X133.103 Y99.883 E.05113
G1 X134.044 Y100.633 E.05337
G1 X134.876 Y101.43 E.0511
G1 X135.668 Y102.336 E.05338
G1 X136.345 Y103.268 E.05109
G1 X136.962 Y104.301 E.05337
G1 X137.462 Y105.339 E.0511
G1 X137.885 Y106.465 E.05335
G1 X138.192 Y107.576 E.05112
G1 X138.406 Y108.76 E.05337
G1 X138.51 Y109.908 E.05113
G1 X138.51 Y111.111 E.05336
G1 X138.329 Y112.836 E.07693
G1 X137.001 Y120.274 E.33513
G1 X136.37 Y122.263 E.09255
G1 X135.619 Y123.696 E.07176
G1 X135.139 Y124.39 E.03743
G1 X134.066 Y125.601 E.07177
G1 X133.435 Y126.16 E.03739
G1 X132.103 Y127.08 E.0718
G1 X131.356 Y127.472 E.03742
G1 X130.095 Y127.978 E.06027
G1 X118.115 Y131.419 E.55286
G1 X116.992 Y131.675 E.05109
G1 X115.8 Y131.837 E.05336
G1 X114.649 Y131.889 E.0511
G1 X113.447 Y131.835 E.05337
G1 X111.237 Y131.445 E.09954
G1 X99.655 Y127.892 E.53735
G1 X98.251 Y127.279 E.06795
G1 X97.506 Y126.846 E.03822
G1 X96.191 Y125.846 E.07328
G1 X95.575 Y125.245 E.03817
G1 X94.544 Y123.954 E.07328
G1 X94.093 Y123.22 E.03821
G1 X93.408 Y121.717 E.07326
G1 X93.15 Y120.896 E.03817
G1 X91.379 Y112.245 E.39167
G1 X91.271 Y111.046 E.0534
G1 X91.27 Y109.894 E.0511
G1 X91.378 Y108.695 E.0534
G1 X91.583 Y107.562 E.05107
G1 X91.903 Y106.401 E.05342
G1 X92.307 Y105.322 E.0511
G1 X92.829 Y104.238 E.05336
G1 X93.42 Y103.249 E.0511
G1 X94.127 Y102.275 E.05338
G1 X94.885 Y101.407 E.05111
G1 X95.674 Y100.652 E.04844
G1 X95.919 Y100.908 F7800
G1 F1800
G1 X95.977 Y100.853 E.00355
G1 X96.878 Y100.134 E.05113
G1 X97.829 Y99.506 E.05055
G1 X98.844 Y98.959 E.05114
G1 X99.892 Y98.511 E.05055
G1 X100.988 Y98.155 E.05111
G1 X102.099 Y97.901 E.05055
G1 X103.241 Y97.747 E.05111
G1 X104.108 Y97.689 E.03854
G1 X125.123 Y97.733 E.93212
G1 X126.546 Y97.791 E.06317
G1 X127.675 Y97.944 E.05053
G1 X128.799 Y98.2 E.05113
G1 X129.882 Y98.552 E.05051
G1 X130.942 Y99.005 E.05113
G1 X131.945 Y99.545 E.05053
G1 X132.907 Y100.18 E.05113
G1 X133.798 Y100.891 E.05056
G1 X134.631 Y101.687 E.0511
G1 X135.38 Y102.545 E.05052
G1 X136.058 Y103.477 E.05112
G1 X136.642 Y104.455 E.05052
G1 X137.142 Y105.493 E.0511
G1 X137.542 Y106.56 E.05054
G1 X137.849 Y107.671 E.05112
G1 X138.052 Y108.792 E.05053
G1 X138.155 Y109.94 E.05112
G1 X138.155 Y111.079 E.05052
G1 X137.979 Y112.774 E.07559
G1 X136.651 Y120.211 E.33508
G1 X136.038 Y122.137 E.08965
G1 X135.326 Y123.494 E.06797
G1 X134.847 Y124.188 E.0374
G1 X133.831 Y125.335 E.06796
G1 X133.199 Y125.894 E.03742
G1 X131.938 Y126.765 E.06798
G1 X131.191 Y127.157 E.03742
G1 X129.997 Y127.636 E.05706
G1 X118.036 Y131.072 E.55198
G1 X116.913 Y131.329 E.0511
G1 X115.784 Y131.482 E.05053
G1 X114.633 Y131.533 E.0511
G1 X113.494 Y131.482 E.05057
G1 X111.342 Y131.105 E.09691
G1 X99.759 Y127.552 E.53739
G1 X98.43 Y126.971 E.06433
G1 X97.685 Y126.538 E.03822
G1 X96.44 Y125.592 E.06935
G1 X95.823 Y124.99 E.03824
G1 X94.847 Y123.768 E.06937
G1 X94.396 Y123.034 E.03821
G1 X93.747 Y121.611 E.06937
G1 X93.489 Y120.789 E.03821
G1 X91.729 Y112.181 E.38971
G1 X91.626 Y111.046 E.05055
G1 X91.626 Y109.894 E.0511
G1 X91.728 Y108.759 E.05055
G1 X91.933 Y107.625 E.05111
G1 X92.236 Y106.526 E.05056
G1 X92.64 Y105.447 E.0511
G1 X93.134 Y104.42 E.05055
G1 X93.725 Y103.431 E.0511
G1 X94.395 Y102.509 E.05055
G1 X95.153 Y101.64 E.05115
G1 X95.867 Y100.958 E.0438
G10 ; retract
G1 X95.867 Y100.958 F7800
G1 X104.745 Y104.074
G11 ; unretract
;TYPE:Support material
G1 F1800
G1 X105.246 Y104.096 E.02224
G1 X106.37 Y104.353 E.05114
G1 X107.43 Y104.806 E.05113
G1 X108.214 Y105.324 E.04168
G1 X109.255 Y105.183 E.04659
G1 X110.406 Y105.235 E.0511
G1 X111.53 Y105.491 E.05113
G1 X112.881 Y106.137 E.06642
G1 X113.686 Y105.456 E.04677
G1 X114.635 Y104.841 E.05016
G1 X115.973 Y104.36 E.06307
G1 X117.021 Y104.203 E.047
G1 X118.186 Y104.22 E.05168
G1 X119.222 Y104.442 E.04699
G1 X120.239 Y104.827 E.04823
G1 X121.371 Y105.533 E.05917
G1 X121.858 Y105.145 E.02762
G1 X122.872 Y104.599 E.05108
G1 X123.968 Y104.243 E.05111
G1 X125.11 Y104.089 E.05111
G1 X126.261 Y104.14 E.0511
G1 X127.384 Y104.397 E.0511
G1 X128.444 Y104.85 E.05113
G1 X129.406 Y105.484 E.0511
G1 X130.238 Y106.281 E.0511
G1 X130.916 Y107.213 E.05112
G1 X131.416 Y108.251 E.0511
G1 X131.722 Y109.362 E.05111
G1 X131.825 Y110.509 E.05108
G1 X131.722 Y111.657 E.05112
G1 X131.416 Y112.767 E.05107
G1 X130.916 Y113.806 E.05114
G1 X130.238 Y114.738 E.05112
G1 X129.705 Y115.248 E.03272
G1 X129.432 Y114.996 E.01648
G1 X128.623 Y114.526 E.0415
G1 X127.728 Y114.253 E.0415
G1 X126.795 Y114.191 E.04147
G1 X125.873 Y114.345 E.04146
G1 X125.067 Y114.673 E.0386
G1 X124.3 Y115.208 E.04148
G1 X123.867 Y115.687 E.02864
G1 X123.244 Y115.687 E.02763
G1 X122.91 Y116.021 E.02095
G1 X122.91 Y118.493 E.10965
G1 X123.053 Y119.264 E.03478
G1 X123.513 Y120.33 E.0515
G1 X122.988 Y120.831 E.03219
G1 X122.026 Y121.466 E.05113
G1 X120.966 Y121.918 E.05111
G1 X120.115 Y122.112 E.03871
G1 X119.476 Y122.992 E.04824
G1 X118.643 Y123.788 E.0511
G1 X117.681 Y124.423 E.05113
G1 X116.622 Y124.876 E.05109
G1 X115.499 Y125.132 E.05109
G1 X114.348 Y125.184 E.0511
G1 X113.206 Y125.029 E.05112
G1 X112.11 Y124.673 E.05111
G1 X111.095 Y124.127 E.05112
G1 X110.194 Y123.409 E.0511
G1 X109.436 Y122.541 E.05111
G1 X108.754 Y121.308 E.0625
G1 X107.99 Y120.897 E.03848
G1 X107.089 Y120.179 E.0511
G1 X106.742 Y119.781 E.02342
G1 X106.934 Y119.285 E.02359
G1 X107.083 Y118.493 E.03575
G1 X107.083 Y116.021 E.10965
G1 X106.749 Y115.687 E.02095
G1 X106.123 Y115.687 E.02777
G1 X105.64 Y115.162 E.03164
G1 X104.805 Y114.61 E.0444
G1 X103.859 Y114.279 E.04445
G1 X102.932 Y114.187 E.04132
G1 X101.872 Y114.345 E.04754
G1 X100.951 Y114.738 E.04441
G1 X100.19 Y115.309 E.0422
G1 X99.185 Y114.245 E.06492
G1 X98.593 Y113.256 E.05113
G1 X98.188 Y112.177 E.05112
G1 X97.982 Y111.044 E.05108
G1 X97.982 Y109.891 E.05114
G1 X98.187 Y108.758 E.05107
G1 X98.591 Y107.678 E.05115
G1 X99.182 Y106.689 E.0511
G1 X99.94 Y105.821 E.05111
G1 X100.841 Y105.102 E.05113
G1 X101.856 Y104.556 E.05112
G1 X102.952 Y104.199 E.05113
G1 X104.095 Y104.045 E.05116
G1 X104.692 Y104.071 E.0265
G1 X131.2 Y112.846 F7800
G1 F1800
G1 X131.2 Y108.674 E.18505
G1 X130.805 Y107.721 E.04576
G1 X130.805 Y113.297 E.24732
G1 X130.41 Y113.957 E.03412
G1 X130.41 Y107.061 E.30587
G1 X130.015 Y106.518 E.02978
G1 X130.015 Y114.501 E.35408
G1 X129.706 Y114.804 E.0192
G1 X129.62 Y114.737 E.00484
G1 X129.62 Y106.132 E.38167
G1 X129.225 Y105.754 E.02425
G1 X129.225 Y114.501 E.38797
G1 X128.83 Y114.267 E.02036
G1 X128.83 Y105.488 E.38939
G1 X128.434 Y105.227 E.02104
G1 X128.434 Y114.131 E.39494
G1 X128.039 Y114.007 E.01836
G1 X128.039 Y105.025 E.39839
G1 X127.644 Y104.856 E.01906
G1 X127.644 Y113.926 E.4023
G1 X127.249 Y113.897 E.01757
G1 X127.249 Y104.694 E.4082
G1 X126.854 Y104.604 E.01797
G1 X126.854 Y113.869 E.41095
G1 X126.459 Y113.921 E.01767
G1 X126.459 Y104.514 E.41725
G1 X126.064 Y104.452 E.01773
G1 X126.064 Y113.983 E.42275
G1 X125.669 Y114.082 E.01806
G1 X125.669 Y104.434 E.42794
G1 X125.273 Y104.416 E.01758
G1 X125.273 Y114.243 E.43587
G1 X124.878 Y114.411 E.01904
G1 X124.878 Y104.443 E.44213
G1 X124.483 Y104.496 E.01768
G1 X124.483 Y114.685 E.45193
G1 X124.088 Y114.968 E.02155
G1 X124.04 Y104.557 E.46178
G1 X123.693 Y104.669 E.01617
G1 X123.693 Y115.367 E.47451
G1 X123.298 Y115.367 E.01752
G1 X123.298 Y104.798 E.46879
G1 X122.903 Y104.946 E.01871
G1 X122.903 Y115.575 E.47145
G1 X122.59 Y115.888 E.01963
M73 P1 R44
G1 X122.59 Y118.625 E.1214
G1 X122.903 Y119.771 E.05269
G1 X122.903 Y120.47 E.031
G1 X122.508 Y120.764 E.02184
G1 X122.508 Y105.159 E.69216
G1 X122.112 Y105.372 E.01994
G1 X122.112 Y121.025 E.69429
G1 X121.717 Y121.249 E.02014
G1 X121.717 Y105.667 E.69114
G1 X121.368 Y105.945 E.01979
G1 X121.322 Y105.907 E.00265
G1 X121.322 Y121.418 E.68799
G1 X120.927 Y121.587 E.01906
G1 X120.927 Y105.592 E.70946
G1 X120.532 Y105.365 E.02021
G1 X120.532 Y121.689 E.72405
G1 X120.137 Y121.779 E.01797
G1 X120.137 Y105.137 E.73815
G1 X119.742 Y104.976 E.01892
G1 X119.742 Y122.082 E.75873
G1 X119.346 Y122.626 E.02984
G1 X119.346 Y104.828 E.78943
G1 X118.951 Y104.711 E.01827
G1 X118.951 Y123.051 E.81347
G1 X118.556 Y123.429 E.02425
G1 X118.556 Y104.626 E.834
G1 X118.161 Y104.542 E.01791
G1 X118.161 Y123.723 E.85077
G1 X117.766 Y123.984 E.021
G1 X117.766 Y104.534 E.8627
G1 X117.371 Y104.528 E.01752
G1 X117.371 Y124.208 E.8729
G1 X116.976 Y124.377 E.01906
G1 X116.976 Y104.534 E.88013
G1 X116.581 Y104.593 E.01771
G1 X116.581 Y124.546 E.88501
G1 X116.185 Y124.647 E.01813
G1 X116.185 Y104.652 E.88687
G1 X115.79 Y104.749 E.01804
G1 X115.79 Y124.737 E.88656
G1 X115.395 Y124.817 E.01788
G1 X115.395 Y104.868 E.88483
G1 X115 Y105.03 E.01894
G1 X115 Y124.834 E.8784
G1 X114.605 Y124.852 E.01754
G1 X114.605 Y105.242 E.8698
G1 X114.21 Y105.498 E.02088
G1 X114.21 Y124.842 E.858
G1 X113.815 Y124.789 E.01768
G1 X113.815 Y105.767 E.84372
G1 X113.419 Y106.101 E.02298
G1 X113.419 Y124.735 E.82651
G1 X113.024 Y124.634 E.01808
G1 X113.024 Y106.435 E.80721
G1 X112.905 Y106.536 E.00692
G1 X112.629 Y106.354 E.01466
G1 X112.629 Y124.506 E.80513
G1 X112.234 Y124.377 E.01843
G1 X112.234 Y106.141 E.80885
G1 X111.839 Y105.972 E.01906
G1 X111.839 Y124.164 E.8069
G1 X111.444 Y123.951 E.01991
G1 X111.444 Y105.803 E.80495
G1 X111.049 Y105.71 E.018
G1 X111.049 Y123.681 E.7971
G1 X110.654 Y123.366 E.02241
G1 X110.654 Y105.62 E.78712
G1 X110.258 Y105.549 E.01784
G1 X110.258 Y122.996 E.77386
G1 X109.863 Y122.543 E.02666
G1 X109.863 Y105.531 E.75456
G1 X109.468 Y105.513 E.01754
G1 X109.468 Y121.971 E.72999
G1 X109.073 Y121.248 E.03654
G1 X109.073 Y105.531 E.69712
G1 X108.678 Y105.584 E.01768
G1 X108.678 Y120.904 E.67952
G1 X108.283 Y120.691 E.01991
G1 X108.283 Y105.638 E.66767
G1 X108.138 Y105.657 E.00649
G1 X107.888 Y105.492 E.01329
G1 X107.888 Y120.406 E.66151
G1 X107.492 Y120.091 E.02244
G1 X107.492 Y105.231 E.65911
G1 X107.097 Y105.012 E.02003
G1 X107.097 Y115.583 E.46887
G1 X106.881 Y115.367 E.01355
G1 X106.702 Y115.367 E.00794
G1 X106.702 Y104.843 E.46679
G1 X106.307 Y104.674 E.01906
G1 X106.307 Y115.367 E.47429
G1 X105.912 Y114.974 E.02471
M73 P2 R44
G1 X105.912 Y104.577 E.46116
G1 X105.517 Y104.486 E.01798
G1 X105.517 Y114.693 E.45273
G1 X105.122 Y114.427 E.02112
G1 X105.122 Y104.411 E.44426
G1 X104.727 Y104.393 E.01754
G1 X104.727 Y114.242 E.43685
G1 X104.331 Y114.1 E.01866
G1 X104.331 Y104.376 E.43131
G1 X103.936 Y104.389 E.01753
G1 X103.936 Y113.968 E.42487
G1 X103.541 Y113.926 E.01762
G1 X103.541 Y104.443 E.42062
G1 X103.146 Y104.496 E.01768
G1 X103.146 Y113.887 E.41654
G1 X102.751 Y113.882 E.01752
G1 X102.751 Y104.601 E.41166
G1 X102.356 Y104.73 E.01843
M73 P2 R43
G1 X102.356 Y113.94 E.40851
G1 X101.961 Y113.999 E.01771
G1 X101.961 Y104.863 E.40523
G1 X101.566 Y105.076 E.01991
G1 X101.566 Y114.126 E.40141
G1 X101.17 Y114.29 E.01901
G1 X101.17 Y105.288 E.39928
G1 X100.775 Y105.564 E.02137
G1 X100.775 Y114.469 E.39498
G1 X100.38 Y114.764 E.02187
G1 X100.38 Y105.879 E.39409
G1 X99.985 Y106.256 E.02422
G1 X99.985 Y114.674 E.37338
G1 X99.59 Y114.222 E.02663
G1 X99.59 Y106.709 E.33324
G1 X99.195 Y107.292 E.03124
G1 X99.195 Y113.638 E.28148
G1 X98.8 Y112.895 E.03732
G1 X98.8 Y108.035 E.21556
G1 X98.497 Y108.843 E.03828
G1 X98.404 Y109.352 E.02295
G1 X98.404 Y112.298 E.13067
G10 ; retract
G1 X98.404 Y112.298 F7800
G1 X106.103 Y116.667
G11 ; unretract
;TYPE:External perimeter
;WIDTH:0.42
G1 F1800
G1 X106.103 Y117.004 E.01495
G1 X106.103 Y118.098 E.04852
G1 X105.99 Y119.011 E.0408
G1 X105.715 Y119.719 E.03369
G1 X105.275 Y120.339 E.03372
G1 X104.698 Y120.832 E.03366
G1 X104.017 Y121.17 E.03372
G1 X103.275 Y121.331 E.03368
G1 X102.516 Y121.306 E.03368
G1 X101.785 Y121.096 E.03373
G1 X101.128 Y120.714 E.03371
G1 X100.585 Y120.184 E.03366
G1 X100.187 Y119.536 E.03373
G1 X99.96 Y118.812 E.03365
G1 X99.916 Y118.053 E.03372
G1 X100.059 Y117.307 E.03369
G1 X100.38 Y116.618 E.03371
G1 X100.859 Y116.029 E.03367
G1 X101.468 Y115.575 E.03369
G1 X102.169 Y115.283 E.03368
G1 X102.922 Y115.171 E.03377
G1 X103.677 Y115.246 E.03365
G1 X104.392 Y115.503 E.0337
G1 X104.986 Y115.904 E.03179
G1 X105.689 Y116.649 E.04543
G1 X106.031 Y116.664 E.01518
G1 X106.102 Y117.138 F7800
G1 X105.386 Y118.423
G1 F1800
G1 X105.342 Y118.813 E.01741
G1 X105.14 Y119.358 E.02578
G1 X104.815 Y119.839 E.02575
G1 X104.383 Y120.228 E.02578
G1 X103.871 Y120.503 E.02578
G1 X103.308 Y120.647 E.02578
G1 X102.686 Y120.643 E.02759
G1 X102.161 Y120.518 E.02394
G1 X101.645 Y120.253 E.02573
G1 X101.206 Y119.871 E.02581
G1 X100.872 Y119.396 E.02576
G1 X100.661 Y118.854 E.0258
G1 X100.586 Y118.278 E.02576
G1 X100.651 Y117.701 E.02575
G1 X100.852 Y117.155 E.02581
G1 X101.178 Y116.674 E.02577
G1 X101.609 Y116.285 E.02575
G1 X102.121 Y116.01 E.02578
G1 X102.684 Y115.866 E.02578
G1 X103.265 Y115.861 E.02577
G1 X103.831 Y115.995 E.0258
G1 X104.348 Y116.261 E.02579
G1 X104.786 Y116.642 E.02575
G1 X105.087 Y117.069 E.02317
G1 X105.331 Y117.659 E.02832
G1 X105.407 Y118.235 E.02577
G1 X105.394 Y118.351 E.00518
G1 X105.322 Y118.826 F7800
