;FLAVOR:Marlin
;TIME:5881
;Filament used: 1.01338m
;Layer height: 0.1
;MINX:95.011
;MINY:75.01
;MINZ:0.3
;MAXX:154.985
;MAXY:134.99
;MAXZ:5
;TARGET_MACHINE.NAME:Creality Ender-3 Pro
;Generated with Cura_SteamEngine 5.5.0
M82 ;absolute extrusion mode
START_PRINT BED_TEMP=40.0 EXTRUDER_TEMP=230
G92 E0
G92 E0
G1 F1500 E-6.5
;LAYER_COUNT:48
;LAYER:0
M107
G0 F6000 X98.371 Y84.316 Z0.3
;TYPE:SKIRT
G1 F1500 E0
G1 F1200 X99.099 Y83.543 E0.05298
G1 X100.103 Y82.579 E0.12242
G1 X101.957 Y80.739 E0.25273
G1 X102.944 Y79.704 E0.32408
G1 X103.597 Y79.034 E0.37076
G1 X104.256 Y78.416 E0.41583
G1 X105.079 Y77.772 E0.46797
G1 X105.837 Y77.28 E0.51305
G1 X106.749 Y76.797 E0.56454
G1 X107.282 Y76.563 E0.59358
G1 X107.751 Y76.372 E0.61885
G1 X108.473 Y76.107 E0.65722
G1 X109.113 Y75.898 E0.69081
G1 X109.766 Y75.709 E0.72472
G1 X110.308 Y75.57 E0.75264
G1 X111.11 Y75.392 E0.79362
G1 X111.657 Y75.291 E0.82137
G1 X112.473 Y75.171 E0.86252
G1 X113.351 Y75.081 E0.90656
G1 X113.904 Y75.043 E0.93421
G1 X114.436 Y75.021 E0.96077
G1 X115.111 Y75.01 E0.99445
G1 X115.959 Y75.031 E1.03677
G1 X116.762 Y75.082 E1.07692
G1 X119.347 Y75.284 E1.20628
G1 X121.829 Y75.407 E1.33026
G1 X124.377 Y75.463 E1.45741
G1 X126.872 Y75.446 E1.58189
G1 X129.41 Y75.357 E1.70859
G1 X132.544 Y75.147 E1.86529
G1 X133.476 Y75.07 E1.91195
G1 X134.017 Y75.038 E1.93899
G1 X134.76 Y75.014 E1.97607
G1 X135.357 Y75.01 E2.00586
G1 X136.139 Y75.04 E2.0449
G1 X136.703 Y75.079 E2.07311
G1 X137.495 Y75.165 E2.11285
G1 X138.168 Y75.263 E2.14678
G1 X138.849 Y75.387 E2.18132
G1 X139.528 Y75.532 E2.21596
G1 X140.209 Y75.7 E2.25095
G1 X140.804 Y75.87 E2.28182
G1 X141.581 Y76.124 E2.3226
G1 X142.361 Y76.411 E2.36407
G1 X143.259 Y76.791 E2.41272
G1 X144.117 Y77.249 E2.46124
G1 X144.933 Y77.781 E2.50984
G1 X145.701 Y78.385 E2.55858
G1 X146.438 Y79.081 E2.60916
G1 X147.407 Y80.087 E2.67884
G1 X149.245 Y81.941 E2.80909
G1 X150.288 Y82.935 E2.88097
G1 X150.961 Y83.592 E2.92789
G1 X151.625 Y84.303 E2.97643
G1 X152.182 Y85.014 E3.02149
G1 X152.75 Y85.89 E3.07358
G1 X153.202 Y86.743 E3.12174
G1 X153.475 Y87.371 E3.1559
G1 X153.72 Y87.989 E3.18907
G1 X153.985 Y88.734 E3.22852
G1 X154.135 Y89.214 E3.25361
G1 X154.347 Y89.99 E3.29374
G1 X154.548 Y90.858 E3.33819
G1 X154.697 Y91.637 E3.37776
G1 X154.796 Y92.276 E3.41002
G1 X154.882 Y92.988 E3.4458
G1 X154.934 Y93.59 E3.47595
G1 X154.972 Y94.316 E3.51222
G1 X154.985 Y94.996 E3.54615
G1 X154.968 Y95.833 E3.58791
G1 X154.91 Y96.71 E3.63176
G1 X154.851 Y97.362 E3.66443
G1 X154.673 Y99.876 E3.79016
G1 X154.562 Y102.453 E3.91885
G1 X154.524 Y104.95 E4.04344
G1 X154.558 Y107.451 E4.16823
G1 X154.664 Y109.986 E4.29481
G1 X154.86 Y112.728 E4.43196
G1 X154.934 Y113.589 E4.47507
G1 X154.972 Y114.314 E4.51129
G1 X154.985 Y114.997 E4.54537
G1 X154.968 Y115.823 E4.58659
G1 X154.935 Y116.38 E4.61443
G1 X154.858 Y117.269 E4.65895
G1 X154.766 Y117.977 E4.69457
G1 X154.676 Y118.521 E4.72207
G1 X154.513 Y119.324 E4.76295
G1 X154.304 Y120.18 E4.80691
G1 X154.137 Y120.784 E4.83818
G1 X153.848 Y121.669 E4.88463
G1 X153.684 Y122.116 E4.90838
G1 X153.361 Y122.903 E4.95082
G1 X152.936 Y123.778 E4.99935
G1 X152.434 Y124.614 E5.048
G1 X151.861 Y125.4 E5.09653
G1 X151.251 Y126.102 E5.14293
G1 X150.892 Y126.463 E5.16833
G1 X149.916 Y127.403 E5.23593
G1 X148.061 Y129.243 E5.36628
G1 X147.178 Y130.17 E5.43016
G1 X146.404 Y130.964 E5.48548
G1 X145.692 Y131.628 E5.53405
G1 X144.952 Y132.206 E5.58089
G1 X144.104 Y132.754 E5.63127
G1 X143.28 Y133.19 E5.67778
G1 X142.71 Y133.441 E5.70885
G1 X142.233 Y133.636 E5.73456
G1 X141.52 Y133.895 E5.7724
G1 X140.886 Y134.102 E5.80568
G1 X140.236 Y134.29 E5.83943
G1 X139.701 Y134.427 E5.86699
G1 X138.9 Y134.606 E5.90793
G1 X138.343 Y134.709 E5.93619
G1 X137.527 Y134.829 E5.97734
G1 X136.649 Y134.919 E6.02138
G1 X136.096 Y134.957 E6.04903
G1 X135.564 Y134.979 E6.07559
G1 X134.889 Y134.99 E6.10928
G1 X134.041 Y134.969 E6.15159
G1 X133.238 Y134.918 E6.19174
G1 X130.653 Y134.716 E6.3211
G1 X128.171 Y134.593 E6.44508
G1 X125.623 Y134.537 E6.57223
G1 X123.128 Y134.554 E6.69671
G1 X120.59 Y134.643 E6.82341
G1 X117.456 Y134.853 E6.98011
G1 X116.524 Y134.93 E7.02677
G1 X115.983 Y134.962 E7.05381
G1 X115.24 Y134.986 E7.09089
G1 X114.643 Y134.99 E7.12068
G1 X113.861 Y134.96 E7.15972
G1 X113.297 Y134.921 E7.18793
G1 X112.505 Y134.835 E7.22767
G1 X111.832 Y134.737 E7.2616
G1 X111.151 Y134.613 E7.29614
G1 X110.476 Y134.47 E7.33056
G1 X109.903 Y134.331 E7.35998
G1 X109.47 Y134.213 E7.38237
G1 X108.573 Y133.93 E7.42929
G1 X108.001 Y133.723 E7.45964
G1 X107.385 Y133.479 E7.4927
G1 X106.497 Y133.079 E7.54129
G1 X105.647 Y132.602 E7.58991
G1 X104.873 Y132.073 E7.63669
G1 X104.097 Y131.437 E7.68674
G1 X103.522 Y130.88 E7.72668
G1 X102.405 Y129.717 E7.80713
G1 X100.586 Y127.89 E7.93575
G1 X99.668 Y127.022 E7.99878
G1 X99.032 Y126.399 E8.0432
G1 X98.392 Y125.712 E8.09004
G1 X97.773 Y124.915 E8.14039
G1 X97.238 Y124.081 E8.18982
G1 X96.618 Y122.839 E8.25908
G1 X96.41 Y122.342 E8.28596
G1 X96.094 Y121.492 E8.3312
G1 X95.891 Y120.863 E8.36418
G1 X95.721 Y120.28 E8.39447
G1 X95.487 Y119.336 E8.44299
G1 X95.39 Y118.876 E8.46645
G1 X95.228 Y117.935 E8.51409
G1 X95.156 Y117.374 E8.5423
G1 X95.085 Y116.672 E8.57751
G1 X95.036 Y115.948 E8.61371
G1 X95.016 Y115.35 E8.64356
G1 X95.016 Y114.428 E8.68956
G1 X95.047 Y113.756 E8.72312
G1 X95.287 Y110.622 E8.87993
G1 X95.411 Y108.077 E9.00706
G1 X95.465 Y105.561 E9.13261
G1 X95.446 Y103.019 E9.25943
G1 X95.357 Y100.558 E9.38229
G1 X95.124 Y97.133 E9.55356
G1 X95.07 Y96.509 E9.58481
G1 X95.036 Y95.937 E9.6134
G1 X95.011 Y94.835 E9.66839
G1 X95.016 Y94.429 E9.68865
G1 X95.041 Y93.834 E9.71836
G1 X95.115 Y92.938 E9.76321
G1 X95.228 Y92.056 E9.80757
G1 X95.392 Y91.123 E9.85484
G1 X95.535 Y90.454 E9.88897
G1 X95.7 Y89.786 E9.92329
G1 X95.847 Y89.265 E9.9503
G1 X96.096 Y88.496 E9.99063
G1 X96.397 Y87.676 E10.03421
G1 X96.782 Y86.763 E10.08364
G1 X97.238 Y85.902 E10.13225
G1 X97.768 Y85.086 E10.18079
G1 X98.371 Y84.316 E10.22959
G0 F6000 X98.662 Y84.59
G1 F1200 X99.376 Y83.832 E10.28154
G1 X100.38 Y82.868 E10.35098
G1 X102.239 Y81.023 E10.48165
G1 X103.23 Y79.983 E10.55332
G1 X103.871 Y79.326 E10.59911
G1 X104.53 Y78.708 E10.64419
G1 X105.297 Y78.108 E10.69277
G1 X106.055 Y77.616 E10.73785
G1 X106.91 Y77.163 E10.78613
G1 X107.433 Y76.933 E10.81463
G1 X107.889 Y76.747 E10.8392
G1 X108.597 Y76.487 E10.87683
G1 X109.225 Y76.282 E10.90979
G1 X109.865 Y76.096 E10.94304
G1 X110.395 Y75.96 E10.97034
G1 X111.182 Y75.785 E11.01056
G1 X111.715 Y75.687 E11.0376
G1 X112.514 Y75.569 E11.07789
G1 X113.378 Y75.48 E11.12122
G1 X113.921 Y75.443 E11.14838
G1 X114.443 Y75.421 E11.17444
G1 X115.101 Y75.41 E11.20728
G1 X115.933 Y75.43 E11.2488
G1 X116.731 Y75.481 E11.28869
G1 X119.327 Y75.684 E11.4186
G1 X121.809 Y75.807 E11.54258
G1 X124.371 Y75.863 E11.67043
G1 X126.886 Y75.846 E11.79591
G1 X129.424 Y75.757 E11.9226
G1 X132.577 Y75.546 E12.08026
G1 X133.499 Y75.469 E12.12642
G1 X134.03 Y75.438 E12.15296
G1 X134.763 Y75.414 E12.18955
G1 X135.342 Y75.41 E12.21843
G1 X136.111 Y75.439 E12.25683
G1 X136.66 Y75.477 E12.28428
G1 X137.437 Y75.561 E12.32327
G1 X138.097 Y75.657 E12.35655
G1 X138.766 Y75.778 E12.39046
G1 X139.432 Y75.92 E12.42444
G1 X140.1 Y76.085 E12.45877
G1 X140.68 Y76.25 E12.48885
G1 X141.443 Y76.499 E12.52889
G1 X142.206 Y76.78 E12.56946
G1 X143.071 Y77.144 E12.61628
G1 X143.899 Y77.584 E12.66306
G1 X144.686 Y78.096 E12.7099
G1 X145.426 Y78.676 E12.75681
G1 X146.163 Y79.372 E12.80738
G1 X147.123 Y80.369 E12.87643
G1 X148.969 Y82.231 E13.00724
G1 X150.009 Y83.222 E13.07891
G1 X150.669 Y83.865 E13.12488
G1 X151.31 Y84.55 E13.17169
G1 X151.867 Y85.261 E13.21675
G1 X152.397 Y86.077 E13.26529
G1 X152.835 Y86.903 E13.31193
G1 X153.103 Y87.519 E13.34545
G1 X153.343 Y88.123 E13.37788
G1 X153.603 Y88.854 E13.41658
G1 X153.749 Y89.32 E13.44095
G1 X153.957 Y90.08 E13.48026
G1 X154.155 Y90.933 E13.52395
G1 X154.302 Y91.698 E13.56281
G1 X154.399 Y92.324 E13.59441
G1 X154.483 Y93.022 E13.62949
G1 X154.535 Y93.624 E13.65963
G1 X154.572 Y94.324 E13.69461
G1 X154.585 Y94.988 E13.72774
G1 X154.569 Y95.807 E13.76861
G1 X154.512 Y96.674 E13.81196
G1 X154.453 Y97.326 E13.84462
G1 X154.273 Y99.859 E13.97131
G1 X154.162 Y102.436 E14.09999
G1 X154.124 Y104.944 E14.22513
G1 X154.158 Y107.468 E14.35107
G1 X154.264 Y110.003 E14.47765
G1 X154.461 Y112.762 E14.61565
G1 X154.535 Y113.623 E14.65876
G1 X154.572 Y114.322 E14.69368
G1 X154.585 Y114.989 E14.72697
G1 X154.569 Y115.8 E14.76743
G1 X154.537 Y116.345 E14.79467
G1 X154.461 Y117.218 E14.83839
G1 X154.371 Y117.912 E14.8733
G1 X154.284 Y118.441 E14.90005
G1 X154.124 Y119.229 E14.94017
G1 X153.918 Y120.073 E14.98351
G1 X153.751 Y120.677 E15.01477
G1 X153.472 Y121.531 E15.0596
G1 X153.308 Y121.978 E15.08335
G1 X153.001 Y122.729 E15.12383
G1 X152.593 Y123.573 E15.1706
G1 X152.111 Y124.379 E15.21745
G1 X151.559 Y125.138 E15.26427
G1 X150.949 Y125.84 E15.31067
G1 X150.615 Y126.175 E15.33427
G1 X149.634 Y127.119 E15.40219
G1 X147.779 Y128.959 E15.53255
G1 X146.892 Y129.891 E15.59673
G1 X146.131 Y130.672 E15.65114
G1 X145.445 Y131.313 E15.69798
G1 X144.734 Y131.87 E15.74304
G1 X143.917 Y132.4 E15.79162
G1 X143.093 Y132.836 E15.83813
G1 X142.559 Y133.071 E15.86724
G1 X142.096 Y133.26 E15.89219
G1 X141.396 Y133.515 E15.92936
G1 X140.774 Y133.718 E15.962
G1 X140.137 Y133.903 E15.99509
G1 X139.614 Y134.037 E16.02203
G1 X138.827 Y134.213 E16.06226
G1 X138.285 Y134.313 E16.08976
G1 X137.486 Y134.431 E16.13006
G1 X136.622 Y134.52 E16.17339
G1 X136.079 Y134.557 E16.20054
G1 X135.557 Y134.579 E16.22661
G1 X134.899 Y134.59 E16.25944
G1 X134.067 Y134.57 E16.30096
G1 X133.269 Y134.519 E16.34085
G1 X130.673 Y134.316 E16.47076
G1 X128.191 Y134.193 E16.59474
G1 X125.629 Y134.137 E16.72259
G1 X123.114 Y134.154 E16.84807
G1 X120.576 Y134.243 E16.97477
G1 X117.423 Y134.454 E17.13242
G1 X116.501 Y134.531 E17.17858
G1 X115.97 Y134.562 E17.20512
G1 X115.237 Y134.586 E17.24171
G1 X114.658 Y134.59 E17.2706
G1 X113.889 Y134.561 E17.30899
G1 X113.34 Y134.523 E17.33644
G1 X112.563 Y134.439 E17.37544
G1 X111.903 Y134.343 E17.40871
G1 X111.234 Y134.222 E17.44263
G1 X110.57 Y134.081 E17.47649
G1 X109.997 Y133.942 E17.50591
G1 X109.59 Y133.831 E17.52696
G1 X108.709 Y133.554 E17.57303
G1 X108.148 Y133.351 E17.6028
G1 X107.549 Y133.114 E17.63493
G1 X106.692 Y132.73 E17.68179
G1 X105.873 Y132.272 E17.7286
G1 X105.099 Y131.743 E17.77537
G1 X104.375 Y131.15 E17.82206
G1 X103.81 Y130.603 E17.8613
G1 X102.693 Y129.44 E17.94175
G1 X100.869 Y127.608 E18.07072
G1 X99.948 Y126.736 E18.134
G1 X99.325 Y126.126 E18.1775
G1 X98.685 Y125.439 E18.22434
G1 X98.109 Y124.698 E18.27116
G1 X97.596 Y123.902 E18.31841
G1 X96.987 Y122.684 E18.38635
G1 X96.785 Y122.203 E18.41238
G1 X96.475 Y121.369 E18.45677
G1 X96.275 Y120.751 E18.48917
G1 X96.109 Y120.183 E18.5187
G1 X95.878 Y119.254 E18.56646
G1 X95.784 Y118.808 E18.5892
G1 X95.625 Y117.884 E18.63597
G1 X95.554 Y117.334 E18.66364
G1 X95.484 Y116.645 E18.69819
G1 X95.436 Y115.935 E18.73369
G1 X95.416 Y115.337 E18.76354
G1 X95.416 Y114.446 E18.808
G1 X95.446 Y113.787 E18.84091
G1 X95.686 Y110.653 E18.99772
G1 X95.811 Y108.097 E19.12539
G1 X95.865 Y105.57 E19.25149
G1 X95.846 Y103.016 E19.37892
G1 X95.757 Y100.544 E19.50233
G1 X95.523 Y97.106 E19.67425
G1 X95.469 Y96.485 E19.70534
G1 X95.436 Y95.928 E19.73318
G1 X95.411 Y94.84 E19.78748
G1 X95.416 Y94.446 E19.80713
G1 X95.44 Y93.867 E19.83605
G1 X95.512 Y92.989 E19.88
G1 X95.622 Y92.125 E19.92345
G1 X95.783 Y91.206 E19.97
G1 X95.923 Y90.55 E20.00346
G1 X96.085 Y89.895 E20.03712
G1 X96.228 Y89.388 E20.06341
G1 X96.472 Y88.634 E20.10294
G1 X96.766 Y87.831 E20.14561
G1 X97.136 Y86.95 E20.19328
G1 X97.574 Y86.119 E20.24014
G1 X98.083 Y85.332 E20.2869
G1 X98.662 Y84.59 E20.33386
G0 F6000 X98.953 Y84.864
G1 F1200 X99.653 Y84.121 E20.38479
G1 X100.657 Y83.157 E20.45423
G1 X102.521 Y81.307 E20.58525
G1 X103.516 Y80.262 E20.65724
G1 X104.145 Y79.618 E20.70215
G1 X104.804 Y79 E20.74722
G1 X105.515 Y78.444 E20.79225
G1 X106.273 Y77.952 E20.83734
G1 X107.071 Y77.529 E20.8824
G1 X107.584 Y77.303 E20.91036
G1 X108.027 Y77.122 E20.93424
G1 X108.721 Y76.867 E20.97113
G1 X109.337 Y76.666 E21.00345
G1 X109.964 Y76.483 E21.03604
G1 X110.482 Y76.35 E21.06272
G1 X111.254 Y76.178 E21.10218
G1 X111.774 Y76.083 E21.12855
G1 X112.555 Y75.967 E21.16794
G1 X113.405 Y75.879 E21.21058
G1 X113.938 Y75.843 E21.23723
G1 X114.45 Y75.821 E21.2628
G1 X115.092 Y75.81 E21.29483
G1 X115.907 Y75.829 E21.3355
G1 X116.7 Y75.88 E21.37515
G1 X119.307 Y76.084 E21.50561
G1 X121.789 Y76.207 E21.62959
G1 X124.365 Y76.263 E21.75814
G1 X126.9 Y76.246 E21.88461
G1 X129.438 Y76.157 E22.01131
G1 X132.611 Y75.945 E22.16996
G1 X133.522 Y75.868 E22.21558
G1 X134.043 Y75.838 E22.24161
G1 X134.766 Y75.814 E22.2777
G1 X135.327 Y75.81 E22.30569
G1 X136.083 Y75.838 E22.34343
G1 X136.617 Y75.875 E22.37014
G1 X137.379 Y75.957 E22.40838
G1 X138.026 Y76.051 E22.44099
G1 X138.683 Y76.169 E22.4743
G1 X139.336 Y76.308 E22.5076
G1 X139.991 Y76.47 E22.54127
G1 X140.556 Y76.63 E22.57056
G1 X141.305 Y76.874 E22.60986
G1 X142.051 Y77.149 E22.64953
G1 X142.884 Y77.498 E22.69459
G1 X143.682 Y77.92 E22.73963
G1 X144.44 Y78.411 E22.78468
G1 X145.152 Y78.967 E22.82975
G1 X145.875 Y79.649 E22.87934
G1 X146.839 Y80.651 E22.94871
G1 X148.693 Y82.521 E23.08008
G1 X149.73 Y83.508 E23.15151
G1 X150.377 Y84.139 E23.1966
G1 X150.995 Y84.797 E23.24163
G1 X151.552 Y85.508 E23.28669
G1 X152.044 Y86.265 E23.33174
G1 X152.468 Y87.063 E23.37682
G1 X152.731 Y87.667 E23.40968
G1 X152.966 Y88.257 E23.44137
G1 X153.221 Y88.974 E23.47934
G1 X153.363 Y89.426 E23.50297
G1 X153.567 Y90.171 E23.54151
G1 X153.762 Y91.009 E23.58443
G1 X153.907 Y91.759 E23.62254
G1 X154.002 Y92.372 E23.65349
G1 X154.084 Y93.056 E23.68786
G1 X154.136 Y93.658 E23.71801
G1 X154.172 Y94.332 E23.75168
G1 X154.185 Y94.981 E23.78407
G1 X154.17 Y95.781 E23.82399
G1 X154.114 Y96.638 E23.86683
G1 X154.055 Y97.29 E23.89949
G1 X153.873 Y99.842 E24.02714
G1 X153.762 Y102.419 E24.15582
G1 X153.724 Y104.938 E24.28151
G1 X153.758 Y107.485 E24.40859
G1 X153.864 Y110.02 E24.53517
G1 X154.062 Y112.796 E24.67402
G1 X154.136 Y113.657 E24.71714
G1 X154.172 Y114.33 E24.75076
G1 X154.185 Y114.981 E24.78324
G1 X154.17 Y115.777 E24.82296
G1 X154.139 Y116.31 E24.8496
G1 X154.064 Y117.167 E24.89252
G1 X153.976 Y117.847 E24.92673
G1 X153.892 Y118.361 E24.95271
G1 X153.735 Y119.134 E24.99206
G1 X153.532 Y119.966 E25.03479
G1 X153.365 Y120.57 E25.06606
G1 X153.096 Y121.393 E25.10925
G1 X152.932 Y121.84 E25.13301
G1 X152.641 Y122.555 E25.17152
G1 X152.249 Y123.368 E25.21655
G1 X151.787 Y124.144 E25.26161
G1 X151.257 Y124.876 E25.30669
G1 X150.665 Y125.558 E25.35175
G1 X150.338 Y125.887 E25.37489
G1 X149.352 Y126.835 E25.44313
G1 X147.497 Y128.675 E25.57348
G1 X146.606 Y129.612 E25.63799
G1 X145.857 Y130.38 E25.69151
G1 X145.198 Y130.998 E25.73658
G1 X144.487 Y131.555 E25.78165
G1 X143.73 Y132.047 E25.82669
G1 X142.932 Y132.47 E25.87175
G1 X142.408 Y132.701 E25.90032
G1 X141.959 Y132.884 E25.92451
G1 X141.272 Y133.135 E25.961
G1 X140.662 Y133.334 E25.99301
G1 X140.037 Y133.516 E26.02549
G1 X139.527 Y133.647 E26.05176
G1 X138.755 Y133.82 E26.09123
G1 X138.226 Y133.917 E26.11806
G1 X137.445 Y134.033 E26.15745
G1 X136.595 Y134.121 E26.20008
G1 X136.062 Y134.157 E26.22674
G1 X135.55 Y134.179 E26.2523
G1 X134.908 Y134.19 E26.28434
G1 X134.093 Y134.171 E26.32501
G1 X133.3 Y134.12 E26.36465
G1 X130.693 Y133.916 E26.49511
G1 X128.211 Y133.793 E26.61909
G1 X125.635 Y133.737 E26.74764
G1 X123.1 Y133.754 E26.87412
G1 X120.562 Y133.843 E27.00082
G1 X117.389 Y134.055 E27.15947
G1 X116.478 Y134.132 E27.20508
G1 X115.957 Y134.162 E27.23112
G1 X115.234 Y134.186 E27.26721
G1 X114.673 Y134.19 E27.2952
G1 X113.917 Y134.162 E27.33294
G1 X113.383 Y134.125 E27.35965
G1 X112.621 Y134.043 E27.39788
G1 X111.974 Y133.949 E27.4305
G1 X111.317 Y133.831 E27.4638
G1 X110.664 Y133.692 E27.49711
G1 X110.102 Y133.556 E27.52596
G1 X109.71 Y133.449 E27.54623
G1 X108.845 Y133.178 E27.59145
G1 X108.295 Y132.979 E27.62063
G1 X107.712 Y132.749 E27.6519
G1 X106.887 Y132.381 E27.69697
G1 X106.098 Y131.941 E27.74204
G1 X105.352 Y131.433 E27.78707
