; generated by PrusaSlicer 2.7.1+win64 on 2024-02-26 at 00:21:42 UTC

; 

; external perimeters extrusion width = 0.45mm
; perimeters extrusion width = 0.45mm
; infill extrusion width = 0.45mm
; solid infill extrusion width = 0.45mm
; top infill extrusion width = 0.40mm
; first layer extrusion width = 0.42mm

M73 P0 R12
M190 S50 ; set bed temperature and wait for it to be reached
M104 S230 ; set temperature
;TYPE:Custom
START_PRINT EXTRUDER_TEMP=230 BED_TEMP=50 Z_OFFSET=0.1
M109 S230 ; set temperature and wait for it to be reached
G21 ; set units to millimeters
G90 ; use absolute coordinates
M83 ; use relative distances for extrusion
; Filament gcode
M107
;LAYER_CHANGE
;Z:0.3
;HEIGHT:0.3
;BEFORE_LAYER_CHANGE
G92 E0
;0.3


G10 ; retract
G1 Z.3 F7800
;AFTER_LAYER_CHANGE
;0.3
G1 X79.554 Y90.041
G11 ; unretract
;TYPE:Skirt/Brim
;WIDTH:0.42
G1 F1800
G1 X80.89 Y89.191 E.07023
G1 X82.711 Y88.504 E.08633
G1 X84.38 Y88.241 E.07494
G1 X86.292 Y88.328 E.08489
G1 X87.472 Y88.595 E.05366
G1 X147.166 Y106.087 E2.75905
G1 X148.148 Y106.437 E.04624
G1 X149.179 Y106.936 E.0508
G1 X150.029 Y107.488 E.04495
G1 X150.746 Y108.06 E.04068
G1 X151.45 Y108.756 E.04391
G1 X151.917 Y109.305 E.03197
G1 X152.63 Y110.368 E.05677
G1 X153.272 Y111.731 E.06683
G1 X153.744 Y113.482 E.08044
G1 X153.856 Y115.495 E.08942
G1 X153.642 Y117.032 E.06883
G1 X153.016 Y118.866 E.08595
G1 X152.507 Y119.841 E.04878
G1 X151.917 Y120.689 E.04582
G1 X150.739 Y121.942 E.07628
G1 X150.02 Y122.513 E.04072
G1 X149.105 Y123.097 E.04815
G1 X148.11 Y123.573 E.04892
G1 X147.271 Y123.871 E.03949
G1 X87.429 Y141.412 E2.76596
G1 X85.74 Y141.706 E.07604
G1 X83.677 Y141.686 E.09151
G1 X82.016 Y141.283 E.07581
G1 X80.563 Y140.618 E.07088
G1 X78.939 Y139.435 E.08912
G1 X78.066 Y138.501 E.05671
G1 X77.649 Y137.924 E.03158
G1 X77.171 Y137.134 E.04096
G1 X76.695 Y136.075 E.0515
G1 X76.476 Y135.406 E.03122
G1 X76.187 Y133.956 E.06558
G1 X76.129 Y132.941 E.04509
G1 X76.176 Y96.111 E1.63359
G1 X76.536 Y94.37 E.07886
M73 P1 R12
G1 X77.3 Y92.621 E.08465
G1 X78.315 Y91.2 E.07746
G1 X79.502 Y90.09 E.07208
G1 X79.747 Y90.347 F7800
G1 F1800
G1 X79.777 Y90.318 E.00185
G1 X81.057 Y89.505 E.06726
G1 X82.808 Y88.847 E.08297
G1 X84.405 Y88.596 E.0717
G1 X86.231 Y88.679 E.08108
G1 X87.372 Y88.936 E.05188
G1 X147.066 Y106.429 E2.75906
G1 X148.02 Y106.769 E.04492
G1 X148.999 Y107.242 E.04823
G1 X149.825 Y107.779 E.0437
G1 X151.182 Y108.99 E.08067
G1 X151.64 Y109.529 E.03137
G1 X152.318 Y110.539 E.05396
G1 X152.936 Y111.85 E.06429
G1 X153.392 Y113.533 E.07734
G1 X153.501 Y115.482 E.08658
G1 X153.294 Y116.96 E.0662
G1 X152.695 Y118.712 E.08213
G1 X152.202 Y119.66 E.04739
G1 X151.64 Y120.465 E.04355
G1 X150.507 Y121.672 E.07343
G1 X148.936 Y122.784 E.08537
G1 X147.171 Y123.53 E.08499
G1 X87.329 Y141.071 E2.76596
G1 X86.458 Y141.265 E.03958
G1 X85.071 Y141.389 E.06177
G1 X83.579 Y141.313 E.06626
G1 X82.127 Y140.945 E.06644
G1 X80.747 Y140.314 E.0673
G1 X80.169 Y139.944 E.03044
G1 X79.181 Y139.174 E.05556
G1 X78.346 Y138.282 E.05419
G1 X77.554 Y137.092 E.0634
G1 X77.03 Y135.957 E.05545
G1 X76.563 Y134.112 E.08442
G1 X76.485 Y132.941 E.05205
G1 X76.517 Y96.27 E1.62654
G1 X76.877 Y94.47 E.08142
M73 P2 R12
G1 X77.518 Y92.963 E.07264
G1 X78.465 Y91.572 E.07464
G1 X79.695 Y90.396 E.07548
G1 X79.94 Y90.653 F7800
G1 F1800
G1 X79.999 Y90.596 E.00364
G1 X81.224 Y89.819 E.06434
G1 X82.904 Y89.189 E.07958
G1 X84.43 Y88.95 E.06851
G1 X86.17 Y89.029 E.07726
G1 X87.272 Y89.277 E.0501
G1 X146.966 Y106.77 E2.75906
G1 X147.892 Y107.101 E.04362
G1 X148.818 Y107.549 E.04563
G1 X149.621 Y108.07 E.04246
G1 X150.915 Y109.225 E.07693
G1 X152.006 Y110.709 E.0817
G1 X152.601 Y111.969 E.0618
G1 X153.04 Y113.584 E.07423
G1 X153.151 Y115.304 E.07645
G1 X152.945 Y116.889 E.07089
G1 X152.374 Y118.559 E.07828
G1 X151.896 Y119.478 E.04595
G1 X151.364 Y120.241 E.04126
G1 X150.276 Y121.402 E.07057
G1 X148.766 Y122.471 E.08206
G1 X147.071 Y123.189 E.08165
G1 X87.229 Y140.73 E2.76596
G1 X86.397 Y140.915 E.0378
G1 X85.05 Y141.034 E.05998
G1 X83.629 Y140.961 E.06311
G1 X82.237 Y140.607 E.06371
G1 X80.93 Y140.009 E.06375
G1 X80.374 Y139.654 E.02926
G1 X79.423 Y138.913 E.05347
G1 X78.627 Y138.063 E.05165
G1 X77.865 Y136.921 E.06089
G1 X77.366 Y135.838 E.05289
G1 X76.916 Y134.07 E.08092
G1 X76.841 Y132.941 E.05019
G1 X76.871 Y96.305 E1.62498
G1 X77.218 Y94.57 E.07848
M73 P3 R12
G1 X77.83 Y93.134 E.06924
G1 X78.734 Y91.803 E.07137
G1 X79.888 Y90.702 E.07074
G10 ; retract
G1 X79.888 Y90.702 F7800
G1 X102.568 Y110.859
G11 ; unretract
;TYPE:Perimeter
;WIDTH:0.42
G1 F1800
G1 X102.733 Y110.805 E.0077
G1 X103.811 Y110.634 E.04841
G1 X104.089 Y110.634 E.01233
G1 X105.167 Y110.805 E.04841
G1 X105.431 Y110.891 E.01232
G1 X106.404 Y111.386 E.04842
G1 X106.629 Y111.55 E.01235
G1 X107.4 Y112.322 E.04839
G1 X107.563 Y112.546 E.01229
G1 X108.059 Y113.518 E.0484
G1 X108.152 Y113.829 E.0144
G1 X108.316 Y114.86 E.0463
G1 X108.316 Y115.139 E.01237
G1 X108.145 Y116.217 E.04841
G1 X108.059 Y116.481 E.01232
G1 X107.563 Y117.453 E.0484
G1 X107.395 Y117.683 E.01263
G1 X106.629 Y118.45 E.04808
G1 X106.404 Y118.614 E.01235
G1 X105.431 Y119.109 E.04842
G1 X105.052 Y119.213 E.01743
G1 X104.089 Y119.366 E.04325
G1 X103.811 Y119.366 E.01233
G1 X102.733 Y119.195 E.04841
G1 X102.469 Y119.109 E.01232
G1 X101.496 Y118.614 E.04842
G1 X101.271 Y118.45 E.01235
G1 X100.5 Y117.678 E.04839
G1 X100.259 Y117.301 E.01985
G1 X99.841 Y116.481 E.04082
G1 X99.755 Y116.216 E.01236
G1 X99.585 Y115.138 E.04841
G1 X99.585 Y114.861 E.01229
G1 X99.764 Y113.735 E.05057
G1 X100.059 Y113.092 E.03138
G1 X100.337 Y112.546 E.02718
G1 X100.589 Y112.233 E.01782
G1 X101.271 Y111.55 E.04281
G1 X101.496 Y111.386 E.01235
G1 X102.469 Y110.891 E.04842
G1 X102.499 Y110.881 E.0014
G1 X102.679 Y111.192 F7800
G1 F1800
G1 X102.789 Y111.156 E.00513
G1 X103.867 Y110.986 E.04841
G1 X104.705 Y111.092 E.03747
G1 X105.242 Y111.195 E.02425
G1 X106.242 Y111.703 E.04975
G1 X106.378 Y111.801 E.00744
G1 X107.149 Y112.573 E.04839
G1 X107.621 Y113.442 E.04386
G1 X107.793 Y113.838 E.01915
G1 X107.965 Y114.916 E.04842
G1 X107.965 Y115.083 E.00741
G1 X107.793 Y116.161 E.04842
G1 X107.742 Y116.319 E.00736
G1 X107.247 Y117.292 E.04842
G1 X106.451 Y118.125 E.0511
G1 X106.242 Y118.297 E.01201
G1 X105.27 Y118.792 E.04838
G1 X104.033 Y119.014 E.05574
G1 X103.867 Y119.014 E.00736
G1 X102.789 Y118.844 E.04841
G1 X102.035 Y118.489 E.03696
G1 X101.565 Y118.237 E.02365
G1 X100.676 Y117.331 E.0563
G1 X100.187 Y116.377 E.04755
G1 X100.107 Y116.16 E.01026
G1 X99.936 Y115.083 E.04837
G1 X100.112 Y113.81 E.057
G1 X100.654 Y112.708 E.05447
G1 X101.342 Y111.982 E.04436
G1 X101.658 Y111.703 E.0187
G1 X102.612 Y111.217 E.04749
G1 X102.843 Y111.516 F7800
;TYPE:External perimeter
G1 F1800
G1 X103.922 Y111.337 E.04851
G1 X105.108 Y111.524 E.05325
G1 X106.126 Y112.053 E.05089
G1 X106.897 Y112.825 E.04839
G1 X107.304 Y113.603 E.03894
G1 X107.45 Y113.941 E.01633
G1 X107.614 Y114.972 E.0463
G1 X107.442 Y116.105 E.05083
G1 X106.93 Y117.13 E.05082
G1 X106.081 Y117.98 E.05329
G1 X105.108 Y118.476 E.04844
G1 X103.978 Y118.663 E.0508
G1 X102.845 Y118.493 E.05082
G1 X101.774 Y117.947 E.05332
G1 X101.003 Y117.175 E.04839
G1 X100.504 Y116.215 E.04799
G1 X100.407 Y115.783 E.01964
G1 X100.287 Y115.027 E.03395
G1 X100.46 Y113.884 E.05127
G1 X100.97 Y112.87 E.05034
G1 X101.593 Y112.233 E.03952
G1 X101.819 Y112.02 E.01377
G1 X102.774 Y111.534 E.04753
G1 X103.247 Y111.45 F7800
G10 ; retract
G1 X137.155 Y116.206
G11 ; unretract
;TYPE:Perimeter
G1 F1800
G1 X135.068 Y116.256 E.09259
G1 X131.047 Y116.411 E.17848
G1 X129.096 Y116.537 E.08672
G1 X123.438 Y116.994 E.25178
G1 X120.672 Y117.351 E.1237
G1 X118.14 Y117.777 E.11388
G1 X115.458 Y118.351 E.12165
G1 X114.482 Y118.586 E.04453
G1 X111.497 Y119.447 E.1378
G1 X109.099 Y120.299 E.11288
G1 X108.147 Y120.667 E.04527
G1 X105.855 Y121.675 E.11106
G1 X102.759 Y123.261 E.15429
G1 X100.559 Y124.527 E.11258
G1 X98.501 Y125.799 E.10731
G1 X91.833 Y130.104 E.35204
G1 X90.564 Y130.878 E.06593
G1 X88.909 Y131.802 E.08407
G1 X86.502 Y132.919 E.1177
G1 X86.445 Y132.512 E.01823
G1 X86.275 Y132.163 E.01722
G1 X86.784 Y131.992 E.02382
G1 X88.238 Y131.34 E.07068
G1 X89.006 Y130.947 E.03827
G1 X90.746 Y129.938 E.08921
G1 X92.274 Y128.908 E.08173
G1 X93.49 Y127.96 E.06839
G1 X94.274 Y127.276 E.04615
G1 X95.665 Y125.809 E.08967
G1 X96.509 Y124.657 E.06334
G1 X97.073 Y123.676 E.05019
G1 X97.527 Y122.563 E.05332
G1 X97.82 Y121.311 E.05703
G1 X97.873 Y120.065 E.05532
G1 X97.775 Y119.228 E.03738
G1 X97.592 Y118.553 E.03102
G1 X97.167 Y117.613 E.04576
G1 X96.707 Y116.964 E.03528
G1 X96.247 Y116.488 E.02936
G1 X95.571 Y115.98 E.03751
G1 X94.938 Y115.639 E.03189
G1 X94.696 Y115.548 E.01147
G1 X93.765 Y115.261 E.04321
G1 X93.154 Y115.141 E.02762
;WIDTH:0.466105
G1 X92.873 Y115.095 E.01427
;WIDTH:0.51221
G1 X92.592 Y115.049 E.0159
;WIDTH:0.558315
G1 X92.311 Y115.003 E.01754
G1 X92.358 Y114.991 E.00299
;WIDTH:0.544495
G1 X92.656 Y114.927 E.01825
;WIDTH:0.502996
G1 X92.955 Y114.863 E.01673
;WIDTH:0.461498
G1 X93.254 Y114.799 E.01515
;WIDTH:0.42
G1 X94.033 Y114.674 E.03499
G1 X94.675 Y114.463 E.02997
G1 X94.943 Y114.335 E.01317
G1 X95.753 Y113.891 E.04097
G1 X96.41 Y113.344 E.03792
G1 X96.957 Y112.7 E.03748
G1 X97.476 Y111.738 E.04848
G1 X97.586 Y111.438 E.01417
G1 X97.763 Y110.817 E.02864
G1 X97.874 Y109.987 E.03714
G1 X97.874 Y109.186 E.03553
G1 X97.831 Y108.791 E.01762
G1 X97.526 Y107.426 E.06204
G1 X97.047 Y106.27 E.0555
G1 X96.294 Y105.009 E.06514
G1 X95.561 Y104.055 E.05336
G1 X94.934 Y103.363 E.04142
G1 X94.557 Y102.989 E.02355
G1 X93.226 Y101.824 E.07846
G1 X92.833 Y101.505 E.02245
G1 X91.49 Y100.541 E.07333
G1 X90.032 Y99.627 E.07633
G1 X88.261 Y98.659 E.08952
G1 X86.277 Y97.828 E.09541
G1 X86.422 Y97.511 E.01546
G1 X86.506 Y97.083 E.01935
M73 P4 R12
G1 X88.655 Y98.074 E.10497
G1 X89.282 Y98.392 E.03118
G1 X90.277 Y98.983 E.05133
G1 X94.477 Y101.597 E.21942
G1 X96.498 Y102.91 E.1069
G1 X100.342 Y105.264 E.19993
G1 X101.865 Y106.219 E.07973
G1 X103.025 Y106.877 E.05915
G1 X105.616 Y108.204 E.12912
G1 X106.217 Y108.488 E.02948
G1 X107.862 Y109.209 E.07966
G1 X110.842 Y110.318 E.14103
G1 X111.751 Y110.63 E.04263
G1 X115.327 Y111.621 E.16459
G1 X117.272 Y112.048 E.08832
G1 X120.351 Y112.594 E.1387
G1 X125.648 Y113.225 E.23661
G1 X128.476 Y113.442 E.1258
G1 X132.401 Y113.643 E.17432
G1 X133.956 Y113.691 E.069
G1 X137.178 Y113.746 E.14293
G1 X136.895 Y114.044 E.01823
G1 X136.666 Y114.535 E.02403
G1 X136.595 Y115.098 E.02517
G1 X136.723 Y115.645 E.02492
G1 X136.929 Y115.979 E.01741
G1 X137.104 Y116.155 E.01101
G1 X137.694 Y116.197 F7800
;WIDTH:0.595044
G1 F1800
G1 X137.708 Y116.209 E.00122
;WIDTH:0.638804
G1 X137.784 Y116.269 E.00694
;WIDTH:0.682566
G1 X137.859 Y116.329 E.00741
;WIDTH:0.726327
G1 X137.935 Y116.389 E.00799
G1 X137.87 Y116.412 E.00569
;WIDTH:0.684181
G1 X137.806 Y116.435 E.00526
;WIDTH:0.642035
G1 X137.741 Y116.457 E.00494
;WIDTH:0.599889
G1 X137.677 Y116.48 E.00454
;WIDTH:0.557743
G1 X137.612 Y116.503 E.00424
;WIDTH:0.515598
G1 X137.43 Y116.531 E.01036
;WIDTH:0.467799
G1 X137.247 Y116.559 E.00932
;WIDTH:0.42
G1 X135.081 Y116.611 E.0961
G1 X131.047 Y116.767 E.17906
G1 X129.111 Y116.892 E.08605
G1 X123.441 Y117.351 E.25231
G1 X120.698 Y117.707 E.12269
G1 X118.227 Y118.122 E.11114
G1 X117.511 Y118.266 E.03239
M73 P4 R11
G1 X115.534 Y118.698 E.08976
G1 X114.58 Y118.928 E.04353
G1 X111.616 Y119.782 E.13682
G1 X109.227 Y120.631 E.11246
G1 X108.29 Y120.993 E.04455
G1 X106.017 Y121.991 E.11011
G1 X102.936 Y123.569 E.15354
G1 X100.746 Y124.829 E.11207
G1 X98.694 Y126.098 E.10701
G1 X92.022 Y130.405 E.35224
G1 X90.743 Y131.185 E.06645
G1 X89.071 Y132.119 E.08495
G1 X86.044 Y133.523 E.148
G1 X86.147 Y133.186 E.01563
G1 X86.112 Y132.638 E.02436
G1 X85.878 Y132.207 E.02175
G1 X85.618 Y131.971 E.01557
G1 X86.639 Y131.668 E.04724
G1 X88.053 Y131.035 E.06872
G1 X88.827 Y130.64 E.03854
G1 X90.549 Y129.642 E.08828
G1 X92.055 Y128.627 E.08055
G1 X93.292 Y127.662 E.06959
G1 X94.016 Y127.031 E.0426
G1 X95.407 Y125.564 E.08967
G1 X96.221 Y124.449 E.06123
G1 X96.487 Y123.996 E.0233
G1 X96.744 Y123.541 E.02318
G1 X97.198 Y122.429 E.05327
G1 X97.465 Y121.29 E.05189
G1 X97.52 Y120.101 E.05279
G1 X97.431 Y119.316 E.03504
G1 X97.265 Y118.694 E.02855
G1 X96.875 Y117.815 E.04265
G1 X96.447 Y117.207 E.03298
G1 X96.029 Y116.77 E.02682
G1 X95.402 Y116.293 E.03494
G1 X94.598 Y115.89 E.03989
G1 X93.645 Y115.596 E.04424
G1 X93.125 Y115.495 E.0235
G1 X91.959 Y115.404 E.05187
G1 X91.172 Y115.43 E.03493
G1 X91.173 Y114.565 E.03837
G1 X92.298 Y114.577 E.0499
G1 X93.922 Y114.336 E.07282
G1 X94.564 Y114.125 E.02997
G1 X95.535 Y113.61 E.04875
G1 X96.146 Y113.106 E.03513
G1 X96.644 Y112.531 E.03374
G1 X97.163 Y111.569 E.04848
G1 X97.245 Y111.335 E.011
G1 X97.411 Y110.766 E.02629
G1 X97.519 Y109.987 E.03488
G1 X97.518 Y109.186 E.03553
G1 X97.484 Y108.865 E.01432
G1 X97.223 Y107.647 E.05525
G1 X96.779 Y106.526 E.05348
G1 X95.989 Y105.191 E.0688
G1 X95.262 Y104.255 E.05257
G1 X94.323 Y103.256 E.06081
G1 X92.625 Y101.793 E.09941
G1 X91.302 Y100.842 E.07227
G1 X89.844 Y99.929 E.0763
G1 X88.122 Y98.986 E.08708
G1 X86.265 Y98.198 E.08948
G1 X85.603 Y98.03 E.03029
G1 X86.017 Y97.589 E.02683
G1 X86.141 Y97.215 E.01748
G1 X86.14 Y96.753 E.02049
G1 X86.049 Y96.48 E.01276
G1 X89.009 Y97.846 E.1446
G1 X89.456 Y98.081 E.0224
G1 X90.461 Y98.679 E.05187
G1 X94.667 Y101.296 E.21972
G1 X96.684 Y102.606 E.10668
G1 X100.529 Y104.962 E.20001
G1 X102.041 Y105.91 E.07916
G1 X103.187 Y106.56 E.05844
G1 X105.768 Y107.882 E.12862
G1 X106.36 Y108.162 E.02905
G1 X107.986 Y108.876 E.07877
G1 X110.958 Y109.981 E.14064
G1 X111.848 Y110.288 E.04176
G1 X115.403 Y111.273 E.16362
G1 X117.334 Y111.698 E.0877
G1 X120.393 Y112.241 E.1378
G1 X125.69 Y112.872 E.23661
G1 X128.503 Y113.087 E.12513
G1 X132.412 Y113.288 E.17361
M73 P5 R11
G1 X133.962 Y113.335 E.06878
G1 X137.39 Y113.395 E.15207
;WIDTH:0.464224
G1 X137.455 Y113.418 E.00344
;WIDTH:0.508449
G1 X137.52 Y113.442 E.00384
;WIDTH:0.552673
G1 X137.585 Y113.466 E.00422
;WIDTH:0.596898
G1 X137.65 Y113.489 E.00458
;WIDTH:0.641123
G1 X137.716 Y113.513 E.00505
;WIDTH:0.685347
G1 X137.781 Y113.537 E.00537
;WIDTH:0.729572
G1 X137.846 Y113.56 E.00572
;WIDTH:0.773796
G1 X137.911 Y113.584 E.00613
G1 X137.866 Y113.621 E.00515
;WIDTH:0.729957
G1 X137.822 Y113.658 E.00477
;WIDTH:0.686117
G1 X137.778 Y113.695 E.00446
;WIDTH:0.642277
G1 X137.733 Y113.732 E.0042
;WIDTH:0.598438
G1 X137.589 Y113.87 E.01329
;WIDTH:0.553828
G1 X137.445 Y114.008 E.01218
;WIDTH:0.509219
G1 X137.3 Y114.147 E.01114
;WIDTH:0.464609
G1 X137.156 Y114.285 E.00996
;WIDTH:0.42
G1 X137.019 Y114.579 E.01439
G1 X136.951 Y115.112 E.02383
G1 X137.026 Y115.459 E.01575
G1 X137.231 Y115.793 E.01738
G1 X137.407 Y115.968 E.01101
;WIDTH:0.463761
G1 X137.482 Y116.028 E.00478
;WIDTH:0.507522
G1 X137.558 Y116.089 E.00539
;WIDTH:0.551283
G1 X137.633 Y116.149 E.00583
;WIDTH:0.595044
G1 X137.637 Y116.152 E.00033
G10 ; retract
G1 X137.637 Y116.152 F7800
G1 X140.234 Y113.848
G11 ; unretract
;WIDTH:0.481558
G1 F1800
G1 X139.977 Y114.154 E.02079
;WIDTH:0.504567
G1 X139.805 Y114.461 E.01932
G1 X139.761 Y114.354 E.00635
;WIDTH:0.50288
G1 X139.353 Y113.827 E.03645
;WIDTH:0.481558
G1 X140.163 Y113.846 E.04216
G10 ; retract
G1 X140.163 Y113.846 F7800
G1 X139.397 Y116.125
G11 ; unretract
;WIDTH:0.474568
G1 F1800
G1 X139.638 Y115.804 E.02054
;WIDTH:0.482497
G1 X139.798 Y115.425 E.02145
G1 X139.852 Y115.6 E.00955
G1 X139.988 Y115.801 E.01266
;WIDTH:0.474568
G1 X140.221 Y116.108 E.01972
G1 X139.469 Y116.123 E.03848
G10 ; retract
G1 X139.469 Y116.123 F7800
G1 X140.663 Y114.002
G11 ; unretract
;WIDTH:0.519079
G1 F1800
G1 X140.562 Y114.094 E.00775
;WIDTH:0.469539
G1 X140.372 Y114.269 E.01305
;WIDTH:0.467594
G1 X140.281 Y114.422 E.00895
;WIDTH:0.515188
G1 X140.191 Y114.576 E.01003
;WIDTH:0.562783
G1 X140.101 Y114.73 E.01109
;WIDTH:0.585695
G1 X140.064 Y114.936 E.01361
G1 X140.108 Y115.285 E.02287
;WIDTH:0.536285
G1 X140.217 Y115.455 E.01189
;WIDTH:0.497523
G1 X140.326 Y115.625 E.01091
;WIDTH:0.458761
G1 X140.435 Y115.795 E.00993
;WIDTH:0.42
G1 X140.609 Y115.968 E.01088
;WIDTH:0.468184
G1 X140.715 Y116.046 E.00663
