; generated by PrusaSlicer 2.7.1+win64 on 2024-02-05 at 23:37:35 UTC

; 

; external perimeters extrusion width = 0.45mm
; perimeters extrusion width = 0.45mm
; infill extrusion width = 0.45mm
; solid infill extrusion width = 0.45mm
; top infill extrusion width = 0.40mm
; support material extrusion width = 0.35mm
; first layer extrusion width = 0.42mm

M73 P0 R37
M190 S50 ; set bed temperature and wait for it to be reached
M104 S230 ; set temperature
;TYPE:Custom
START_PRINT EXTRUDER_TEMP=230 BED_TEMP=50 Z_OFFSET=0.1
M109 S230 ; set temperature and wait for it to be reached
G21 ; set units to millimeters
G90 ; use absolute coordinates
M83 ; use relative distances for extrusion
; Filament gcode
M107
;LAYER_CHANGE
;Z:0.3
;HEIGHT:0.3
;BEFORE_LAYER_CHANGE
G92 E0
;0.3


G10 ; retract
G1 Z.3 F7800
;AFTER_LAYER_CHANGE
;0.3
G1 X102.821 Y99.097
G11 ; unretract
;TYPE:Skirt/Brim
;WIDTH:0.42
G1 F1800
G1 X103.779 Y98.181 E.05879
G1 X110.161 Y93.137 E.36081
G1 X111.194 Y92.458 E.05483
G1 X112.209 Y91.912 E.05112
G1 X113.374 Y91.414 E.0562
G1 X114.47 Y91.058 E.05111
G1 X115.705 Y90.776 E.05619
G1 X116.847 Y90.622 E.05111
G1 X118.793 Y90.595 E.08632
G1 X120.519 Y90.786 E.07702
G1 X121.642 Y91.043 E.0511
G1 X122.847 Y91.434 E.05619
G1 X123.907 Y91.887 E.05113
G1 X125.022 Y92.488 E.05618
G1 X125.984 Y93.122 E.0511
G1 X126.975 Y93.912 E.05621
G1 X127.807 Y94.709 E.0511
G1 X128.641 Y95.663 E.0562
G1 X129.318 Y96.595 E.05109
G1 X129.968 Y97.682 E.05618
G1 X130.468 Y98.721 E.05114
G1 X130.907 Y99.884 E.05514
G1 X134.27 Y111.91 E.55388
G1 X134.631 Y113.977 E.09307
G1 X134.635 Y116.015 E.0904
G1 X134.337 Y117.855 E.08268
G1 X131.376 Y130.093 E.55848
G1 X130.931 Y131.279 E.05619
G1 X130.431 Y132.318 E.05114
G1 X129.781 Y133.405 E.05618
G1 X129.104 Y134.337 E.05109
G1 X128.271 Y135.291 E.05618
G1 X127.438 Y136.088 E.05114
G1 X126.447 Y136.878 E.05621
G1 X125.486 Y137.512 E.05107
G1 X124.37 Y138.113 E.05622
G1 X123.31 Y138.566 E.05113
G1 X122.106 Y138.957 E.05615
G1 X120.982 Y139.214 E.05114
G1 X119.727 Y139.384 E.05617
G1 X118.576 Y139.435 E.0511
G1 X117.31 Y139.378 E.05621
G1 X116.168 Y139.224 E.05111
G1 X114.933 Y138.942 E.05619
G1 X113.837 Y138.586 E.05111
G1 X112.672 Y138.088 E.0562
G1 X111.657 Y137.542 E.05112
G1 X110.6 Y136.844 E.05618
G1 X109.699 Y136.126 E.0511
G1 X108.784 Y135.25 E.05619
G1 X108.025 Y134.382 E.05114
G1 X107.281 Y133.357 E.05618
G1 X106.69 Y132.368 E.0511
G1 X102.68 Y124.849 E.37797
G1 X101.922 Y122.518 E.10872
G1 X99.878 Y108.042 E.64845
G1 X99.809 Y106.436 E.0713
G1 X99.977 Y104.768 E.07436
G1 X100.348 Y103.312 E.06664
G1 X100.705 Y102.35 E.04551
G1 X101.491 Y100.831 E.07586
G1 X101.897 Y100.236 E.03195
G1 X102.776 Y99.153 E.06187
G1 X103.052 Y99.377 F7800
G1 F1800
G1 X103.09 Y99.33 E.00268
G1 X104 Y98.46 E.05584
G1 X110.381 Y93.416 E.36077
G1 X111.363 Y92.771 E.05211
G1 X112.377 Y92.225 E.05108
G1 X113.484 Y91.752 E.0534
G1 X114.58 Y91.396 E.05111
G1 X115.753 Y91.129 E.05336
G1 X116.895 Y90.974 E.05112
G1 X118.777 Y90.95 E.08348
G1 X120.44 Y91.133 E.07421
G1 X121.563 Y91.39 E.0511
G1 X122.707 Y91.761 E.05334
G1 X123.767 Y92.214 E.05113
G1 X124.827 Y92.784 E.05338
G1 X125.788 Y93.419 E.05109
G1 X126.729 Y94.169 E.05337
G1 X127.562 Y94.966 E.05114
G1 X128.353 Y95.872 E.05335
G1 X129.031 Y96.804 E.05112
G1 X129.648 Y97.837 E.05337
G1 X130.148 Y98.875 E.0511
G1 X130.564 Y99.979 E.05233
G1 X133.927 Y112.006 E.55392
G1 X134.28 Y114.029 E.09109
G1 X134.283 Y115.964 E.08583
G1 X133.991 Y117.772 E.08123
G1 X131.034 Y129.999 E.55796
G1 X130.611 Y131.125 E.05335
G1 X130.111 Y132.163 E.0511
G1 X129.494 Y133.196 E.05337
G1 X128.816 Y134.128 E.05112
G1 X128.025 Y135.034 E.05335
G1 X127.192 Y135.831 E.05114
G1 X126.251 Y136.581 E.05337
G1 X125.29 Y137.216 E.05109
G1 X124.23 Y137.786 E.05338
G1 X123.171 Y138.239 E.05109
G1 X122.026 Y138.61 E.05339
G1 X120.903 Y138.867 E.0511
G1 X119.711 Y139.028 E.05335
G1 X118.56 Y139.08 E.0511
G1 X117.358 Y139.026 E.05337
G1 X116.216 Y138.871 E.05112
G1 X115.043 Y138.604 E.05336
G1 X113.947 Y138.248 E.05111
G1 X112.841 Y137.775 E.05335
G1 X111.826 Y137.229 E.05112
G1 X110.822 Y136.566 E.05337
G1 X109.921 Y135.848 E.0511
G1 X109.051 Y135.016 E.05339
G1 X108.293 Y134.148 E.05111
G1 X107.586 Y133.175 E.05335
G1 X106.831 Y131.895 E.06591
G1 X102.994 Y124.682 E.36238
G1 X102.274 Y122.468 E.10326
G1 X100.231 Y107.992 E.64844
G1 X100.165 Y106.436 E.06908
G1 X100.329 Y104.818 E.07213
G1 X100.681 Y103.436 E.06326
G1 X101.039 Y102.474 E.04553
G1 X101.785 Y101.032 E.07201
G1 X102.191 Y100.436 E.03199
G1 X103.006 Y99.433 E.05732
G1 X103.282 Y99.657 F7800
G1 F1800
G1 X103.359 Y99.563 E.00539
G1 X104.22 Y98.739 E.05286
G1 X110.602 Y93.695 E.36081
G1 X112.546 Y92.538 E.10034
G1 X113.594 Y92.091 E.05054
G1 X114.69 Y91.735 E.05111
G1 X115.8 Y91.481 E.05051
G1 X116.942 Y91.326 E.05112
G1 X118.761 Y91.306 E.08069
G1 X120.361 Y91.48 E.07139
M73 P0 R36
G1 X121.484 Y91.736 E.05109
G1 X122.568 Y92.088 E.05055
G1 X123.627 Y92.541 E.05109
G1 X124.631 Y93.081 E.05056
G1 X125.592 Y93.716 E.05109
G1 X126.483 Y94.426 E.05053
G1 X127.316 Y95.223 E.05114
G1 X128.066 Y96.081 E.05055
G1 X128.743 Y97.013 E.05109
G1 X129.327 Y97.991 E.05052
G1 X130.222 Y100.075 E.1006
G1 X133.585 Y112.102 E.55392
G1 X133.928 Y114.081 E.08909
G1 X133.931 Y115.913 E.08126
G1 X133.645 Y117.69 E.07983
G1 X130.691 Y129.904 E.55737
G1 X130.29 Y130.971 E.05056
G1 X129.79 Y132.009 E.0511
G1 X129.206 Y132.987 E.05052
G1 X128.529 Y133.919 E.05109
G1 X127.779 Y134.777 E.05055
G1 X126.946 Y135.574 E.05114
G1 X126.055 Y136.284 E.05053
G1 X125.094 Y136.919 E.05109
G1 X124.09 Y137.459 E.05056
G1 X123.031 Y137.912 E.05109
G1 X121.947 Y138.264 E.05055
G1 X120.824 Y138.52 E.05109
G1 X119.695 Y138.673 E.05053
G1 X118.544 Y138.725 E.0511
G1 X117.405 Y138.674 E.05057
G1 X116.264 Y138.519 E.05107
G1 X115.153 Y138.265 E.05055
G1 X114.057 Y137.909 E.05111
G1 X113.009 Y137.462 E.05054
G1 X111.995 Y136.916 E.05108
G1 X111.044 Y136.288 E.05055
G1 X110.143 Y135.569 E.05113
G1 X109.319 Y134.782 E.05054
G1 X108.561 Y133.914 E.05111
G1 X107.891 Y132.993 E.05052
G1 X107.145 Y131.728 E.06514
G1 X103.308 Y124.515 E.36238
G1 X102.626 Y122.418 E.09781
G1 X100.583 Y107.942 E.64844
G1 X100.52 Y106.436 E.06686
G1 X100.681 Y104.869 E.06987
G1 X101.014 Y103.56 E.05991
G1 X101.372 Y102.598 E.04553
G1 X102.078 Y101.232 E.0682
G1 X102.484 Y100.636 E.03199
G1 X103.236 Y99.713 E.05281
G10 ; retract
G1 X103.236 Y99.713 F7800
G1 X122.554 Y120.93
G11 ; unretract
;TYPE:Support material
G1 F1800
G1 X123.387 Y121.726 E.0511
G1 X124.064 Y122.659 E.05113
G1 X124.564 Y123.697 E.0511
G1 X124.871 Y124.807 E.05108
G1 X124.974 Y125.955 E.05112
G1 X124.871 Y127.103 E.05112
G1 X124.564 Y128.213 E.05108
G1 X124.064 Y129.251 E.0511
G1 X123.387 Y130.184 E.05113
G1 X122.554 Y130.98 E.0511
G1 X121.593 Y131.615 E.05109
G1 X120.533 Y132.068 E.05113
G1 X119.41 Y132.324 E.05109
G1 X118.259 Y132.376 E.0511
G1 X117.117 Y132.221 E.05112
G1 X116.021 Y131.865 E.05111
G1 X115.006 Y131.319 E.05112
G1 X114.105 Y130.6 E.05113
G1 X113.347 Y129.733 E.05108
G1 X112.756 Y128.744 E.0511
G1 X112.351 Y127.665 E.05112
G1 X112.146 Y126.531 E.05111
G1 X112.146 Y125.379 E.0511
G1 X112.351 Y124.245 E.05111
G1 X112.756 Y123.166 E.05112
G1 X113.347 Y122.177 E.0511
G1 X113.415 Y122.1 E.00456
G1 X121.534 Y122.1 E.36012
G1 X121.868 Y121.766 E.02095
G1 X121.868 Y120.477 E.05717
G1 X122.51 Y120.901 E.03413
G1 X124.271 Y128.453 F7800
G1 F1800
G1 X124.271 Y123.837 E.20474
G1 X123.876 Y123.005 E.04085
G1 X123.876 Y128.905 E.26169
G1 X123.481 Y129.51 E.03205
G1 X123.481 Y122.4 E.31536
G1 X123.086 Y121.881 E.02893
G1 X123.086 Y130.029 E.3614
G1 X122.69 Y130.407 E.02428
G1 X122.69 Y121.503 E.39494
G1 X122.295 Y121.143 E.0237
G1 X122.295 Y130.767 E.42687
G1 X121.9 Y131.028 E.021
G1 X121.9 Y122.187 E.39214
G1 X121.667 Y122.42 E.01462
G1 X121.505 Y122.42 E.00719
G1 X121.505 Y131.289 E.39338
G1 X121.11 Y131.473 E.01933
G1 X121.11 Y122.42 E.40154
G1 X120.715 Y122.42 E.01752
G1 X120.715 Y131.642 E.40904
G1 X120.32 Y131.788 E.01868
G1 X120.32 Y122.42 E.41552
G1 X119.925 Y122.42 E.01752
G1 X119.925 Y131.878 E.41951
G1 X119.529 Y131.968 E.01801
G1 X119.529 Y122.42 E.4235
G1 X119.134 Y122.42 E.01752
G1 X119.134 Y132.016 E.42563
G1 X118.739 Y132.034 E.01754
G1 X118.739 Y122.42 E.42643
G1 X118.344 Y122.42 E.01752
G1 X118.344 Y132.051 E.42718
G1 X117.949 Y132.011 E.01761
G1 X117.949 Y122.42 E.42541
M73 P1 R36
G1 X117.554 Y122.42 E.01752
G1 X117.554 Y131.957 E.42301
G1 X117.159 Y131.898 E.01771
G1 X117.159 Y122.42 E.42039
G1 X116.763 Y122.42 E.01756
G1 X116.763 Y131.77 E.41472
G1 X116.368 Y131.641 E.01843
G1 X116.368 Y122.42 E.409
G1 X115.973 Y122.42 E.01752
G1 X115.973 Y131.476 E.40168
G1 X115.578 Y131.263 E.01991
G1 X115.578 Y122.42 E.39223
G1 X115.183 Y122.42 E.01752
G1 X115.183 Y131.05 E.38278
G1 X114.788 Y130.735 E.02241
G1 X114.788 Y122.42 E.36881
G1 X114.393 Y122.42 E.01752
G1 X114.393 Y130.42 E.35484
G1 X113.998 Y129.991 E.02587
G1 X113.998 Y122.42 E.33581
G1 X113.602 Y122.42 E.01756
G1 X113.602 Y129.536 E.31563
G1 X113.207 Y128.874 E.03419
G1 X113.207 Y123.036 E.25894
G1 X112.812 Y123.929 E.04331
G1 X112.812 Y128.437 E.19995
G10 ; retract
G1 X112.812 Y128.437 F7800
G1 X125.071 Y111.178
G11 ; unretract
G1 F1800
G1 X126.162 Y111.843 E.05667
G1 X126.948 Y112.716 E.0521
G1 X127.464 Y113.813 E.05377
G1 X127.64 Y115.009 E.05362
G1 X127.462 Y116.218 E.0542
G1 X126.947 Y117.312 E.05363
G1 X126.135 Y118.214 E.05383
G1 X125.14 Y118.816 E.05158
G1 X123.886 Y119.142 E.05747
G1 X122.714 Y119.094 E.05203
G1 X121.868 Y118.801 E.03971
G1 X121.868 Y111.226 E.33599
G1 X122.716 Y110.932 E.03981
G1 X123.926 Y110.883 E.05371
G1 X125.019 Y111.165 E.05007
G1 X127.037 Y116.745 F7800
G1 F1800
G1 X127.037 Y113.658 E.13692
G1 X126.642 Y112.854 E.03973
G1 X126.642 Y117.173 E.19157
G1 X126.247 Y117.612 E.02619
G1 X126.247 Y112.415 E.23051
G1 X125.851 Y112.023 E.02471
G1 X125.851 Y118.011 E.2656
G1 X125.456 Y118.251 E.0205
G1 X125.456 Y111.771 E.28742
G1 X125.061 Y111.542 E.02025
G1 X125.061 Y118.49 E.30818
G1 X124.666 Y118.622 E.01847
G1 X124.666 Y111.404 E.32015
G1 X124.271 Y111.303 E.01808
G1 X124.271 Y118.726 E.32925
G1 X123.876 Y118.816 E.01797
G1 X123.876 Y111.206 E.33754
G1 X123.481 Y111.222 E.01753
G1 X123.481 Y118.805 E.33634
G1 X123.086 Y118.789 E.01753
G1 X123.086 Y111.238 E.33492
G1 X122.69 Y111.28 E.01766
G1 X122.69 Y118.747 E.3312
G1 X122.295 Y118.61 E.01854
G1 X122.295 Y111.247 E.32658
G10 ; retract
G1 X122.295 Y111.247 F7800
G1 X118.476 Y97.655
G11 ; unretract
G1 F1800
G1 X118.946 Y97.676 E.02087
G1 X120.07 Y97.933 E.05114
G1 X121.129 Y98.385 E.05107
G1 X122.091 Y99.02 E.05113
G1 X122.924 Y99.816 E.0511
G1 X123.601 Y100.749 E.05113
G1 X124.101 Y101.787 E.0511
G1 X124.408 Y102.897 E.05108
G1 X124.511 Y104.045 E.05112
G1 X124.408 Y105.193 E.05112
G1 X124.101 Y106.303 E.05108
G1 X123.601 Y107.341 E.0511
G1 X122.924 Y108.274 E.05113
G1 X121.868 Y109.283 E.06478
G1 X121.868 Y108.234 E.04653
G1 X121.534 Y107.9 E.02095
G1 X108.683 Y107.9 E.57
G1 X108.349 Y108.234 E.02095
G1 X108.349 Y109.858 E.07203
G1 X108.228 Y109.899 E.00567
G1 X107.355 Y108.749 E.06404
G1 X106.971 Y107.718 E.0488
G1 X106.876 Y107.054 E.02975
G1 X106.971 Y105.775 E.05689
G1 X107.329 Y104.813 E.04553
G1 X107.735 Y104.217 E.03199
G1 X108.162 Y103.725 E.0289
G1 X109.068 Y103.066 E.04969
G1 X110.213 Y102.667 E.05378
G1 X111.388 Y102.617 E.05216
G1 X111.819 Y102.716 E.01961
G1 X111.888 Y102.335 E.01717
G1 X112.293 Y101.256 E.05112
G1 X112.884 Y100.267 E.0511
G1 X113.642 Y99.4 E.05108
G1 X114.543 Y98.681 E.05113
G1 X115.558 Y98.135 E.05112
G1 X116.654 Y97.779 E.05111
G1 X117.795 Y97.624 E.05107
G1 X118.422 Y97.653 E.02784
G1 X123.876 Y106.402 F7800
G1 F1800
G1 X123.876 Y102.174 E.18753
G1 X123.481 Y101.236 E.04514
G1 X123.481 Y106.854 E.24919
G1 X123.086 Y107.506 E.03381
G1 X123.086 Y100.584 E.30702
G1 X122.69 Y100.04 E.02984
G1 X122.69 Y108.05 E.35528
G1 X122.295 Y108.432 E.02437
G1 X122.295 Y99.658 E.38917
G1 X121.9 Y99.281 E.02422
G1 X121.9 Y107.813 E.37844
G1 X121.667 Y107.58 E.01462
G1 X121.505 Y107.58 E.00719
G1 X121.505 Y99.017 E.37981
G1 X121.11 Y98.756 E.021
G1 X121.11 Y107.58 E.39139
G1 X120.715 Y107.58 E.01752
G1 X120.715 Y98.556 E.40026
G1 X120.32 Y98.387 E.01906
G1 X120.32 Y107.58 E.40775
G1 X119.925 Y107.58 E.01752
G1 X119.925 Y98.228 E.41481
G1 X119.529 Y98.137 E.01802
G1 X119.529 Y107.58 E.41884
G1 X119.134 Y107.58 E.01752
G1 X119.134 Y98.047 E.42283
G1 X118.903 Y97.995 E.0105
G1 X118.739 Y97.987 E.00728
G1 X118.739 Y107.58 E.4255
G1 X118.344 Y107.58 E.01752
G1 X118.344 Y97.969 E.42629
G1 X117.949 Y97.952 E.01754
G1 X117.949 Y107.58 E.42705
G1 X117.554 Y107.58 E.01752
G1 X117.554 Y97.98 E.42581
G1 X117.159 Y98.034 E.01768
G1 X117.159 Y107.58 E.42341
G1 X116.763 Y107.58 E.01756
G1 X116.763 Y98.087 E.42106
G1 X116.368 Y98.208 E.01832
G1 X116.368 Y107.58 E.41569
G1 X115.973 Y107.58 E.01752
G1 X115.973 Y98.337 E.40997
G1 X115.578 Y98.488 E.01876
G1 X115.578 Y107.58 E.40327
G1 X115.183 Y107.58 E.01752
G1 X115.183 Y98.7 E.39387
G1 X114.788 Y98.913 E.01991
G1 X114.788 Y107.58 E.38442
G1 X114.393 Y107.58 E.01752
G1 X114.393 Y99.21 E.37125
G1 X113.998 Y99.526 E.02244
G1 X113.998 Y107.58 E.35723
G1 X113.602 Y107.58 E.01756
G1 X113.602 Y99.932 E.33923
G1 X113.207 Y100.384 E.02663
G1 X113.207 Y107.58 E.31918
G1 X112.812 Y107.58 E.01752
G1 X112.812 Y101.012 E.29132
G1 X112.417 Y101.837 E.04057
M73 P2 R36
G1 X112.417 Y107.58 E.25473
G1 X112.022 Y107.58 E.01752
G1 X112.022 Y103.09 E.19915
G1 X111.627 Y103 E.01797
G1 X111.627 Y107.58 E.20315
G1 X111.232 Y107.58 E.01752
G1 X111.232 Y102.944 E.20563
G1 X110.836 Y102.961 E.01758
G1 X110.836 Y107.58 E.20487
G1 X110.441 Y107.58 E.01752
G1 X110.441 Y102.978 E.20412
G1 X110.046 Y103.064 E.01793
G1 X110.046 Y107.58 E.20031
G1 X109.651 Y107.58 E.01752
G1 X109.651 Y103.202 E.19419
G1 X109.256 Y103.34 E.01856
G1 X109.256 Y107.58 E.18806
G1 X108.861 Y107.58 E.01752
G1 X108.861 Y103.613 E.17596
G1 X108.466 Y103.9 E.02166
G1 X108.466 Y107.665 E.167
G1 X108.071 Y108.06 E.02478
G1 X108.071 Y104.319 E.16593
G1 X107.675 Y104.873 E.0302
G1 X107.675 Y108.642 E.16717
G1 X107.28 Y107.619 E.04864
G1 X107.28 Y105.403 E.09829
G10 ; retract
G1 X107.28 Y105.403 F7800
G1 X110.04 Y109.591
G11 ; unretract
;TYPE:Perimeter
;WIDTH:0.42
G1 F1800
G1 X120.177 Y109.591 E.44962
G1 X120.177 Y114.66 E.22483
G1 X120.177 Y120.409 E.255
G1 X110.04 Y120.409 E.44962
G1 X110.04 Y109.663 E.47664
G1 X109.685 Y109.236 F7800
G1 F1800
G1 X120.533 Y109.236 E.48116
G1 X120.533 Y114.66 E.24058
G1 X120.533 Y120.764 E.27074
G1 X109.685 Y120.764 E.48116
G1 X109.685 Y109.308 E.50813
G1 X109.329 Y108.88 F7800
;TYPE:External perimeter
G1 F1800
G1 X120.888 Y108.88 E.5127
G1 X120.888 Y114.66 E.25637
G1 X120.888 Y121.12 E.28653
G1 X109.329 Y121.12 E.5127
G1 X109.329 Y108.952 E.53971
G1 X109.804 Y108.881 F7800
G10 ; retract
G1 X119.334 Y109.698
G11 ; unretract
;TYPE:Solid infill
;WIDTH:0.428517
G1 F1800
G1 X119.91 Y110.275 E.03703
G1 X119.91 Y110.79 E.02339
G1 X118.979 Y109.858 E.05983
G1 X118.464 Y109.858 E.02339
G1 X119.91 Y111.305 E.09291
G1 X119.91 Y111.82 E.02339
G1 X117.949 Y109.858 E.12599
G1 X117.434 Y109.858 E.02339
G1 X119.91 Y112.335 E.15906
G1 X119.91 Y112.85 E.02339
G1 X116.919 Y109.858 E.19214
G1 X116.404 Y109.858 E.02339
G1 X119.91 Y113.365 E.22522
G1 X119.91 Y113.88 E.02339
G1 X115.889 Y109.858 E.2583
G1 X115.374 Y109.858 E.02339
G1 X119.91 Y114.395 E.29138
G1 X119.91 Y114.91 E.02339
G1 X114.859 Y109.858 E.32445
G1 X114.344 Y109.858 E.02339
G1 X119.91 Y115.425 E.35753
G1 X119.91 Y115.939 E.02334
G1 X113.829 Y109.858 E.39058
G1 X113.314 Y109.858 E.02339
G1 X119.91 Y116.454 E.42366
G1 X119.91 Y116.969 E.02339
G1 X112.799 Y109.858 E.45674
G1 X112.284 Y109.858 E.02339
G1 X119.91 Y117.484 E.48981
G1 X119.91 Y117.999 E.02339
G1 X111.769 Y109.858 E.52289
G1 X111.254 Y109.858 E.02339
G1 X119.91 Y118.514 E.55597
G1 X119.91 Y119.029 E.02339
G1 X110.739 Y109.858 E.58905
G1 X110.307 Y109.858 E.01962
G1 X110.307 Y109.941 E.00377
G1 X119.91 Y119.544 E.6168
G1 X119.91 Y120.059 E.02339
G1 X110.307 Y110.456 E.6168
G1 X110.307 Y110.971 E.02339
G1 X119.478 Y120.142 E.58905
