; generated by PrusaSlicer 2.7.1+win64 on 2024-02-25 at 14:49:10 UTC

; 

; external perimeters extrusion width = 0.45mm
; perimeters extrusion width = 0.45mm
; infill extrusion width = 0.45mm
; solid infill extrusion width = 0.45mm
; top infill extrusion width = 0.40mm
; support material extrusion width = 0.35mm
; first layer extrusion width = 0.42mm

; external perimeters extrusion width = 0.45mm
; perimeters extrusion width = 0.45mm
; infill extrusion width = 0.45mm
; solid infill extrusion width = 0.45mm
; top infill extrusion width = 0.40mm
; support material extrusion width = 0.35mm
; first layer extrusion width = 0.42mm

; external perimeters extrusion width = 0.45mm
; perimeters extrusion width = 0.45mm
; infill extrusion width = 0.45mm
; solid infill extrusion width = 0.45mm
; top infill extrusion width = 0.40mm
; support material extrusion width = 0.35mm
; first layer extrusion width = 0.42mm

; external perimeters extrusion width = 0.45mm
; perimeters extrusion width = 0.45mm
; infill extrusion width = 0.45mm
; solid infill extrusion width = 0.45mm
; top infill extrusion width = 0.40mm
; support material extrusion width = 0.35mm
; first layer extrusion width = 0.42mm

; external perimeters extrusion width = 0.45mm
; perimeters extrusion width = 0.45mm
; infill extrusion width = 0.45mm
; solid infill extrusion width = 0.45mm
; top infill extrusion width = 0.40mm
; support material extrusion width = 0.35mm
; first layer extrusion width = 0.42mm

; external perimeters extrusion width = 0.45mm
; perimeters extrusion width = 0.45mm
; infill extrusion width = 0.45mm
; solid infill extrusion width = 0.45mm
; top infill extrusion width = 0.40mm
; support material extrusion width = 0.35mm
; first layer extrusion width = 0.42mm

M73 P0 R26
M190 S50 ; set bed temperature and wait for it to be reached
M104 S230 ; set temperature
;TYPE:Custom
START_PRINT EXTRUDER_TEMP=230 BED_TEMP=50 Z_OFFSET=0.1
M109 S230 ; set temperature and wait for it to be reached
G21 ; set units to millimeters
G90 ; use absolute coordinates
M83 ; use relative distances for extrusion
; Filament gcode
M107
;LAYER_CHANGE
;Z:0.3
;HEIGHT:0.3
;BEFORE_LAYER_CHANGE
G92 E0
;0.3


G10 ; retract
G1 Z.3 F7800
;AFTER_LAYER_CHANGE
;0.3
G1 X78.191 Y68.332
G11 ; unretract
;TYPE:Skirt/Brim
;WIDTH:0.42
G1 F1800
G1 X79.55 Y67.033 E.08339
G1 X80.886 Y66.183 E.07023
G1 X82.708 Y65.497 E.08635
G1 X84.376 Y65.233 E.0749
G1 X86.288 Y65.32 E.08489
G1 X87.468 Y65.587 E.05366
G1 X147.162 Y83.079 E2.75905
G1 X148.144 Y83.429 E.04624
G1 X149.175 Y83.928 E.0508
G1 X149.795 Y84.319 E.03251
G1 X150.743 Y85.052 E.05315
G1 X151.913 Y86.297 E.07578
G1 X152.626 Y87.36 E.05677
G1 X153.268 Y88.723 E.06683
G1 X153.74 Y90.474 E.08044
G1 X153.85 Y91.65 E.05239
G1 X153.903 Y138.305 E2.06938
G1 X153.688 Y140.022 E.07675
G1 X153.329 Y141.235 E.05611
G1 X152.91 Y142.194 E.04642
G1 X151.95 Y143.721 E.08
G1 X150.574 Y145.144 E.0878
G1 X149.827 Y145.708 E.04152
G1 X148.907 Y146.258 E.04754
G1 X147.307 Y146.912 E.07667
G1 X86.632 Y164.651 E2.80389
G1 X85.076 Y164.8 E.06933
G1 X83.689 Y164.74 E.06158
G1 X81.963 Y164.321 E.07878
G1 X80.539 Y163.665 E.06954
G1 X79.653 Y163.083 E.04702
G1 X78.791 Y162.368 E.04967
G1 X78.027 Y161.535 E.05013
G1 X77.125 Y160.158 E.07301
G1 X76.589 Y158.928 E.05951
G1 X76.166 Y157.186 E.07951
G1 X76.081 Y155.958 E.0546
G1 X76.16 Y73.226 E3.66956
G1 X76.532 Y71.362 E.08431
G1 X77.202 Y69.785 E.076
G1 X78.15 Y68.392 E.07474
G1 X78.442 Y68.591 F7800
G1 F1800
G1 X78.461 Y68.564 E.00146
G1 X79.773 Y67.31 E.0805
G1 X81.053 Y66.497 E.06726
G1 X82.804 Y65.839 E.08297
G1 X84.401 Y65.588 E.0717
G1 X86.227 Y65.671 E.08108
G1 X87.368 Y65.928 E.05188
G1 X147.062 Y83.421 E2.75906
G1 X148.016 Y83.761 E.04492
G1 X149.591 Y84.61 E.07936
G1 X150.511 Y85.321 E.05157
G1 X151.637 Y86.521 E.07299
G1 X152.314 Y87.531 E.05393
G1 X152.932 Y88.842 E.06429
G1 X153.388 Y90.525 E.07734
G1 X153.495 Y91.671 E.05105
G1 X153.548 Y138.292 E2.06787
G1 X153.339 Y139.952 E.07421
G1 X152.998 Y141.104 E.05329
G1 X152.589 Y142.041 E.04535
G1 X151.674 Y143.497 E.07627
G1 X150.343 Y144.874 E.08494
G1 X149.623 Y145.417 E.04
G1 X148.738 Y145.946 E.04573
G1 X147.207 Y146.571 E.07335
M73 P1 R26
G1 X86.572 Y164.3 E2.80206
G1 X85.056 Y164.445 E.06755
G1 X83.739 Y164.388 E.05847
G1 X82.075 Y163.983 E.07596
G1 X80.723 Y163.361 E.06601
G1 X79.858 Y162.793 E.0459
G1 X79.033 Y162.107 E.04759
G1 X78.307 Y161.317 E.04759
G1 X77.436 Y159.986 E.07055
G1 X76.924 Y158.81 E.05689
G1 X76.519 Y157.144 E.07605
G1 X76.437 Y155.958 E.05273
G1 X76.513 Y73.262 E3.66797
G1 X76.873 Y71.462 E.08142
G1 X77.514 Y69.955 E.07264
G1 X78.402 Y68.65 E.07001
G1 X78.694 Y68.849 F7800
G1 F1800
G1 X78.731 Y68.796 E.00287
G1 X79.995 Y67.588 E.07755
G1 X81.22 Y66.811 E.06434
G1 X82.9 Y66.181 E.07958
G1 X84.426 Y65.942 E.06851
G1 X86.166 Y66.021 E.07726
G1 X87.268 Y66.269 E.0501
G1 X146.962 Y83.762 E2.75906
G1 X147.888 Y84.093 E.04362
G1 X149.387 Y84.901 E.07553
G1 X150.279 Y85.591 E.05002
G1 X151.256 Y86.617 E.06284
G1 X152.002 Y87.701 E.05837
G1 X152.597 Y88.961 E.0618
G1 X153.036 Y90.576 E.07423
G1 X153.14 Y91.693 E.04976
G1 X153.192 Y138.28 E2.06636
G1 X152.99 Y139.882 E.07162
G1 X152.668 Y140.973 E.05045
G1 X152.268 Y141.888 E.04429
G1 X151.398 Y143.273 E.07255
G1 X150.111 Y144.604 E.08212
G1 X148.569 Y145.633 E.08223
G1 X147.107 Y146.23 E.07004
G1 X86.511 Y163.95 E2.80029
G1 X85.037 Y164.09 E.06567
G1 X83.789 Y164.036 E.05541
G1 X82.187 Y163.646 E.07313
G1 X80.907 Y163.056 E.06252
G1 X80.063 Y162.502 E.04478
G1 X79.275 Y161.847 E.04545
G1 X78.587 Y161.098 E.04511
G1 X77.748 Y159.814 E.06803
G1 X77.259 Y158.691 E.05433
G1 X76.872 Y157.102 E.07254
G1 X76.792 Y155.958 E.05087
G1 X76.867 Y73.297 E3.66641
G1 X77.214 Y71.562 E.07848
G1 X77.826 Y70.126 E.06924
G1 X78.654 Y68.909 E.06529
G10 ; retract
G1 X78.654 Y68.909 F7800
G1 X102.564 Y87.851
G11 ; unretract
;TYPE:Perimeter
;WIDTH:0.42
G1 F1800
M73 P2 R26
G1 X102.73 Y87.797 E.00774
G1 X103.807 Y87.626 E.04837
G1 X104.085 Y87.626 E.01233
G1 X105.163 Y87.797 E.04841
G1 X105.427 Y87.883 E.01232
G1 X106.4 Y88.378 E.04842
G1 X106.625 Y88.542 E.01235
G1 X107.396 Y89.314 E.04839
G1 X107.559 Y89.539 E.01232
G1 X108.055 Y90.51 E.04836
G1 X108.148 Y90.821 E.0144
G1 X108.312 Y91.852 E.0463
G1 X108.312 Y92.131 E.01237
G1 X108.141 Y93.209 E.04841
G1 X108.055 Y93.473 E.01232
G1 X107.56 Y94.445 E.04838
G1 X107.392 Y94.675 E.01263
G1 X106.625 Y95.442 E.04811
G1 X106.4 Y95.606 E.01235
G1 X105.427 Y96.101 E.04842
G1 X105.049 Y96.205 E.01739
G1 X104.085 Y96.358 E.04329
G1 X103.807 Y96.358 E.01233
G1 X102.73 Y96.187 E.04837
G1 X102.465 Y96.101 E.01236
G1 X101.492 Y95.606 E.04842
G1 X101.267 Y95.442 E.01235
G1 X100.496 Y94.67 E.04839
G1 X100.255 Y94.293 E.01985
G1 X99.837 Y93.473 E.04082
G1 X99.751 Y93.208 E.01236
G1 X99.581 Y92.13 E.04841
G1 X99.581 Y91.853 E.01229
G1 X99.76 Y90.727 E.05057
G1 X100.055 Y90.084 E.03138
G1 X100.333 Y89.539 E.02714
G1 X100.585 Y89.225 E.01786
G1 X101.267 Y88.542 E.04281
G1 X101.492 Y88.378 E.01235
G1 X102.465 Y87.883 E.04842
G1 X102.496 Y87.873 E.00144
G1 X102.675 Y88.184 F7800
G1 F1800
G1 X102.785 Y88.148 E.00513
G1 X103.863 Y87.978 E.04841
G1 X104.701 Y88.084 E.03747
G1 X105.238 Y88.187 E.02425
G1 X106.238 Y88.695 E.04975
G1 X106.374 Y88.793 E.00744
G1 X107.145 Y89.565 E.04839
G1 X107.617 Y90.434 E.04386
G1 X107.789 Y90.83 E.01915
G1 X107.961 Y91.908 E.04842
G1 X107.961 Y92.075 E.00741
G1 X107.789 Y93.153 E.04842
G1 X107.738 Y93.311 E.00736
G1 X107.243 Y94.284 E.04842
G1 X106.447 Y95.117 E.0511
G1 X106.238 Y95.289 E.01201
G1 X105.266 Y95.784 E.04838
G1 X104.029 Y96.007 E.05575
G1 X103.863 Y96.007 E.00736
G1 X102.785 Y95.836 E.04841
G1 X102.031 Y95.481 E.03696
G1 X101.561 Y95.229 E.02365
G1 X100.672 Y94.323 E.0563
G1 X100.184 Y93.369 E.04753
G1 X100.103 Y93.153 E.01023
G1 X99.932 Y92.075 E.04841
G1 X100.108 Y90.802 E.057
G1 X100.65 Y89.7 E.05447
G1 X101.338 Y88.974 E.04436
G1 X101.654 Y88.695 E.0187
G1 X102.608 Y88.209 E.04749
G1 X102.839 Y88.508 F7800
;TYPE:External perimeter
G1 F1800
G1 X103.918 Y88.329 E.04851
G1 X105.104 Y88.517 E.05326
G1 X106.122 Y89.045 E.05087
G1 X106.893 Y89.817 E.04839
G1 X107.3 Y90.595 E.03894
G1 X107.446 Y90.933 E.01633
G1 X107.61 Y91.964 E.0463
G1 X107.438 Y93.097 E.05083
G1 X106.926 Y94.122 E.05082
G1 X106.077 Y94.972 E.05329
G1 X105.104 Y95.468 E.04844
G1 X103.974 Y95.655 E.0508
G1 X102.841 Y95.485 E.05082
G1 X101.77 Y94.939 E.05332
G1 X100.999 Y94.167 E.04839
G1 X100.5 Y93.207 E.04799
G1 X100.403 Y92.775 E.01964
G1 X100.283 Y92.019 E.03395
G1 X100.456 Y90.876 E.05127
G1 X100.967 Y89.862 E.05036
G1 X101.59 Y89.226 E.03949
G1 X101.815 Y89.012 E.01377
G1 X102.77 Y88.526 E.04753
G1 X103.243 Y88.442 F7800
G10 ; retract
G1 X137.151 Y93.198
G11 ; unretract
;TYPE:Perimeter
G1 F1800
G1 X135.064 Y93.248 E.09259
G1 X131.044 Y93.403 E.17844
G1 X129.092 Y93.529 E.08676
G1 X123.434 Y93.986 E.25178
G1 X120.669 Y94.343 E.12366
G1 X118.137 Y94.769 E.11388
G1 X115.455 Y95.343 E.12165
G1 X114.478 Y95.578 E.04457
G1 X111.493 Y96.439 E.1378
G1 X109.095 Y97.291 E.11288
G1 X108.143 Y97.659 E.04527
G1 X105.851 Y98.667 E.11106
G1 X102.755 Y100.253 E.15429
G1 X100.555 Y101.519 E.11258
G1 X98.497 Y102.791 E.10731
G1 X91.829 Y107.096 E.35204
G1 X90.56 Y107.87 E.06593
G1 X88.905 Y108.794 E.08407
G1 X86.498 Y109.911 E.1177
G1 X86.441 Y109.504 E.01823
G1 X86.271 Y109.155 E.01722
G1 X86.78 Y108.984 E.02382
G1 X88.234 Y108.332 E.07068
G1 X89.002 Y107.939 E.03827
G1 X90.742 Y106.93 E.08921
G1 X92.27 Y105.9 E.08173
G1 X93.486 Y104.952 E.06839
G1 X94.27 Y104.268 E.04615
G1 X95.661 Y102.801 E.08967
G1 X96.505 Y101.649 E.06334
G1 X97.069 Y100.668 E.05019
G1 X97.523 Y99.555 E.05332
G1 X97.816 Y98.303 E.05703
G1 X97.87 Y97.057 E.05532
G1 X97.772 Y96.22 E.03738
G1 X97.588 Y95.545 E.03103
G1 X97.163 Y94.605 E.04576
G1 X96.703 Y93.956 E.03528
G1 X96.243 Y93.48 E.02936
G1 X95.567 Y92.972 E.03751
G1 X94.934 Y92.631 E.03189
G1 X94.692 Y92.54 E.01147
G1 X93.761 Y92.253 E.04321
G1 X93.15 Y92.133 E.02762
;WIDTH:0.466105
G1 X92.869 Y92.087 E.01427
;WIDTH:0.51221
G1 X92.588 Y92.041 E.0159
;WIDTH:0.558315
G1 X92.308 Y91.995 E.01748
G1 X92.354 Y91.983 E.00293
;WIDTH:0.544495
G1 X92.652 Y91.919 E.01825
;WIDTH:0.502996
G1 X92.951 Y91.855 E.01673
;WIDTH:0.461498
G1 X93.25 Y91.791 E.01515
;WIDTH:0.42
G1 X94.029 Y91.666 E.03499
G1 X94.671 Y91.455 E.02997
G1 X94.939 Y91.327 E.01317
G1 X95.749 Y90.883 E.04097
G1 X96.406 Y90.336 E.03792
G1 X96.954 Y89.692 E.03751
G1 X97.472 Y88.73 E.04846
G1 X97.582 Y88.43 E.01417
G1 X97.759 Y87.809 E.02864
G1 X97.871 Y86.979 E.03715
G1 X97.87 Y86.178 E.03553
G1 X97.827 Y85.783 E.01762
G1 X97.522 Y84.418 E.06204
G1 X97.044 Y83.262 E.05548
G1 X96.29 Y82.001 E.06517
G1 X95.557 Y81.047 E.05336
G1 X94.93 Y80.355 E.04142
G1 X94.553 Y79.981 E.02355
G1 X93.222 Y78.816 E.07846
G1 X92.829 Y78.497 E.02245
G1 X91.486 Y77.533 E.07333
G1 X90.028 Y76.619 E.07633
G1 X88.257 Y75.651 E.08952
G1 X86.273 Y74.82 E.09541
G1 X86.418 Y74.503 E.01546
G1 X86.502 Y74.075 E.01935
G1 X88.651 Y75.066 E.10497
G1 X89.279 Y75.384 E.03122
G1 X90.273 Y75.975 E.05129
G1 X94.473 Y78.589 E.21942
G1 X96.494 Y79.902 E.1069
G1 X100.338 Y82.256 E.19993
G1 X101.861 Y83.211 E.07973
G1 X103.021 Y83.869 E.05915
G1 X105.612 Y85.196 E.12912
G1 X106.213 Y85.48 E.02948
G1 X107.858 Y86.201 E.07966
G1 X110.838 Y87.31 E.14103
G1 X111.747 Y87.622 E.04263
G1 X115.323 Y88.613 E.16459
G1 X117.268 Y89.04 E.08832
G1 X120.347 Y89.586 E.1387
G1 X125.644 Y90.217 E.23661
G1 X128.472 Y90.434 E.1258
G1 X132.397 Y90.635 E.17432
G1 X133.952 Y90.683 E.069
G1 X137.174 Y90.738 E.14293
G1 X136.891 Y91.036 E.01823
G1 X136.662 Y91.527 E.02403
G1 X136.591 Y92.09 E.02517
G1 X136.719 Y92.637 E.02492
G1 X136.925 Y92.971 E.01741
G1 X137.1 Y93.147 E.01101
G1 X137.69 Y93.189 F7800
;WIDTH:0.595044
G1 F1800
G1 X137.705 Y93.201 E.00127
;WIDTH:0.638804
G1 X137.78 Y93.261 E.00688
;WIDTH:0.682566
G1 X137.856 Y93.321 E.00747
;WIDTH:0.726327
G1 X137.931 Y93.382 E.00798
G1 X137.867 Y93.404 E.00559
;WIDTH:0.684181
G1 X137.802 Y93.427 E.00533
;WIDTH:0.642035
G1 X137.738 Y93.449 E.00488
;WIDTH:0.599889
G1 X137.673 Y93.472 E.00461
;WIDTH:0.557743
G1 X137.609 Y93.495 E.00418
;WIDTH:0.515598
G1 X137.426 Y93.523 E.01042
;WIDTH:0.467799
G1 X137.243 Y93.551 E.00932
;WIDTH:0.42
G1 X135.078 Y93.603 E.09606
G1 X131.043 Y93.759 E.17911
G1 X129.107 Y93.884 E.08605
G1 X123.437 Y94.343 E.25231
G1 X120.694 Y94.699 E.12269
G1 X118.224 Y95.115 E.1111
G1 X117.507 Y95.259 E.03244
G1 X115.531 Y95.69 E.08971
G1 X114.576 Y95.92 E.04357
G1 X111.612 Y96.774 E.13682
G1 X109.223 Y97.623 E.11246
G1 X108.286 Y97.985 E.04455
G1 X106.013 Y98.983 E.11011
G1 X102.933 Y100.561 E.1535
G1 X100.742 Y101.821 E.11211
G1 X98.69 Y103.09 E.10701
G1 X92.018 Y107.397 E.35224
G1 X90.739 Y108.177 E.06645
G1 X89.067 Y109.111 E.08495
G1 X86.04 Y110.515 E.148
G1 X86.143 Y110.178 E.01563
G1 X86.108 Y109.63 E.02436
G1 X85.874 Y109.199 E.02175
G1 X85.614 Y108.963 E.01557
G1 X86.635 Y108.66 E.04724
G1 X88.049 Y108.027 E.06872
G1 X88.824 Y107.632 E.03858
G1 X90.545 Y106.634 E.08824
G1 X92.051 Y105.619 E.08055
G1 X93.288 Y104.654 E.06959
G1 X94.012 Y104.023 E.0426
G1 X95.403 Y102.556 E.08967
G1 X96.217 Y101.441 E.06123
G1 X96.483 Y100.988 E.0233
G1 X96.74 Y100.533 E.02318
G1 X97.194 Y99.421 E.05327
G1 X97.461 Y98.282 E.05189
G1 X97.516 Y97.093 E.05279
G1 X97.427 Y96.308 E.03504
G1 X97.261 Y95.686 E.02855
G1 X96.871 Y94.807 E.04265
G1 X96.443 Y94.199 E.03298
G1 X96.025 Y93.762 E.02682
G1 X95.398 Y93.285 E.03494
G1 X94.594 Y92.882 E.03989
G1 X93.641 Y92.588 E.04424
G1 X93.121 Y92.487 E.0235
G1 X91.955 Y92.396 E.05187
G1 X91.169 Y92.422 E.03488
G1 X91.17 Y91.557 E.03837
G1 X92.295 Y91.569 E.0499
G1 X93.918 Y91.328 E.07278
G1 X94.56 Y91.117 E.02997
G1 X95.531 Y90.602 E.04875
G1 X96.143 Y90.098 E.03517
G1 X96.641 Y89.523 E.03374
G1 X97.159 Y88.561 E.04846
G1 X97.241 Y88.327 E.011
G1 X97.408 Y87.758 E.0263
G1 X97.515 Y86.979 E.03488
G1 X97.515 Y86.178 E.03553
G1 X97.48 Y85.857 E.01432
G1 X97.219 Y84.64 E.05521
G1 X96.775 Y83.518 E.05352
G1 X95.985 Y82.183 E.0688
G1 X95.258 Y81.247 E.05257
G1 X94.319 Y80.248 E.06081
G1 X92.621 Y78.785 E.09941
G1 X91.298 Y77.834 E.07227
G1 X89.84 Y76.921 E.0763
G1 X88.118 Y75.978 E.08708
G1 X86.261 Y75.19 E.08948
G1 X85.599 Y75.022 E.03029
G1 X86.013 Y74.581 E.02683
G1 X86.137 Y74.207 E.01748
G1 X86.136 Y73.745 E.02049
G1 X86.045 Y73.472 E.01276
G1 X89.005 Y74.838 E.1446
G1 X89.452 Y75.073 E.0224
G1 X90.458 Y75.671 E.05191
G1 X94.664 Y78.288 E.21972
G1 X96.68 Y79.598 E.10664
G1 X100.525 Y81.954 E.20001
G1 X102.037 Y82.902 E.07916
G1 X103.183 Y83.552 E.05844
G1 X105.764 Y84.874 E.12862
G1 X106.356 Y85.154 E.02905
G1 X107.982 Y85.868 E.07877
G1 X110.954 Y86.974 E.14065
G1 X111.844 Y87.28 E.04174
G1 X115.4 Y88.266 E.16368
G1 X117.331 Y88.69 E.08769
G1 X120.389 Y89.233 E.13776
G1 X125.686 Y89.864 E.23661
G1 X128.499 Y90.08 E.12514
G1 X132.408 Y90.28 E.17361
G1 X133.958 Y90.327 E.06878
G1 X137.386 Y90.387 E.15207
;WIDTH:0.464224
G1 X137.452 Y90.411 E.0035
;WIDTH:0.508449
G1 X137.517 Y90.434 E.00382
;WIDTH:0.552673
G1 X137.582 Y90.458 E.00422
;WIDTH:0.596898
G1 X137.647 Y90.481 E.00458
;WIDTH:0.641123
G1 X137.712 Y90.505 E.00498
;WIDTH:0.685347
G1 X137.777 Y90.529 E.00537
;WIDTH:0.729572
G1 X137.842 Y90.552 E.00572
;WIDTH:0.773796
G1 X137.907 Y90.576 E.00613
G1 X137.862 Y90.613 E.00515
;WIDTH:0.729957
G1 X137.818 Y90.65 E.00477
;WIDTH:0.686117
G1 X137.774 Y90.687 E.00446
;WIDTH:0.642277
G1 X137.729 Y90.724 E.0042
;WIDTH:0.598438
G1 X137.585 Y90.862 E.01329
;WIDTH:0.553828
G1 X137.441 Y91 E.01218
;WIDTH:0.509219
G1 X137.297 Y91.139 E.0111
;WIDTH:0.464609
G1 X137.152 Y91.277 E.00999
;WIDTH:0.42
G1 X137.015 Y91.571 E.01439
G1 X136.947 Y92.104 E.02383
G1 X137.022 Y92.451 E.01575
G1 X137.228 Y92.785 E.01741
G1 X137.403 Y92.96 E.01098
;WIDTH:0.463761
G1 X137.478 Y93.021 E.00482
;WIDTH:0.507522
G1 X137.554 Y93.081 E.00535
;WIDTH:0.551283
G1 X137.629 Y93.141 E.00583
;WIDTH:0.595044
G1 X137.634 Y93.144 E.00039
G10 ; retract
G1 X137.634 Y93.144 F7800
G1 X140.231 Y90.84
G11 ; unretract
;WIDTH:0.481558
G1 F1800
G1 X139.973 Y91.146 E.02083
;WIDTH:0.504567
G1 X139.802 Y91.453 E.01929
